/* XPM */
static char *bitcoin32[] = {
/* columns rows colors chars-per-pixel */
"32 32 158 2 ",
"   c None",
".  c #CE9602",
"X  c #CF990A",
"o  c #D09B0D",
"O  c #D19C12",
"+  c #D19F1A",
"@  c #D2A01C",
"#  c #D3A323",
"$  c #D3A52C",
"%  c #D5A833",
"&  c #D4AA3B",
"*  c #D6AD42",
"=  c #D4AE4B",
"-  c #D4B04F",
";  c #DBB34C",
":  c #DAB554",
">  c #DAB658",
",  c #DDBB65",
"<  c #D5B76B",
"1  c #DDBD6B",
"2  c #DABD72",
"3  c #E6C257",
"4  c #E4C25C",
"5  c #E9C65D",
"6  c #EAC85F",
"7  c #DFC06E",
"8  c #DDC075",
"9  c #DFC47C",
"0  c #E6C665",
"q  c #E9C761",
"w  c #E7C966",
"e  c #EBC965",
"r  c #E4C56A",
"t  c #E5C869",
"y  c #ECCC6B",
"u  c #E2C574",
"i  c #ECCE73",
"p  c #E1C378",
"a  c #E7CD7B",
"s  c #E8CF7C",
"d  c #EFD075",
"f  c #EAD17E",
"g  c #F0D37D",
"h  c #DCC486",
"j  c #DDCB99",
"k  c #E0C783",
"l  c #E2C984",
"z  c #E0C98D",
"x  c #EAD384",
"c  c #EBD68C",
"v  c #F1D585",
"b  c #F2D789",
"n  c #F3D88D",
"m  c #E2CD95",
"M  c #EAD692",
"N  c #ECD996",
"B  c #E8D79C",
"V  c #EBD99B",
"C  c #F3DB92",
"Z  c #F5DE9B",
"A  c #D8CAA8",
"S  c #DDD3BC",
"D  c #E3D1A4",
"F  c #ECDBA0",
"G  c #E6D7AF",
"H  c #EBDDAD",
"J  c #E8D9B4",
"K  c #E1D6BC",
"L  c #F6E3A4",
"P  c #F9E5AC",
"I  c #EDE0B3",
"U  c #EBE1BB",
"Y  c #F9E9B9",
"T  c #DBD3C0",
"R  c #DCD9D6",
"E  c #E4DBC4",
"W  c #E6DECB",
"Q  c #EEE5C4",
"!  c #ECE4C9",
"~  c #EFE8CF",
"^  c #FDF1C6",
"/  c #FCF1CC",
"(  c #E6E1D4",
")  c #EAE4D5",
"_  c #EEE9D3",
"`  c #E6E3DE",
"'  c #EAE6DD",
"]  c #F5EDD1",
"[  c #F0EBDA",
"{  c #F9F1D3",
"}  c #FBF5DB",
"|  c #DEDEE2",
" . c #DCE2F4",
".. c #DFEAFF",
"X. c #E3E2E4",
"o. c #E8E6E3",
"O. c #EDEAE3",
"+. c #E6E6EB",
"@. c #EBEBED",
"#. c #F2EEE5",
"$. c #F1EFED",
"%. c #F6F2E4",
"&. c #F2F0EC",
"*. c #E2E5F3",
"=. c #E6E9F4",
"-. c #EDEEF1",
";. c #E5EAFA",
":. c #EAEEFD",
">. c #F0EFF1",
",. c #EFF0F4",
"<. c #EDF1FE",
"1. c #F2F3F3",
"2. c #F2F2F3",
"3. c #F1F1F1",
"4. c #F4F3F2",
"5. c #F4F3F3",
"6. c #F2F3F5",
"7. c #F4F3F5",
"8. c #F3F4F6",
"9. c #F5F4F5",
"0. c #F7F6F4",
"q. c #F4F4F6",
"w. c #F6F5F7",
"e. c #F3F3F3",
"r. c #F8F7F4",
"t. c #F1F3F8",
"y. c #F5F5F8",
"u. c #F6F6F9",
"i. c #F5F5FB",
"p. c #F4F6FB",
"a. c #F0F3FF",
"s. c #F0F4FF",
"d. c #F2F5FE",
"f. c #F2F5FF",
"g. c #F2F6FF",
"h. c #F3F7FF",
"j. c #F4F5FC",
"k. c #F4F7FE",
"l. c #F4F7FF",
"z. c #F3F5FC",
"x. c #F4F8FF",
"c. c #F5F8FF",
"v. c #F5F9FF",
"b. c #F6F8FF",
"n. c #F6F9FF",
"m. c #F7F9FF",
"M. c #F5FAFF",
"N. c #F6FAFF",
"B. c #F6FFFF",
"V. c #F5F9FF",
"C. c #FAFBFB",
"Z. c #F8FAFF",
"A. c #F8FBFF",
"S. c #F8FDFF",
"D. c #F9FDFF",
"F. c #F8FFFF",
"G. c white",
"H. c #F9FBFE",
/* pixels */
"                                                                ",
"                        n d y e y y i n                         ",
"                  P y 6 i N I Q U I V i 6 y P                   ",
"                d 4 V #.h.v.&.9.S.9.9.v.#.B 3 i                 ",
"              y a 9.v.h.9.9.% l S.> : v.9.v.9.a 5 Y             ",
"            y ] v.h.9.9.h.h.% k v.> > h.$.9.9.v.I 5 P           ",
"          v ] S.9.&.h.m * : O m G + : h.-.9.9.9.v.L 3           ",
"        e M S.r.9.@.h.1 . O m -.1 . + , ,.-.$.%./ } C g         ",
"      C 0 v.9.9.-.@.<.2 O + E <.J % + X h <.@.#.{ ^ S.a b       ",
"      5 Q v.9.-.@.@.<.2 o + K =.v.#.$ O % @.-.-.&.} v.! 5       ",
"    C y h.9.9.9.-.@.:.2 O + S =.$.S., X # ( -.@.9.&.9.v.i n     ",
"    y F v.9.-.-.-.@.:.2 o + S *.h.h.& O $ o.-.-.-.-.9.v.H e     ",
"    e _ h.9.-.@.@.@.<.2 o @ S  .! ; O o 2 :.+.@.@.-.9.h.[ q     ",
"    q &.9.9.-.@.@.+.;.2 o @ S ..< . + = X.+.+.@.@.-.9.9.9.e     ",
"    0 9.9.9.-.@.@.+.;.2 o @ * - * @ & R ;.X.+.@.@.-.9.9.h.t     ",
"    r h.9.9.-.-.-.@.:.2 o # + o h = O $ j ;.@.@.-.-.9.9.v.p     ",
"    0 9.9.9.-.@.@.+.;.2 O @ A R | > o + o j ;.@.@.-.9.9.h.r     ",
"    q #.h.9.-.@.@.+.;.2 O @ T  .+.S.p O + # ` -.@.-.9.9.&.q     ",
"    6 Q h.&.-.-.@.@.:.2 O @ S  .+.S.9.% + O D :.@.-.&.h.~ q     ",
"    i M v.&.9.-.-.@.:.2 O @ S *.@.9.v.: O O z h.@.-.9.v.V y     ",
"      0 9.9.9.9.-.@.:.2 O + K *.@.v.9.% + O D <.@.9.9.h.w C     ",
"      q H S.9.9.-.@.<.2 O + K =.-.v.p O @ # ' -.-.9.S.U 5       ",
"      L 4 9.9.9.>.@.<.8 O @ W <.-.> o @ X m h.@.9.9.h.4 Z       ",
"        i i v.9.9.@.h.1 . o 9 ) -.& O # m h.>.9.S.S.f y         ",
"          e c v.9.&.h.D 1 9 O k v.* * O.h.9.9.9.S.N 5           ",
"            5 x v.v.9.h.h.v.% k v.: : v.$.9.v.v.c 5             ",
"              y w _ v.h.9.9.: m v.7 r v.h.v._ r e               ",
"                b 3 s Q 9.h.v.S.S.v.v.9.! f 3 v                 ",
"                    g 6 e f M B B M f e e d                     ",
"                          v i y y y g                           ",
"                                                                ",
"                                                                "
};
