/* XPM */
static char *bitcoin256[] = {
/* columns rows colors chars-per-pixel */
"256 256 243 2 ",
"   c None",
".  c #CF990E",
"X  c #CD9608",
"o  c #D19B0E",
"O  c #D49C07",
"+  c #CF9A12",
"@  c #CF9E1C",
"#  c #D29D13",
"$  c #D19F1C",
"%  c #D9A40D",
"&  c #D5A115",
"*  c #D3A11D",
"=  c #D9A51D",
"-  c #DDAA1D",
";  c #DCA715",
":  c #EEBB06",
">  c #EAB50D",
",  c #EDBB0B",
"<  c #E7B40C",
"1  c #F1BE04",
"2  c #F0BE0A",
"3  c #E2AD15",
"4  c #E1AD1A",
"5  c #E5B214",
"6  c #E9B612",
"7  c #EBBA13",
"8  c #E4B21B",
"9  c #E8B21C",
"0  c #E4B00F",
"q  c #D29F20",
"w  c #D4A221",
"e  c #D9A621",
"r  c #DBA923",
"t  c #D6A82E",
"y  c #DAAA2B",
"u  c #D4A62B",
"i  c #D5A934",
"p  c #DCAD33",
"a  c #D6AB3A",
"s  c #DEB23B",
"d  c #DEB136",
"f  c #CFA227",
"g  c #E0B43B",
"h  c #E4B220",
"j  c #F4C303",
"k  c #F6CA04",
"l  c #FACC03",
"z  c #F2C30A",
"x  c #F8CA08",
"c  c #FCD203",
"v  c #FCD30C",
"b  c #FED90C",
"n  c #FEDA05",
"m  c #FDD512",
"M  c #FEDB14",
"N  c #FEDC1C",
"B  c #FBD41E",
"V  c #F1C412",
"C  c #FFE11C",
"Z  c #FFE10F",
"A  c #FFDD23",
"S  c #FDDC2A",
"D  c #F7D130",
"F  c #FFE32C",
"G  c #FFE125",
"H  c #FFE233",
"J  c #FFE43B",
"K  c #FFE937",
"L  c #D4AE4A",
"P  c #D5AD44",
"I  c #DBB243",
"U  c #D9B34B",
"Y  c #D6B14A",
"T  c #D6B356",
"R  c #D9B555",
"E  c #D6B45A",
"W  c #D9B65A",
"Q  c #DBB95D",
"!  c #DDB956",
"~  c #D1AD53",
"^  c #E0B643",
"/  c #E3BB4C",
"(  c #E2B846",
")  c #E4BD53",
"_  c #D6B661",
"`  c #DBBA62",
"'  c #DDBD6C",
"]  c #D8B864",
"[  c #DDBE71",
"{  c #D6BC7C",
"}  c #E0BF6B",
"|  c #E6C25C",
" . c #E7C25A",
".. c #F3D84F",
"X. c #FFE543",
"o. c #FEE54B",
"O. c #FFE94B",
"+. c #FEE845",
"@. c #FFEA54",
"#. c #FFEB5B",
"$. c #FDE554",
"%. c #DEC071",
"&. c #DEC37C",
"*. c #DFC06B",
"=. c #E8C663",
"-. c #EACA6C",
";. c #E7C666",
":. c #ECCD73",
">. c #E3C679",
",. c #EED27C",
"<. c #EDD577",
"1. c #F1D870",
"2. c #FFEC63",
"3. c #FFEC6B",
"4. c #FFE766",
"5. c #FFED73",
"6. c #FDEC7A",
"7. c #FFF178",
"8. c #D6BD80",
"9. c #DDC382",
"0. c #DBC48C",
"q. c #DCC997",
"w. c #E2C988",
"e. c #EBD585",
"r. c #F1D684",
"t. c #F3D98D",
"y. c #F1D689",
"u. c #E2CD95",
"i. c #E7D498",
"p. c #F4DC94",
"a. c #F5DE99",
"s. c #FDED84",
"d. c #FFF184",
"f. c #FFF38C",
"g. c #F6E19C",
"h. c #F8E59A",
"j. c #FFF393",
"k. c #FFF49B",
"l. c #EDE192",
"z. c #DCD3A9",
"x. c #DCD2B9",
"c. c #D9CEB0",
"v. c #E6D6A9",
"b. c #E7D9B2",
"n. c #E9DAB3",
"m. c #E9DCBA",
"M. c #E6D8B6",
"N. c #E1CFA6",
"B. c #F7E2A1",
"V. c #F9E4A3",
"C. c #F9E6AA",
"Z. c #FBE9AE",
"A. c #F9EBA5",
"S. c #FFF4A4",
"D. c #FFF6AB",
"F. c #FFF8AB",
"G. c #FCEBB5",
"H. c #FDEEBD",
"J. c #FDEDBC",
"K. c #F3E6B4",
"L. c #FFF6B2",
"P. c #FFF1BD",
"I. c #FEF8BA",
"U. c #E9E4BA",
"Y. c #CBCBCE",
"T. c #D9D5C7",
"R. c #CECED3",
"E. c #CCCCDC",
"W. c #C6C8D9",
"Q. c #D0CFD3",
"!. c #CFD0D7",
"~. c #D2D1D6",
"^. c #D5D5DA",
"/. c #DADADD",
"(. c #D9D8DA",
"). c #D5CFC2",
"_. c #E4DCC7",
"`. c #E1DFDC",
"'. c #EBE4CC",
"]. c #EBE4C7",
"[. c #FDEEC1",
"{. c #FCEEC3",
"}. c #FAEFC9",
"|. c #FAEFCA",
" X c #F4EBCB",
".X c #FFF1C2",
"XX c #FEF1C4",
"oX c #FEF9C5",
"OX c #FDF1CA",
"+X c #FEF9CC",
"@X c #F4F0C8",
"#X c #ECE5D1",
"$X c #EBE6D7",
"%X c #F1EBD7",
"&X c #FBF3D5",
"*X c #FEFAD4",
"=X c #FEFBDB",
"-X c #F9F3DB",
";X c #CCCEE2",
":X c #CED1E2",
">X c #D3D4E2",
",X c #D6D9E4",
"<X c #DBDDE5",
"1X c #DCDEE9",
"2X c #D4D7EA",
"3X c #D9DEF1",
"4X c #E0DFE2",
"5X c #DEE0E6",
"6X c #DEE1E9",
"7X c #DDE2F4",
"8X c #DDE5F9",
"9X c #E3E3E5",
"0X c #E4E5EB",
"qX c #E8E7EC",
"wX c #E7E8ED",
"eX c #EAEBEE",
"rX c #EAE8E5",
"tX c #F0EFEE",
"yX c #F2EFE3",
"uX c #F6F1E2",
"iX c #FEFCE3",
"pX c #F3F2EC",
"aX c #FEFDEC",
"sX c #F9F5E5",
"dX c #E2E6F3",
"fX c #E6E9F4",
"gX c #EEEEF1",
"hX c #E5EAF9",
"jX c #EBEEFA",
"kX c #E2E7F8",
"lX c #F0EFF1",
"zX c #EFF0F2",
"xX c #EEF1FC",
"cX c #E7F1FF",
"vX c #F3F3F4",
"bX c #FCFCF5",
"nX c #F5F6FA",
"mX c #F8F7FA",
"MX c #F6F9FE",
"NX c #FDFDFD",
"BX c #F8F7F7",
"VX c #EFF0EE",
"CX c #DFE0DF",
/* pixels */
"                                                                                                                                                                                                                                                                                                                                                                                                                                                                                                                                ",
"                                                                                                                                                                                                                                                                                                                                                                                                                                                                                                                                ",
"                                                                                                                                                                                                                                                                                                                                                                                                                                                                                                                                ",
"                                                                                                                                                                                                                                                                                                                                                                                                                                                                                                                                ",
"                                                                                                                                                                                                                                                                                                                                                                                                                                                                                                                                ",
"                                                                                                                                                                                                                                                                                                                                                                                                                                                                                                                                ",
"                                                                                                                                                                                                                                                                                                                                                                                                                                                                                                                                ",
"                                                                                                                                                                                                                                                  OXOXOXOXOXXXXX{.|.|.|.{.{.OX  OX                                                                                                                                                                                                                                              ",
"                                                                                                                                                                                                                                |.|.|.|.OXOXOXOXXXXX{.{.{.{.{.{.{.{.{.J.J.{.XXXXXXOXOXXX{.|.|.|.|.|.                                                                                                                                                                                                                            ",
"                                                                                                                                                                                                                      OXOXOX|.{.{.{.{.{.{.{.{.{.J.J.J.J.J.J.J.J.J.J.J.J.J.J.J.J.{.{.J.J.J.J.J.J.{.{.XXXXOXOXOXOXOX                                                                                                                                                                                                              ",
"                                                                                                                                                                                                          |.|.|.OXOXXX{.XX{.{.J.J.J.J.J.J.J.J.J.J.J.J.J.P.XXXXXXP.J.P.J.J.J.J.J.J.J.J.J.G.J.J.J.J.J.J.J.J.J.{.XX{.|.|.|.|.|.                                                                                                                                                                                                    ",
"                                                                                                                                                                                                    |.|.{.{.{.{.{.{.J.J.J.J.J.J.J.XXXXXXXXXXP.J.G.G.Z.C.C.B.B.B.g.B.B.B.C.C.Z.G.J.P.XXXXXXXXXXP.J.J.J.G.G.J.J.J.J.J.J.{.{.{.XXOXOX                                                                                                                                                                                              ",
"                                                                                                                                                                                            |.|.|.{.XXXXXXJ.J.J.J.J.J.P.XXXXJ.G.C.a.r.:.=.) ( s p y y e e * * * * * e e e e y p s I /  .-.,.p.C.Z.J.P.XXXXP.J.J.J.J.J.J.J.J.J.{.{.|.|.|.|.OX                                                                                                                                                                                    ",
"                                                                                                                                                                                        |.|.{.{.{.J.J.J.J.J.XXXXXXG.C.t.<. .( p e * * & # # # # * * * * * * * * * * * * * * * $ # # # # # & * * y s / -.r.g.G.P.XXXXP.J.G.J.J.J.J.{.{.{.{.{.|.                                                                                                                                                                                  ",
"                                                                                                                                                                                    OX{.{.{.J.J.J.J.XXXXXXG.g.,. .s r * # & & * * * e e e e e * * * * * $ $ $ $ * * * * * * * * * * * * * * * * * # # # # * y ^ =.r.C.G.XXXXJ.J.J.J.J.J.J.J.{.{.|.                                                                                                                                                                              ",
"                                                                                                                                                                              OXOXXX{.J.J.J.J.XXXXG.a.:./ y * # # * * * * * = * * * * * * e e e * = = = % % ; 0 0 3 - - = = = * * * * * * * * * * * * * * * * # # # e s  .r.C.P.XXXXJ.G.J.J.J.J.{.{.OXOX                                                                                                                                                                        ",
"                                                                                                                                                                      |.|.XXXXXXXXJ.J.J.XXXXZ.t. .p = & # * * * * * * * * * e e e - 4 5 > , 1 j j j x c v v M ....B v v v x x j j 1 1 : > 3 4 = = * * * * * * * e * * * # # e ^ -.g.G.XXP.J.J.J.J.{.{.XXOX                                                                                                                                                                      ",
"                                                                                                                                                                |.|.|.{.{.J.J.J.P.XXXXG.r.) y & # * * = * * * * * * = - 4 6 2 j x v m A K O.2.d.f.k.D.G.U.U.T.^.>X).x.U.G.D.S.k.f.5.#.+.K N v x j 1 > 3 - = * * * * * * * * * # # * d =.g.J.XXXXJ.J.J.J.XXXXXXOXOX                                                                                                                                                              ",
"                                                                                                                                                              |.XX{.J.J.J.J.J.XXJ.p. .y & & * * * * * * * * = 3 6 2 k v M K @.6.S.I.*XaXNXNXNXNXxXdX2X;XE.>X(././.<XE.W.E.3XdXjXNXNXNXNXNXaX+XL.j.3.X.A v k 1 , 5 - = * * * * * * * & # * g -.C.P.XXJ.J.J.J.J.{.{.OX                                                                                                                                                            ",
"                                                                                                                                                        |.|.|.{.XXJ.G.J.XXXXB.-.d = & * * * * * * * - 4 > j x m K #.f.P.=XNXNXNXNXNXNXNXBXeX/.~.Y.Y.~./.eXBXNXgXwXNXBXeX9X~.Y.Y.~./.9XBXNXNXNXNXNXNXNXaX+XS.5.X.N c j 2 5 - = * * * * = * & # = / r.G.XX{.G.J.J.J.{.XXOXOX                                                                                                                                                      ",
"                                                                                                                                                    |.|.{.{.J.J.J.J.XXG.t./ r & * * e = * * e = 5 1 x M J 5.D.*XbXNXNXNXNXNXNXNXBXeX9X^.~.R.~./.0XBXNXNXNXNXNXBX0XNXNXNXNXNXBXeX<X^.R.R.^.<XeXBXNXNXNXNXNXNXNXNXaXI.d.O.N x j > 3 = * * * = e * # # y =.C.P.P.G.J.J.J.{.XXOX                                                                                                                                                    ",
"                                                                                                                                                  |.{.{.{.J.G.P.XXG.<.d # # * e * * * * - 5 2 x A #.k.*XNXNXNXNXNXNXNXNXBXgX9X/.~.R.R./.9XgXNXNXNXNXNXBXBXBXNXBXeXNXBXBXBXNXNXNXNXNXBX0X/.~.R.R.^.9XeXBXNXNXNXNXNXNXNXNXiXI.5.F v j > 4 e e * * * * * # = / g.P.XXG.G.J.J.XX|.|.                                                                                                                                                ",
"                                                                                                                                              OXOX{.J.J.J.J.XXZ.-.y & * * * * * * = 5 2 x A 3.D.aXNXNXNXNXNXNXNXNXBX0X<X^.R.R.^.<XeXBXNXNXNXNXNXBXBXBXBXBXBXNXBXeXNXBXBXBXBXBXBXBXNXNXNXNXNXeX9X^.R.R.~./.9XgXNXNXNXNXNXNXNXNXNX+Xf.J m z 6 - e * * = * * o & ( t.J.P.G.J.J.J.{.|.|.                                                                                                                                            ",
"                                                                                                                                          OXOXXX{.J.J.J.XXZ.=.y & * e * * * * 4 , x N @.S.aXNXNXNXNXNXNXNXBXeX<X^.~.R.^.<X0XBXNXNXNXNXNXBXBXBXBXBXBXBXBXBXBXNXgXeXNXBXBXBXBXBXBXBXBXBXBXNXNXNXNXNXBXeX<X^.R.R.~./.0XBXNXNXNXNXNXNXNXNXoX6.F x 1 3 = * * * = * # & ^ t.P.XXJ.J.J.{.{.|.|.                                                                                                                                        ",
"                                                                                                                                        |.XX{.J.G.G.XXG.-.y & * * * * * e 4 j c K j.iXNXNXNXNXNXNXBXeX<X^.~.R.~./.9XgXNXNXNXNXNXBXBXBXBXBXBXBXBXBXBXBXBXBXBXNXgXeXNXBXBXBXBXBXBXBXBXBXBXBXBXBXBXNXNXNXNXNXBX0X/.~.R.Q.^.<XeXBXNXNXNXNXNXNXbXL.#.m j > = * * * * * # # ^ p.XXJ.G.J.XXXXOXOX|.                                                                                                                                    ",
"                                                                                                                                    OX{.{.J.J.G.XXG.<.y & * e * * * = 6 j b #.L.NXNXNXNXNXBXeX9X^.~.R.~.(.9XeXnXNXNXNXNXBXBXBXBXBXBXBXBXBXBXBXBXBXBXBXBXBXBXNXgXeXNXBXBXBXBXBXBXBXBXBXBXBXBXBXBXBXBXBXBXNXNXNXNXBXeX9X/.~.R.^./.9XlXNXNXNXNXNXNX=X6.N x > - * $ * * * # & / g.XXJ.G.J.XXXX{.|.                                                                                                                                  ",
"                                                                                                                                  OXXXJ.J.G.P.P.t.d # * e * * * - 6 x N 5.=XNXNXNXBXeX9X/.~.R.R.^.<XeXBXNXNXNXNXBXBXBXBXBXBXBXBXBXBXBXBXBXBXBXBXBXBXBXBXBXBXNXgXeXNXBXBXBXBXBXBXBXBXBXBXBXBXBXBXBXBXBXBXBXBXBXBXNXNXNXNXBXeX<X^.~.R.~./.0XgXNXNXNXNXaXk.J x : - * * * * * # * =.Z.XXJ.J.J.J.{.|.|.                                                                                                                              ",
"                                                                                                                              OXXX{.J.G.G.XXg./ & * e = * * r 7 x F f.aXNXNXBXqX<X^.R.R.^.<X0XBXNXNXNXNXNXBXBXBXBXBXBXBXBXBXBXBXBXBXBXBXBXBXBXBXBXBXBXBXBXBXNXgXeXNXBXBXBXBXBXBXBXBXBXBXBXBXBXBXBXBXBXBXBXBXBXBXBXBXBXBXNXNXNXNXBX0X/.~.R.R.~.<XeXBXNXNXNXS.K x , - * * * * * o y ,.P.P.J.J.J.J.{.|.                                                                                                                            ",
"                                                                                                                            OXXXJ.J.G.XXJ.-.* # * * * e e 7 c K k.aXnXgX4X^.~.~.^./.0XBXNXNXNXNXNXBXBXBXBXBXBXBXBXBXBXBXBXBXBXBXBXBXBXBXBXBXBXBXBXBXBXBXBXBXNXgXeXNXBXBXBXBXBXBXBXBXBXBXBXBXBXBXBXBXBXBXBXBXBXBXBXBXBXBXBXBXBXBXNXNXNXBXgX9X/.~.R.Q.^./.eXnXNXL.O.c 2 - * * * * # # ^ g.XXJ.J.J.{.{.|.                                                                                                                          ",
"                                                                                                                        |.XX{.J.G.G.XXa.s # * * * e * > x F j.eXdX^.R.~.^./.9XgXBXNXNXNXNXBXBXBXBXBXBXBXBXBXBXBXBXBXBXBXBXBXBXBXBXBXBXBXBXBXBXBXBXBXBXBXBXBXNXgXeXNXBXBXBXBXBXBXBXBXBXBXBXBXBXBXBXBXBXBXBXBXBXBXBXBXBXBXBXBXBXBXBXBXnXNXNXNXNXBXeX9X^.R.R.R.^.dXgXA.K c > * $ * * * # = -.P.XXJ.J.J.J.XXOX                                                                                                                      ",
"                                                                                                                      OXXXJ.J.G.J.G.=.* & e = * e 3 x ..e.T.;XR.~./.9XeXnXNXNXNXNXNXBXBXBXBXBXBXBXBXBXBXBXBXBXBXBXBXBXBXBXBXBXBXBXBXNXNXNXBXBXBXBXBXNXBXBXBXNXgXeXNXBXBXBXBXBXBXBXBXBXBXBXBXBXBXBXNXBXBXBXnXBXBXBXBXBXBXBXBXBXBXBXBXBXBXBXBXNXNXNXNXNXBXeX<X^.Q.R.;XT.i...x 0 * * * * * o d g.XXJ.J.J.J.XXOX                                                                                                                    ",
"                                                                                                                    OXXXJ.J.J.XXg.g # * * * * = : A b.;X>X(./.eXBXNXNXNXNXNXBXBXBXBXBXBXBXBXBXBXBXBXBXBXBXBXBXBXBXBXBXBXBXBXBXBXBXN.Q ' ' ' ' ' ' ' Q w.nXBXNXlXeXNXBXBXBXBXBXBXBXnX%X' ' ' ' ' ' ' ' ' Q '.nXBXBXBXBXBXBXBXBXBXBXBXBXBXBXBXBXBXBXBXNXNXNXNXNXBXeX/.^.>X:Xz.N j - * * * * # * -.J.J.G.J.{.{.OX                                                                                                                  ",
"                                                                                                                  OXXXJ.G.J.P.:.r = e * * e 5 x o.).:X`.pXNXNXNXNXNXBXBXBXBXBXBXBXBXBXBXBXBXBXBXBXBXBXBXBXBXBXBXBXBXBXBXBXBXBXpXBX' X + . . # # # # X U BXBXNXgXeXNXBXBXBXBXBXBXBXnX'.X o . . o o . . # X b.BXBXBXBXBXBXBXBXBXBXBXBXBXBXBXBXBXBXBXBXBXBXBXBXNXNXNXNXNXeX/.E.).O.c > = * * * * o s C.XXJ.J.J.{.|.|.                                                                                                              ",
"                                                                                                              OXXXXXJ.J.P.A.( # e r = * - 1 b h.,X^.pXBXeXNXBXBXBXBXBXBXBXBXBXBXBXBXBXBXBXBXBXBXBXBXBXBXBXBXBXBXBXBXBXBXBXBXBXpXnX[ X $ * * * * * e # Q nXBXNXgXeXNXBXBXBXBXBXBXBXnX#X$ $ * * * * * * e # m.BXBXBXBXBXBXBXBXBXBXBXBXBXBXBXBXBXBXBXBXBXBXBXBXBXBXBXNXNXeXBXeX^.>Xh.C j 3 * * * * # e r.XXJ.G.J.J.{.                                                                                                              ",
"                                                                                                            |.XX{.{.J.OXa.y # e * * r 8 x K @X2X~.BXNXNX9XBXNXBXBXBXBXBXBXBXBXBXBXBXBXBXBXBXBXBXBXBXBXBXBXBXBXBXBXBXBXBXBXBXBXpXBX' X $ $ * * * * * # ! nXBXNXeXeXNXBXBXBXBXBXBXBXnX#X$ $ $ $ $ $ $ * * + m.BXBXBXBXBXBXBXBXBXBXBXBXBXBXBXBXBXBXBXBXBXBXBXBXBXBXBXNXBXeXNXNXeXR.2X-X#.x > * * * * * & | G.P.G.J.J.XX                                                                                                            ",
"                                                                                                          |.{.J.J.OXXX,.= * e * * r , b 6.BX>X~.BXNXBXNXgXeXNXBXBXBXBXBXBXBXBXBXBXBXBXBXBXBXBXBXBXBXBXBXBXBXBXBXBXBXBXBXBXBXBXpXBX' X * * $ $ $ * * # Q BXBXNXgXeXNXBXBXBXBXBXBXBXnX#X$ $ $ $ $ $ $ $ * + m.BXBXBXBXBXBXBXBXBXBXBXBXBXBXBXBXBXBXBXBXBXBXBXBXBXBXNXNX9XnXNXBXNXeXY.^.NXS.M j - * = = * # g C.XXJ.J.J.XXOX                                                                                                        ",
"                                                                                                        OXXX{.J.{.&X) # = = * * - k C I.NX^.Q.BXNXBXBXNXNX0XBXNXBXBXBXBXBXBXBXBXBXBXBXBXBXBXBXBXBXBXBXBXBXBXBXBXBXBXBXBXBXBXBXtXBX[ + e $ $ $ * * * + ! nXBXNXgXeXNXBXBXBXBXBXBXBXnX#X$ $ $ $ $ @ $ $ * + m.nXBXBXBXBXBXBXBXBXBXBXBXBXBXBXBXBXBXBXBXBXBXBXBXBXBXNXeXeXNXBXBXBXNXgXY.~.BXiXO.x 9 = * * * # e p.OXJ.J.J.{.|.                                                                                                      ",
"                                                                                                      XXXXJ.J.{.OX X+ $ * * = 9 c @.aXnX~.R.BXNXBXBXBXBXNXBX0XNXBXBXBXBXBXBXBXBXBXBXBXBXBXBXBXBXBXBXBXBXBXBXBXBXBXBXBXlXBXBXBXeXBX[ + e $ $ $ $ * * + ! nXBXNXgX0XNXBXBXBXBXBXBXBXnX#X$ $ $ $ $ $ $ $ $ . m.nXBXBXBXBXBXBXlXlXlXBXBXBXBXBXBXBXBXBXBXBXBXBXBXBXNXBX9XNXNXBXBXBXBXNXVXR.~.BXNXf.v 7 * $ * * * = ,.OXJ.J.J.{.|.|.                                                                                                  ",
"                                                                                                    OX{.J.G.OXr.a.NXt # @ * 7 m j.NXNX~.R.BXNXBXBXBXBXBXBXNX0XgXNXBXBXBXBXBXBXBXBXBXBXBXBXBXBXBXBXBXBXBXBXBXlXlXlXlXBXBXBXBXzXeXBX%.o e $ $ $ $ * * + ! nXBXNXgX0XNXBXgXBXBXBXBXBXnX#X$ $ $ $ $ $ $ $ $ . b.nXBXBXBXBXzXBXBXBXBXBXBXBXBXBXBXBXBXBXBXBXBXBXBXBXNX9XgXNXBXBXBXBXBXnXNXBXR.^.BXNXP.A j = * * * * & =.P.J.J.J.{.|.                                                                                                  ",
"                                                                                                |.XXXXJ.J.XXr.% K.NXQ X = j A oXNXNX/.~.BXNXBXBXBXBXBXBXBXNXBX9XNXBXBXBXBXBXBXBXBXBXBXBXBXBXBXBXBXBXBXBXlXlXgXlXgXBXBXBXBXBXgXeXBX%.o e $ $ $ $ * * + Q nXlXNXgX0XNXBXgXgXzXBXBXBXnX#X$ $ $ $ $ $ * $ $ . m.nXBXBXlXgXlXgXBXpXBXzXBXBXBXBXBXBXBXBXBXBXBXBXBXNXBX9XNXnXBXBXBXBXBXBXBXNXBXR.^.BXNXiX+.x 4 * * = * # ( G.J.J.J.{.OX                                                                                                ",
"                                                                                              |.{.P.J.J.XX:.# e -XNXi.% x J =XNXNX/.R.BXNXBXBXBXBXBXBXBXBXBXNXeXeXNXBXBXBXBXBXBXBXBXBXBXBXBXBXBXBXBXBXBXBXBXBXBXBXgXBXgXBXBXlXtXnX[ . * $ $ $ * * * + Q nXlXNXgXeXNXBXBXBXgXBXBXBXnX#X$ $ $ $ $ * $ $ * + m.nXBXBXBXBXBXBXBXBXBXgXBXBXBXBXBXBXBXBXBXBXBXBXBXNX0XBXNXBXBXBXBXBXBXBXBXBXNXBXR.^.BXNXNX6.v 6 * * * e e g Z.{.G.J.XXOX                                                                                              ",
"                                                                                            |.{.{.J.G.XX=.# # I NXNX&Xv 3.NXNXBX(.~.BXNXBXBXBXBXBXBXBXBXBXBXNXNX9XBXNXBXBXBXBXBXBXBXBXBXBXlXlXBXBXBXBXBXBXBXBXBXgXgXgXgXBXBXzXeXnX[ . * $ $ $ * * * + Q nXlXNXgXeXNXBXBXzXgXgXgXBXnX#X$ $ $ $ $ $ * * * + m.nXBXBXBXBXBXBXBXBXBXgXgXBXBXBXBXBXBXBXBXBXBXBXNXeXeXNXBXBXBXBXBXBXBXBXBXBXBXNXBXR.~.BXNXNXD.N 7 * * * =.r y g.P.G.J.XXOX                                                                                            ",
"                                                                                            XX{.J.J.P. .# e o ;.NXNXbXL.NXNXNX^.R.BXNXBXBXBXBXBXBXBXBXBXBXBXBXNXeX0XNXBXBXBXBXBXBXBXBXBXBXBXBXlXBXBXBXBXBXBXBXlXlXlXgXgXBXBXBXtXnX' . * $ $ $ $ * * # Q nXlXNXgXeXNXBXgXgXBXBXlXzXnX#X$ $ $ $ $ $ * * * + M.nXtXgXgXgXlXBXBXBXgXgXgXgXlXgXzXBXBXBXBXBXBXnXnX9XnXNXBXBXBXBXBXBXBXBXBXBXBXBXNXBXR.^.BXNXNX+XN 1 * # e.d # u g.XXJ.J.{.OX                                                                                          ",
"                                                                                          XXXXJ.J.P. .# * * X i.NXNXNXNXNXNX^.~.BXNXBXBXBXBXBXBXBXBXBXBXBXBXBXBXNX9XBXNXBXBXBXBXBXBXBXBXBXBXBXzXzXgXgXgXBXBXlXzXzXzXzXgXBXBXBXtXnX[ . * $ $ * * * * + Q nXeXNXgXeXNXzXgXgXzXgXgXzXnX#X$ $ $ $ $ $ * * * + M.nXtXgXgXlXgXBXBXBXgXgXgXgXgXgXgXgXBXBXBXBXBXNX0XeXNXBXBXBXBXBXBXBXBXBXBXBXBXBXBXNXBX^.^.BXNXNX*XF j % A.I $ * y B.XXG.J.{.|.                                                                                        ",
"                                                                                        OX{.J.J.P.) # * = * = -XNXNXNXNXNX/.R.BXNXBXBXBXBXBXBXBXBXBXBXBXBXBXBXBXNXBX0XNXBXgXlXlXBXBXBXBXBXBXBXBXgXgXBXBXBXBXeXeXBXBXgXgXgXgXBXeXnX[ o * $ $ $ * * * + W xXeXNXgXeXNXBXgXgXzXgXgXgXxX#Xq $ * $ $ $ * * * + b.nXeXgXgXlXBXBXBXgXgXgXgXBXzXgXgXBXBXBXBXBXNXBX9XNXBXBXBXBXBXBXBXBXBXBXBXBXBXBXBXBXNXBX^.~.BXNXNXbXO.B OX=.o r = r p.XXJ.J.{.|.                                                                                      ",
"                                                                                      OXXXJ.J.XX .# * * * ; D NXNXNXNXNX/.~.BXNXBXBXBXBXBXBXBXBXBXBXBXBXBXBXBXBXBXNX0XgXNXgXgXgXBXBXBXBXzXBXBXBXgXeXgXVXBXBXgXgXgXBXgXgXgXgXgXeXnX[ o * $ $ $ * * * + W nXeXNXgXeXNXzXgXgXgXgXgXgXnX#Xe * * $ $ $ $ $ * + M.nXeXgXgXzXlXgXBXgXeXgXgXlXgXgXgXgXlXlXlXBXNX9XgXNXBXBXBXBXBXBXBXBXBXBXBXBXBXBXBXBXBXNXBX^.R.gXNXNXbXj.*Xt.% = * * e g.XXJ.J.{.OX                                                                                    ",
"                                                                                    OXXXJ.J.XX .# * * $ = k 6.NXNXNXNXNX<XBXNXBXBXBXBXBXBXBXBXBXBXBXBXBXBXBXBXBXBXNXnX0XnXBXgXzXBXlXgXlXlXgXBXzXgXVXgXBXBXlXgXgXBXlXzXgXzXgXBXeXnX[ X $ $ $ $ * * * + W xXeXNXgXeXNXBXgXgXzXgXzXgXnX#Xq $ * $ $ @ $ * * + M.nXeXgXzXgXgXzXgXzXgXgXgXgXgXBXzXgXgXgXgXNXeX0XNXBXBXBXBXBXBXBXBXBXBXBXBXBXBXBXBXBXBXBXNXBX^.~.BXNXNX-XXXA.3 * * * * r g.P.G.J.{.OX                                                                                  ",
"                                                                                  |.{.J.J.XX=.# * = * - k X.aXNXNXNXNXNXNXNXBXBXBXBXBXBXBXBXBXBXBXBXBXBXBXBXBXBXBXBXNXeXeXNXBXgXgXgXgXeXeXeXeXeXeXeXeXtXtXeXeXeXeXeXeXeXtXpXeXtXnX' + $ $ $ $ * * * + W xXeXnXgXeXNXBXeXpXpXeXeXeXnX#X$ $ * $ $ @ * * * + b.nXeXgXgXgXgXzXgXzXgXgXgXgXlXBXBXzXBXeXBXBX9XBXNXgXBXBXBXBXBXBXBXBXBXBXBXBXBXBXBXBXBXBXBXNXnX/.^.BXNXXXP.P.B 5 = * * * r g.P.J.J.XXOX                                                                                ",
"                                                                                OXXXJ.J.XX:.& e e * - x @.NXNXNXNXNXNXNXNXBXBXBXBXBXBXBXBXBXBXBXBXBXBXBXBXBXBXBXBXlXBXNX9XBXNXgXBXgXgXnXnXnXnXnXnXnXnXnXnXnXnXnXnXnXnXnXnXnXnXnXBX[ . e $ $ $ * * e + W xXeXnXgXeXNXBXzXnXnXnXzXgXnX'.$ $ $ $ $ $ $ $ $ + M.nXeXgXgXgXlXgXgXgXgXgXzXgXgXlXlXpXgXBXNXwX0XNXBXBXBXBXBXBXBXBXBXBXBXBXBXBXBXBXBXBXBXBXBXBXNXnX^.R.rXXXXXOXs.v 9 $ * * & y Z.XXJ.J.XX                                                                                ",
"                                                                              OXXXXXJ.XX,.% = % o ; B O.bXNXNXNXNXNXNXNXNXNXNXNXBXBXBXBXBXBXBXBXBXBXBXBXBXBXBXBXBXlXBXNXgX0XNXBXgXBXBX'.m.m.m.m.m.m.m.m.m.m.m.m.m.m.m.m.m.m.m.M._.W + e $ $ $ * * e + Q xXeXnXgXeXNXzX'.m.].'.#XrXnX%X$ $ $ $ $ $ $ $ $ + M.nXeXgXgXgXgXgXgXgXgXgXgXzXgXgXgXlXeXnXBX9XNXBXlXBXBXlXBXBXBXBXBXBXBXBXBXBXBXBXBXBXBXBXBXBXBXNXNX~.T.XXXXXXbXj.c 3 * * * # s G.J.J.{.|.                                                                              ",
"                                                                            OX{.J.J.XX,.X e ( -.i.{.aXNXNXNXNXNXNXNXNXNXNXNXNXNXNXNXNXBXBXBXBXBXBXBXlXlXBXBXBXBXgXBXzXBXNX0XgXnXeXeXBX! o # + + + + + + # # # + + + + # # # # + + $ $ $ $ $ * * * e + Q xXeXnXgXeXNXnX9.O * $ e u U Q $ $ $ $ $ $ $ $ $ + M.nXeXgXgXgXgXgXgXgXgXgXgXgXgXgXgXgXBXnX0XgXNXgXBXBXBXlXlXBXBXBXBXBXBXBXBXBXBXBXBXBXBXBXBXBXBXBXNXnX%XXXXXXX&XNX6.c 3 * * * & / J.J.J.J.|.                                                                            ",
"                                                                          OXXXJ.J.{.OXe.i.%XNXNXNXNXNXNXNXNXNXNXNXNXNXNXNXNXNXNXNXNXNXNXNXNXNXBXBXBXlXzXzXgXgXgXBXzXzXgXBXBX9XnXBXeXnXW + q $ * * $ * $ e e e e e e * e * q e e q $ $ $ $ $ $ * * e + Q xXeXnXgXeXnXxXw.# e $ @ $ # + $ $ $ $ $ $ $ $ $ + b.xXeXgXgXgXeXgXgXgXgXgXgXgXgXgXgXgXnXgX0XNXBXeXgXzXBXBXBXBXBXBXBXBXBXBXBXBXBXBXBXBXBXBXBXBXBXBXBXNX&XXXXXXXXXbXNX5.x - * = e #  .XXJ.J.J.|.                                                                          ",
"                                                                        OXXXXXOX&XaXbXNXNXNXNXNXNXNXNXNXNXNXNXNXNXNXNXNXNXNXNXNXNXNXNXNXNXNXNXNXNXNXBXBXlXgXgXgXBXzXBXlXBXNXqXgXNXlXxXT + * $ $ $ @ $ * * * * * * * * * $ $ $ * $ * * $ $ $ $ * * e + Q xXeXnXgXeXBXxX9.o * $ $ * * * $ $ $ $ $ $ $ $ * # b.xXeXgXgXgXgXeXgXgXgXgXgXgXgXeXgXBXBX9XBXBXgXgXgXgXgXBXBXBXBXgXgXBXBXBXBXBXBXBXBXBXBXBXBXBXBXBXBXsXOXXXXXXXP.iXNXNX3.x - * * * # :.XXG.J.{.                                                                          ",
"                                                                        |.XXJ.J.P.) s =.i.K.sXbXNXNXNXNXNXNXNXNXNXNXNXNXNXNXNXNXNXNXNXNXNXNXNXBXBXBXBXBXgXgXlXgXBXBXlXBXgXnXnX0XnXBXgXT + * * $ @ $ $ $ * * * * * $ * * $ $ $ * $ $ * $ $ $ $ $ * e + Q xXeXBXgXeXBXxX9.o * * $ $ $ * * $ $ $ $ $ $ $ * # v.nXeXeXgXgXgXgXeXgXgXgXgXgXgXgXgXnXeXeXNXBXgXgXgXgXgXBXBXBXBXeXgXgXBXBXBXBXBXBXBXBXBXBXBXBXBXBXnXsXXXXXXXXXXX-XNXNXNX+.j r * * * * t.XXJ.J.OX                                                                        ",
"                                                                      OX{.J.J.XX-.o $ % & 3 v f.NXNXNXNXNXNXNXNXNXNXNXNXNXNXNXNXNXNXBXBXBXBXlXBXBXgXBXBXBXgXgXgXBXlXgXzXgXgXNXeXqXNXxXT # * * $ $ $ $ $ * * * * $ $ * * $ $ $ * * * * $ @ @ @ $ * * # Q jXeXnXgXeXBXxX9.o * $ $ $ $ $ $ $ $ $ $ $ $ $ * $ a u.gXxXeXeXgXeXgXgXgXgXgXgXgXgXBXBX9XBXBXeXgXgXeXgXeXgXBXgXgXgXgXBXBXBXBXBXBXBXBXBXBXBXBXBXBXBXnX&XXXXXXXXXXX XeXNXNXaXK 2 * * * * e C.{.J.{.XX|.                                                                    ",
"                                                                      XXJ.G.XXt.% * * * r x O.bXNXNX9X^.BXNXNXNXNXNXNXNXNXNXBXBXBXBXBXBXBXBXBXBXgXlXBXBXBXgXBXlXgXgXgXeXzXgXBXNX9XeXBXT # e * $ $ $ $ $ $ * * * $ * * $ $ * * * $ $ e e e q q e e e # Q jXeXBXeXeXBXxX9.o * $ $ $ * $ $ $ * $ $ $ $ $ $ $ $ # I _.nXgXeXgXgXgXgXgXgXgXgXgXnX0XeXNXgXgXgXgXgXgXgXeXeXeXgXeXgXBXBXlXBXBXBXBXlXBXBXBXBXBXBXBXBXOXXXXXXXXXXXOX~.eXNXNX=XM , * * * # s J.J.J.J.{.|.                                                                  ",
"                                                                    OXXXJ.J.C.y = = * * z J bXNXNX4XR.0XNXBXNXNXNXNXNXNXNXtXBXBXBXBXBXBXBXBXBXBXgXgXBXBXBXzXlXgXgXzXgXgXgXgXgXNXgX<XBXQ # e $ $ $ $ * * * * * * * * * * * * * $ * $ X . + # + # # # X U xXeXBXgXqXBXxX9.. * $ $ $ $ * $ * $ $ $ $ $ $ $ $ * e # * >.gXzXeXgXgXgXeXeXeXeXBXgX0XNXBXeXgXgXeXgXgXgXgXgXgXBXzXBXBXBXlXlXBXBXBXBXBXBXBXBXBXBXBXpXXXXXXXXXXXXXOX`.R.eXNXNXL.c 5 * * e & =.XXG.J.J.|.                                                                  ",
"                                                                  OXXXJ.J.J.^ # e = e 7 N iXNXNX9XR.0XNXBXBXNXNXNXNXNXNXBXBXBXBXBXBXBXBXBXBXBXBXgXgXBXBXBXgXgXgXgXzXgXgXlXgXgXBXNX9XnXQ + e $ $ * * * * * * * * * * * * * * * * # P u.q.u.u.u.u.q.u.0.v.gXeXBXeXeXBXxX9.. * * * $ $ $ $ $ $ $ $ $ $ $ $ $ $ * * * . U $XxXeXgXgXgXgXeXzXBX9XBXnXeXgXgXgXgXgXgXgXgXgXlXgXzXzXgXBXgXlXlXBXBXBXBXBXBXBXBXBXBXsXXXXXXXXXXXXXXXsX<XR.eXNXNX6.x = * * = & r.P.G.J.{.|.                                                                ",
"                                                                  XXJ.J.XX=.# e * * 9 v XXNXNX9XR.eXNXBXBXBXBXNXNXNXNXNXBXBXBXBXBXBXBXzXBXBXBXBXgXgXgXgXgXgXgXeXgXgXgXgXgXgXgXeXBXBXfXQ # e $ $ * * * * * * * * * * * * * $ $ e + ] xXxXxXxXxXxXxXxXxXxXeXeXBXeXqXBXxX9.# e $ $ $ $ $ * $ $ $ $ $ $ $ $ * $ * * * * o e m.xXeXgXgXgXeXBXeX0XNXgXeXeXgXeXgXgXgXgXgXgXgXlXgXlXBXBXgXgXgXlXBXBXBXBXBXBXBXBXnX&XXXXXXXXXXXXXXX&XNX0X^.0XNXNX@.j e * = * e C.J.J.J.OX|.                                                              ",
"                                                                OX{.J.XXp.* * * * r x k.NXNX5XR.eXNXBXBXBXBXBXNXNXNXNXNXBXBXBXBXBXBXBXgXgXBXBXgXgXzXgXgXgXeXeXeXgXgXeXgXgXgXgXgXgXNXgXT & e $ * * * * * * * * * * * * * * $ * e + W xXeXeXeXeXeXeXeXeXeXgXeXBXeXqXBXxX9.# e $ $ $ $ * $ $ $ $ $ $ $ $ $ $ $ $ * * * * & * N.nXeXeXgXBXBX0XBXBXeXgXgXeXeXgXgXgXgXgXgXgXgXgXlXBXBXzXzXgXBXBXBXBXBXBXBXpXsX-XOXXXXXXXXXXXXXXXXX&XaX$XY.5XNXbXK 7 = = e + I XXJ.J.{.{.|.                                                            ",
"                                                              OX{.J.J.G.d * e * r k 2.NXNX9XR.eXNXNXBXBXBXBXBXNXNXNXNXNXBXBXBXBXBXzXlXlXlXBXgXlXBXBXlXgXgXgXgXgXgXgXgXgXgXgXgXgXgXBXNX! # e * * * * * * * * * * * * $ * * * * e # ' xXeXeXeXeXgXeXeXeXeXgXeXBXeX0XBXxX9.# e $ $ $ $ $ $ $ $ $ $ $ $ $ $ $ * $ * * * * * * # u.xXeXgXnXeXgXnXgXeXgXgXgXgXgXgXgXgXgXgXgXgXgXBXtXBXgXzXzXzXBXBXpXsX-X&XOXXXXXXXXXXXXXXXXXXXXXXXXXXXXX{.'.sXNX+XM > # $ e * r.OXJ.J.{.OX                                                            ",
"                                                              {.J.G.XX .& e * e : F bXNX9X~.eXNXBXBXBXBXBXBXBXNXNXNXNXBXBXBXBXBXBXlXgXgXgXlXlXlXzXBXBXgXVXgXgXgXgXgXgXgXeXgXgXgXgXgXNXW + * * * * * * * * * * * * * * * * * * e # ' xXeXeXeXeXeXgXeXeXeXgXgXBXeX0XBXxX9.+ e * * $ $ $ $ * $ $ $ $ * $ $ $ $ * * * * * * * * # u.xXBXBXwXnXBXeXgXgXgXgXgXgXgXgXgXeXgXgXgXgXgXgXgXBXpXpXsX&XOXXXXX{.XXXXXXXXXXXXXXXXXXXXXXXXXXXXXXXXXXXXOXOX&XS.4.g e * % e B.J.J.XX|.|.                                                          ",
"                                                            OX{.J.P.t.* e * * 8 c oXNX/.~.eXNXNXBXBXBXBXBXBXBXBXNXNXNXBXBXBXBXBXBXlXgXgXlXgXBXBXlXlXgXzXgXgXBXgXgXgXgXeXgXgXgXgXgXeXnXW + e * * * * * * * * * * * * * $ * * $ * o Q xXeXeXeXeXeXeXgXgXgXeXeXBXeX0XBXxX9.+ e * * $ $ $ $ * $ $ $ $ $ $ $ $ $ * * $ * * $ * * * # m.BXeXgXnXeXgXgXgXgXgXgXgXgXgXgXgXgXeXeXpXsX-X-XOXOXXXP.P.P.XXXX{.XXXXXXXXXXXXXXXXXXXXXXXXXXXXXXXXXXXXXXXXXXOXOXP.Z.g.,./  .G.G.J.{.|.                                                          ",
"                                                          OX{.J.J.G.p * e * r x d.NX/.R.eXNXNXBXBXBXBXBXBXBXBXBXNXNXNXBXBXBXBXBXBXgXeXgXlXgXgXgXBXlXgXgXgXgXgXgXgXeXeXgXgXgXgXgXgXeXxXT # * * * * * * * * $ * * * $ $ * * * * * o Q jXeXeXeXeXeXeXeXgXeXgXeXBXeX0XBXjX9.# e * $ * * * * $ $ $ * $ $ $ $ $ $ $ $ $ $ * $ * $ * * e #XjXBXgXeXeXeXgXgXgXgXgXgXgXgXgXgXeXyX&XXXP.P.P.XXXXXXXXXXXXXX{.XXXXXXXXXXXXXXXXXXXXXXXXXXXXXXXXXXXXXXXXXXXXXXXXOX=X=XoXg.g.J.J.J.{.|.                                                        ",
"                                                          XXJ.G.XX=.# * * e z O.NX<XR.eXNXBXBXBXBXBXBXBXBXBXBXBXNXNXNXBXBXBXlXlXBXBXBXBXBXBXBXBXlXgXzXgXlXgXgXgXgXgXgXgXgXgXgXgXgXeXxXT # * * * * * * * $ $ * * * * * * * * * * . Q jXeXeXeXeXeXeXeXeXeXeXeXBXeX0XBXxX9.# e $ $ $ * * $ $ $ $ $ $ $ $ $ $ $ $ $ * $ $ $ $ $ $ e # a BXBXeXeXeXeXeXgXgXgXgXgXgXgXgXgXgXgXgXeXyX-X&XOXXXP.P.XXXXXXXXXXXXXXXXXXXXXXXXXXXXXXXXXXXXXXXXXXXXXXXXXXXXXXXXL.h.=.s e u Z.{.J.{.|.                                                        ",
"                                                        OXXXJ.J.g.= * * $ 8 Z &X1X~.eXNXBXBXBXBXBXBXBXBXBXBXBXBXNXNXBXBXBXlXlXgXBXBXBXBXzXBXlXgXVXgXgXeXgXgXgXgXgXgXgXgXgXgXgXgXgXeXxXT # * * $ * * * * $ $ $ * * * * * $ * $ * . Q jXeXeXeXeXeXeXeXeXeXeXeXzXeX0XBXxX9.# e * $ $ $ $ $ $ $ $ $ $ $ $ $ $ $ $ $ $ $ $ $ $ $ $ $ e o >.xXeXeXgXgXeXeXgXgXgXgXgXgXgXgXgXgXeXgXgXgXgXzXpXsX&XOXXXXXXXXXXXXXXXXXXXXXXXXXXXXXXXXXXXXXXXXXXXP.XXOX X_.BXk.c % + * # | OXJ.J.{.|.                                                      ",
"                                                      |.{.J.J.J.( & * * = c s.3XR.gXNXBXBXBXBXBXBXBXBXBXBXBXBXzXBXNXBXBXBXBXeXgXgXgXBXgXlXlXgXgXeXeXeXgXgXgXgXgXgXgXgXgXgXgXgXgXgXeXxXT # * * $ * * * $ $ * $ $ * * * * * $ * * . Q jXeXeXeXeXeXeXeXeXeXeXeXgXeXqXBXxX&.. e e * * * * $ $ $ $ $ $ $ $ $ $ $ $ * $ $ $ * $ $ $ $ $ * + b.xXeXgXgXgXeXeXgXgXgXgXgXgXgXgXgXgXgXeXeXeXgXgXgXzXBXpXsX&XOXXXXXXXXXXXXXXXXXXXXXXXXXXXXXXXOX&X-XpXNXBX<X^.zXK > * * = = p.P.J.{.OX                                                      ",
"                                                      |.J.J.XXr.& * * e j J ^.~.BXNXBXBXBXBXBXBXBXBXBXBXBXBXBXBXBXNXBXBXBXBXBXzXgXgXgXgXlXgXgXgXeXeXgXeXgXgXgXgXgXgXgXeXgXgXgXgXgXeXxXT # * $ * * * * $ $ $ * * $ $ $ $ $ * $ * . Q jXeXeXeXeXeXqXqXeXeXeXqXzXeXqXBXxX9.. # # $ e * * * $ $ $ $ $ $ $ $ $ $ $ $ $ $ $ $ $ $ $ $ $ * # P gXeXeXgXgXgXeXeXeXgXgXgXgXgXgXgXgXgXgXeXeXgXgXgXlXBXgXgXzXzXpXsX&XXXXXXXXXXXXXXXXXXX&XsXpXBXnXnXnXBXNXNX/.W.U.c 3 * = & s J.J.J.XXOX                                                    ",
"                                                    |.{.J.J.G.p * * e 5 S T.R.eXNXBXBXBXBXBXBXBXBXBXBXBXBXBXBXBXBXnXBXBXBXBXBXgXgXgXlXlXgXgXgXgXgXgXgXgXgXgXgXgXgXeXeXgXgXeXgXeXgXeXxXW # * $ $ $ $ $ * * $ * * $ $ $ $ * $ $ * . Q jXeXeXeXqXqXqXeXqXqXqXqXgXeX0XnXnXpX%Xv.;.p # # e * * $ $ @ $ $ $ $ $ $ $ $ $ $ $ $ $ $ $ $ @ $ e o u.xXeXeXeXgXgXeXeXeXgXgXgXeXgXgXgXgXgXgXeXeXgXBXBXlXtXeXBXBXzXBXzX&XXXXXXXXXXXXXXXOXBXnXBXBXBXBXBXBXBXNXNX~.W.,.x - = * # ,.XXJ.J.XXOX                                                  ",
"                                                    |.{.G.XX:.# = * % D ).!.eXNXBXBXBXBXBXBXBXBXBXBXBXBXBXBXBXBXBXBXBXlXBXBXlXgXgXgXBXgXgXgXgXgXgXgXgXgXgXgXgXeXeXeXeXgXgXeXeXeXgXeXxXW # * $ $ $ $ * $ $ $ $ $ * $ $ $ * $ $ * . Q jXeXeXqXqXqXqXqX0XqXqXqXBXeX0XnXnXNXNXNXBXpXv.I o $ e * $ $ $ $ $ $ $ $ $ $ $ $ $ $ $ $ $ $ $ $ * $ p rXgXeXeXeXgXgXeXeXgXgXeXgXgXgXgXgXgXeXgXeXVXgXgXgXgXgXBXBXzXBXzXsXXXXXXXXXXXXXXX&XBXBXBXBXBXBXBXBXBXBXNXNX/.!.<., * * * y G.J.J.XXOX                                                  ",
"                                                  |.{.J.J.Z.y * = * : <.2X9XnXNXNXBXBXBXBXBXBXBXBXBXBXBXBXBXBXBXBXBXlXlXBXBXgXgXgXgXzXgXgXgXgXgXgXgXgXgXgXeXeXeXeXgXgXeXeXeXeXgXgXeXjXW # * $ $ $ $ $ * $ $ * * * * * * @ $ $ e . Q jXeXeXqXeX0XeXeXqXqXqX0XBXeX0XNXnXnXnXBXBXnXNXNXi.e # e $ $ $ $ $ $ $ $ $ $ $ $ $ $ $ $ $ $ @ $ * e o u.xXeXeXeXeXgXeXgXeXgXgXgXgXeXeXgXgXgXgXgXeXgXgXgXgXlXgXgXzXgXzXpXXXXXXXXXXXXXXXsXnXBXBXBXBXBXBXBXBXNXNXBXeX<XT.B % * * # -.XXG.J.XX                                                  ",
"                                                  {.J.G.XX=.# e * = v z.,XBXeXeXBXNXNXBXBXBXBXBXBXBXBXBXBXBXBXBXBXlXlXgXBXBXBXgXgXgXzXgXgXgXgXeXgXgXgXgXeXeXeXeXeXeXgXeXeXeXeXeXgXeXxXW + * $ $ $ $ $ $ * * * $ $ $ $ $ $ $ $ * . W jX0XqXqXqXqXqX0XqX0XqX0XBXeX0XBXnXnXnXnXnXnXBXnXNX%XI o e $ $ $ $ $ $ $ $ $ $ * $ $ $ $ $ $ @ $ $ * # a eXgXeXeXeXeXeXgXeXeXgXgXgXgXgXeXgXgXgXgXgXeXeXgXgXlXgXgXgXgXzXBXOXXXXXXXXXXXXXpXBXBXBXBXBXBXBXbXNXNXeXeXNX9X!...: $ * * y C.J.J.XXOX                                                ",
"                                                |.{.J.J.C.e = * $ , K ~./.NXNXBX0XeXNXNXNXBXBXBXBXBXBXBXBXlXlXzXBXBXBXBXBXBXgXeXgXgXgXgXgXgXgXgXgXgXgXeXeXeXeXeXeXeXeXeXeXeXeXeXeXeXjXW + * @ $ $ $ $ $ * $ * $ * * $ * $ $ $ * o W jX0XqXeXqXqX0X0XqXqXqXqXBXeX0XNXnXnXnXnXnXnXnXnXBXBXBXW # e $ $ $ $ $ $ $ $ $ * $ $ $ $ $ $ $ $ $ $ * . v.xXeXeXeXeXeXeXgXgXeXgXgXgXgXgXgXgXgXeXgXeXeXgXgXgXeXgXgXBXBXzX&XXXXXXXXXXXOXBXBXBXBXBXBXBXNXNXBX0XgXNXNXeXE.e.c = * e # =.XXG.J.{.                                                ",
"                                                OXXXJ.XX .# e * = x l.:XrXNXbXNXNXgX0XgXNXNXBXBXBXBXBXBXBXBXBXBXlXlXBXzXzXBXgXgXgXlXgXgXgXgXgXgXgXeXeXeXeXeXeXeXeXeXeXeXeXeXeXeXgXeXjXW + * $ $ $ $ $ $ * * * $ * * * * $ $ $ * o W jX0X0XwXqX0X0X0XqXqXqXqXBXeX0XnXnXnXnXnXnXnXnXnXnXBXnXnX! # e $ $ $ $ $ $ $ $ $ $ $ $ $ $ $ $ $ $ $ * o ' xXeXeXeXeXeXeXeXgXgXgXeXgXgXgXgXgXeXeXeXgXeXeXgXgXeXgXgXzXBXzXsXXXXXXXXXXX-XBXBXBXBXBXNXNXBX0XeXNXNXBXNXNXR.^.J : * * * e C.J.J.{.OX                                              ",
"                                              |.{.J.J.C.e * * * , J /.R.BXNXBXBXNXNXNXeXeXBXNXNXBXBXBXBXBXBXBXlXgXgXgXgXBXeXeXeXgXgXgXgXgXgXgXgXgXeXeXeXeXeXeXeXeXeXeXeXeXeXgXgXeXeXjXW # * $ $ $ $ $ * $ $ $ * * $ * * * * * * o Q hX0X0X0X0XqXqXqXqX0X0X0XBXeX0XnXnXnXnXnXnXnXnXnXnXnXnXBXpXa # * $ $ $ $ $ $ $ $ $ * * $ $ $ $ $ $ $ $ $ e $XgXeXeXeXeXeXeXgXgXgXeXgXgXgXgXgXgXeXeXeXgXeXgXgXgXgXgXzXgXgXpXXXXXXXXXXXsXBXBXBXBXNXNXeX0XBXNXNXBXBXBXNX(.E.Z.c - * e # =.XXJ.J.OX                                              ",
"                                              |.{.J.XX| # e * - c S.3X~.NXNXBXBXBXBXNXNXnXeXeXNXNXBXBXBXBXBXgXgXgXgXgXgXgXgXgXeXgXgXgXgXgXgXgXeXgXeXeXeXeXeXgXeXeXeXeXeXeXeXeXeXeXeXgXW # * $ $ * $ $ $ $ $ * $ $ $ * * * $ * * + Q hX0X0X0XqXqX0X0X0X0X0X0XBXqX0XnXnXnXnXnXnXnXnXnXnXnXnXnXBXm.# * $ $ $ $ $ $ $ * * $ $ $ $ $ $ $ $ $ * * o v.xXeXeXeXeXeXeXeXeXgXgXeXgXgXgXgXgXgXgXgXgXgXeXgXgXgXgXzXgXgXBXOXXXXXXXXXpXBXBXNXNXgX0XgXNXNXBXBXBXBXBXNX9XY.gXO.: * * * e C.J.J.XXOX                                            ",
"                                            |.{.J.J.C.e * * * , +.BXR.<XNXBXBXBXBXBXBXBXNXNXBX9XeXNXNXBXBXBXBXgXBXBXlXlXlXzXgXgXgXgXgXgXgXgXgXeXeXeXeXeXeXeXeXeXeXeXeXeXeXeXgXgXeXeXgXT + e $ $ $ $ * $ * * * * $ $ * $ * * $ * # ' hX0X0X0X0X0X0X0X0X0X0X0XBX0X0XnXnXnXnXnXnXnXnXnXnXnXnXnXBXNX;.. * * $ $ $ $ * * $ $ $ $ $ $ $ $ $ $ * e o [ xXeXeXeXeXeXeXeXeXeXgXeXeXeXeXeXgXeXgXgXgXgXgXgXeXgXgXgXgXBXzX&XXXXXXXOXBXBXNXBX9XeXNXNXNXBXBXBXBXBXBXNXBXR.dXP.x = * * # =.XXJ.J.XX                                            ",
"                                            |.{.J.XX-.# e * - x D.jXY.eXNXBXBXBXBXBXBXBXBXBXNXNXeX9XBXNXNXBXgXeXBXBXlXgXzXgXgXgXgXgXgXgXgXeXeXgXeXeXeXeXeXeXeXeXeXeXeXeXeXeXgXgXeXeXgXT + * * $ $ $ $ * $ * * * * * * * $ * * e # ' hX0X0X0X0X0X0X0X0X0X0X0XzX0X0XnXnXnXnXnXnXnXnXnXnXnXnXnXnXBX%X* $ * $ * $ $ * $ $ $ $ $ $ $ $ $ $ $ * * + P gXeXeXeXeXeXeXeXeXeXgXeXeXgXgXgXgXgXgXgXgXgXgXgXeXeXgXgXgXBXzXsXXXOXXX-XNXnX0X9XBXNXNXBXBXBXBXBXBXBXBXNXNX^.^.NXX.> $ * * y Z.J.J.XXOX                                          ",
"                                          OX{.J.J.G.y * * * 6 K NX<XR.BXNXBXBXBXBXBXBXBXBXBXBXNXNXBX0X0XBXNXBXzXBXBXBXgXgXgXgXgXgXgXgXgXgXgXgXeXeXeXeXeXeXeXeXeXeXeXeXeXeXeXeXgXeXeXgXW + e * $ * * $ * $ * * * * * $ $ $ $ $ * o Q hX0X0X0X0X0X0X0X0X0X0X0XgXqX0XnXnXnXnXnXnXnXnXnXnXnXnXnXnXBXNX' o * $ $ $ $ $ $ $ $ $ $ $ $ $ $ $ * * * $ u $XgXeXeXeXeXeXgXgXeXeXgXgXgXgXgXgXgXgXgXgXgXgXgXeXgXgXgXgXBXBXpXXXXXXXsXgX9XeXNXNXBXBXBXBXBXBXBXBXBXBXBXNX<XR.nXF.x = * e # :.XXJ.{.OX                                          ",
"                                          OX{.J.XX:.# e * r x j.NX~.^.NXNXBXBXBXBXBXBXBXBXBXBXBXBXNXNXBX0XeXnXNXBXlXgXgXgXgXgXgXgXgXgXgXgXgXeXeXeXgXeXeXeXeXeXeXeXeXeXeXeXeXeXeXeXeXgXW + e $ $ * * * * * * * * * * $ * $ $ * * o Q hX0X0X0X0X0X0X0X0X0X0X0XzX0X0XnXnXnXnXnXnXnXnXnXnXnXnXnXnXnXBXm.# * $ $ * $ $ * $ $ $ $ $ $ $ $ $ * * * * * m.jXeXeXeXgXeXeXgXeXeXeXgXgXgXgXgXgXgXgXgXgXgXgXgXgXeXgXgXBXgXBXOXXXXXrXqXBXNXBXBXBXBXBXBXBXBXBXBXBXBXBXNXeXR.0XNXK > * * * p J.J.J.{.|.                                        ",
"                                          XXJ.G.J.s * * * 6 A bXBXR.9XNXBXBXBXBXBXBXBXBXBXBXBXBXBXBXBXNXNXgXeXlXNXnXBXgXeXgXeXgXgXgXgXgXeXeXeXgXeXeXeXeXeXeXeXeXeXeXeXeXeXeXeXeXgXeXjXW + e * $ $ * * * * * * * * * * * $ * * * . W fX0X0X0X0X0X0X0X0X0X0X0XzXqX0XnXnXnXnXnXnXnXnXnXnXnXnXnXnXnXnXpXt $ * $ $ $ $ $ $ $ $ $ * $ $ $ $ $ $ * * # N.jXeXeXeXeXeXeXeXeXeXeXeXeXgXgXgXgXgXgXgXgXgXgXgXgXgXgXgXgXBXNX-XXXOXBXNXnXBXBXBXBXBXBXBXBXBXBXBXBXBXBXNXBXR./.NXk.x e * e # y.XXJ.{.|.                                        ",
"                                        OXXXJ.P.t.* * * = x d.NX9XR.gXNXBXBXBXBXBXBXBXBXBXBXBXBXBXBXBXlXBXNXnXeX0XBXNXBXgXeXgXgXgXgXgXgXgXgXeXeXeXeXeXeXeXeXeXgXeXeXeXeXeXeXeXeXgXeXjXW + * * * $ $ $ * * * * * * * * * $ $ $ * . W fX0X0X0X0X0X0X0X0X0X0X0XgXqX0XnXnXnXnXnXnXnXnXnXnXnXnXnXnXnXnXBX! # * $ $ * $ * $ $ * * $ * $ $ $ * $ * e o w.xXeXeXeXeXeXeXeXeXeXeXeXeXgXeXgXgXgXgXgXgXgXgXgXgXgXeXBXNXBXeX%XXX&XNXBXBXBXBXBXBXBXBXBXBXBXBXBXBXBXBXBXNX^.R.NXaXA 5 * e # ( {.J.J.{.|.                                      ",
"                                        OXJ.J.XX/ # * * 5 N iXNX/.~.bXNXBXBXBXBXBXBXBXBXBXBXBXBXBXBXgXgXeXgXnXNXBXeXeXBXBXBXgXeXgXgXgXeXeXeXeXgXeXeXeXeXeXeXeXeXeXeXeXeXeXeXeXeXgXeXjXW # * $ $ $ * * * * * * * * * * $ $ * * * . ] hX0X0X0X0X0X0X0X0X0X0X0XgXqX0XnXnXnXnXnXnXnXnXnXnXnXnXnXnXnXBXNX>.o e $ $ $ $ $ $ * $ $ $ $ * $ $ * $ * e # &.xXeXeXeXeXeXgXeXeXeXeXeXeXeXeXgXgXeXeXgXgXgXgXgXgXBXNXNXgX9XeXsXP.&XgXgXBXBXBXBXBXBXBXBXBXBXBXBXBXBXBXBXNX9XR.eXNX5.j e * * * g.J.J.{.|.                                      ",
"                                      OXXXJ.J.C.e * * * j 2.NXBX^./.NXBXBXBXBXBXBXBXBXBXBXBXBXBXBXBXBXgXgXgXeXBXNXNXlX0XgXnXnXBXeXgXgXeXeXeXeXeXeXeXeXeXeXeXeXeXeXeXeXeXeXeXeXeXeXeXjXW # e $ $ $ * * * * * * * * * * * $ * * $ . ] hX0X0X0X0X0X0X0X0X0X0X0XgXqX0XnXnXnXnXnXnXnXnXnXnXnXnXnXnXnXBXNXw.o e * $ $ $ $ $ $ $ $ $ * $ * $ * * * * # ' jXeXeXeXeXeXeXeXeXeXeXeXeXeXeXgXgXeXgXgXgXgXgXgXBXNXBXeXwXBXNXBXXX-XBXlXBXBXBXBXBXBXBXBXBXBXBXBXBXBXBXBXNXgXR.9XNX+Xv 4 * e # =.XXG.{.|.                                      ",
"                                      OXXXJ.XX-.# = * - c P.NXeXR.0XNXBXBXBXBXBXBXBXBXBXBXBXBXBXBXgXgXgXBXBXBXgXeXBXNXNXeXeXBXnXBXgXeXgXgXgXeXeXeXeXeXeXeXeXeXeXeXeXeXgXeXeXeXqXqXqXgXW # e * * * * * * * * * * * * * $ $ @ $ e + ] hX0X0X0X0X0X0X0X0X0X0X0XgXqX6XnXnXnXnXnXnXnXnXnXnXnXnXnXnXnXBXNXi.# e $ $ $ $ $ $ $ $ $ $ * * $ * $ * * * + ' jXqXeXeXeXeXeXeXeXeXeXeXeXeXeXeXgXgXeXeXeXeXzXnXBXeX9XgXNXBXgXgX&XsXgXlXlXzXlXBXBXBXBXBXBXBXBXBXBXBXBXBXNXNX~./.NXNXO., e e * y G.J.J.{.OX                                    ",
"                                    |.{.{.J.J.s # * * , J NXNX9XR.BXNXBXBXBXBXBXBXBXBXBXBXBXBXBXBXgXBXgXBXBXgXgXgXeXgXBXNXBX0XeXBXnXBXgXeXeXgXeXeXeXeXeXeXeXeXeXgXeXeXeXeXeXqXqXqX0XgXW # * * * * * * * * * * $ $ * $ $ @ $ $ * . Q fX0X0X0X0X0X0X0X0X0X0X6XgXqX6XnXnXnXnXnXnXnXnXnXnXnXnXnXnXnXBXNXi.+ e $ $ $ $ $ $ $ $ $ $ $ $ $ $ * * $ $ o ' jXqXeXeXeXeXeXeXeXeXeXeXeXgXgXgXgXgXeXeXgXBXnXgX0XeXnXnXBXeXeXgXyXtXgXgXlXgXBXBXBXBXBXBXBXBXBXBXBXBXBXBXBXNX<X~.BXNXS.x r * e # y.XXJ.XXOX                                    ",
"                                    |.{.J.XXp.* * * = x j.NXNX^.^.NXNXBXBXBXBXBXBXBXBXBXBXBXBXBXgXgXBXBXBXgXgXgXgXgXzXeXgXnXNXBXeXeXBXnXBXgXeXeXeXeXeXeXeXeXeXeXeXeXeXeXqXqXqXqXqXqXgXW # * $ $ * * * * * * * * * $ * * $ $ $ e o W dX9X0X0X0X0X0X0X0X6X6X6XgXqX6XBXnXnXnXnXnXnXnXnXnXnXnXnXnXnXBXNXw.. e $ $ $ $ $ $ $ $ $ $ $ $ $ $ * * @ e o %.jXqXeXeXeXeXeXeXeXeXeXeXeXgXeXgXgXgXeXBXBXBXeXeXBXnXBXgXgXgXeXgXtXeXgXBXlXgXBXlXBXBXBXBXBXBXBXBXBXBXBXBXBXNX0XR.eXNXaXS 5 $ * # ) XXJ.P.{.                                    ",
"                                    |.{.J.XX=.# = * 3 M =XNXBX~.<XNXBXBXBXBXBXBXBXBXBXBXBXBXBXlXBXBXBXBXBXgXgXeXgXgXgXgXgXeXBXNXnXgXeXBXnXBXgXeXeXeXeXeXeXeXeXeXeXeXeXqXqXqXqXqXqXqXgXW # * * $ * * * * * * * * * * * * $ $ $ e o W dX9X0X0X0X0X0X0X0X6X6X6XgXqX6XnXnXnXnXnXnXnXnXnXnXnXnXnXnXnXnXBX' + * * $ $ $ $ $ $ $ $ $ $ $ $ * $ $ $ e . &.xXqXeXeXeXqXeXeXeXeXeXeXeXgXgXeXgXgXBXBXeXeXzXBXBXgXeXgXgXgXeXgXgXgXzXBXlXBXBXlXlXBXBXBXBXBXBXBXBXBXBXBXBXNXBXR.9XNXNX3.1 $ * * r Z.J.J.{.|.                                  ",
"                                    XXJ.J.G.y & * * , O.NXNXeXR.eXNXBXBXBXBXBXBXBXBXBXBXBXBXgXgXBXBXBXBXBXlXgXeXgXgXgXgXgXgXgXgXBXNXBXeXeXgXBXgXgXeXeXeXeXeXeXeXeXqXqXqXeXeXeXqXqX0XfXW # * * $ $ * * $ $ * * * * * * * * * * e o W dX9X0X0X0X0X0X6X0X0X0X6XgX0X6XnXnXnXnXnXnXnXnXnXnXnXnXnXnXnXnXBXa # * * $ $ $ $ $ $ $ $ $ $ $ * * $ $ * e . u.xXeXeXeXeXeXeXeXeXeXeXeXeXeXeXgXBXBXeXeXeXnXnXgXeXgXgXgXgXgXzXgXgXgXBXzXBXBXBXzXBXlXBXBXBXBXBXBXBXBXBXBXBXNXNX^.^.NXNXL.x = * * # ,.XXJ.{.|.                                  ",
"                                  OX{.J.XXt.# * * = x k.NXNX<X~.BXNXBXBXBXBXBXBXBXBXBXBXBXgXgXeXzXlXlXzXBXgXeXeXgXgXgXgXgXgXgXgXeXgXBXnXgX0XeXBXBXgXeXeXeXeXeXqXeXqXqXqXeXqXqXeXqX0XfXW # * * * * * * $ * * * * * * * * * * * e + W dX9X0X0X0X0X6X6X6X6X6X6XgX0X6XnXnXnXnXnXnXnXnXnXnXnXnXnXnXnXBX#X* * * * $ $ $ $ $ $ $ $ $ * * * * $ $ $ e + v.jXeXeXqXqXeXeXeXeXeXeXeXeXgXgXBXgXeXeXBXnXzXeXeXgXgXgXgXgXgXzXgXgXgXBXzXBXBXBXzXBXBXBXBXBXBXBXBXBXBXBXBXBXBXNX9XQ.BXNXbXS 5 * * # / XXJ.{.|.                                  ",
"                                  XXJ.J.XX| o * $ 3 N iXNXNX^./.NXBXBXBXBXBXBXBXBXBXBXBXBXlXgXeXzXlXgXgXBXgXgXgXgXgXgXgXgXgXgXgXgXeXeXgXnXnXgXeXgXBXBXgXeXeXeXeXeXeXqXqXeXeXqXqX0X0XfXW # * $ $ * $ $ * $ * * * $ $ $ * * * * e + W dX5X6X6X5X0X6X6X6X1X6X6XgX0X6XnXnXnXnXnXnXnXnXnXnXnXnXnXnXBXNXw.o e $ $ $ $ * $ $ * $ $ $ $ $ * * $ $ $ $ * _.gXqXqXeXeXqXeXeXeXeXeXeXgXBXBXeXeXBXnXBXeXeXgXgXgXgXgXgXgXgXgXgXgXgXlXgXgXBXlXBXgXBXBXBXBXBXBXBXBXBXBXBXBXBXNXeXR.9XNXNX5.: * * # e C.P.J.{.|.                                ",
"                                |.{.J.J.G.p & * * , O.NXNXBXR.0XNXBXBXBXBXBXBXBXBXBXBXBXBXgXeXeXgXgXgXgXgXgXgXeXgXgXgXgXgXgXgXgXgXeXeXeXeXgXnXnXeX0XgXBXgXgXqXeXeXqXqXqXeXqX0X0X0X0XfXW # * $ $ * $ * * $ * * * * * $ * * * * e + ] dX5X6X6X5X5X6X6X1X<X5X6XgX0X6XnXnXnXnXnXnXnXnXnXnXnXnXnXnXnXBXa $ * * $ $ * $ * $ $ $ $ $ $ $ * * * $ @ + a wXqX0XqXeXeXqXqXeXeXeXgXBXBXeXqXgXnXBXgXeXeXeXgXgXgXeXgXgXgXgXgXgXgXgXgXgXgXgXlXlXBXBXBXBXBXBXBXBXBXBXBXBXBXBXNXBX~./.NXNXP.x = $ * # r.XXJ.XXOX                                ",
"                                OX{.J.P.p.= * * = x j.NXNX0XR.gXNXBXBXBXBXBXBXBXBXBXBXBXBXBXBXzXBXBXzXzXgXgXgXgXeXgXgXgXgXgXgXgXgXeXeXgXeXeXeXBXnXBXeXeXgXBXgXeXeXeX0X0XqX0XqXqX0X0XfXW # * * * * $ $ * * * * * * $ $ * $ * * e # ] 7X5X0X6X5X5X6X6X1X1X1X<XgX0X6XBXnXnXnXnXnXnXnXnXnXnXnXnXBXNXN.+ e $ $ * * * $ $ * $ $ * * * * $ * * * $ + W jXqXqXeXeXeXeX0XeXeXgXBXgX0XeXBXnXgXeXeXeXgXeXeXgXgXeXeXeXgXgXgXeXeXgXgXgXgXgXlXBXBXBXBXBXBXBXBXBXBXBXBXBXBXBXnXNX(.~.NXNXaXA 0 $ * # ) XXJ.J.XX                                ",
"                                OX{.J.XX-.# * * 4 m *XNXNX/.^.NXNXBXBXBXBXBXBXBXBXBXBXBXBXBXBXBXBXBXzXzXgXgXgXgXgXgXgXgXgXgXgXgXgXeXeXgXeXeXeXeXeXBXnXgX0XeXBXBXgXeX0XqXqX0XqXqX0X0XgXW # e $ $ * $ * * * * * * * * * * $ * * e # ' 7X<X1X6X6X<X6X6X6X6X<X<XfX0X6XlXnXnXnXnXnXnXnXnXnXnXnXnXnXpXa $ * $ $ $ * $ * * * * $ $ $ * $ * $ * * e . 0.jX0XeXqXeXeXqXqXgXBXgXqX0XgXnXBXeXeXeXeXeXgXeXeXgXgXgXgXeXeXgXgXgXgXeXgXgXeXeXgXBXlXBXBXlXBXBXBXBXBXBXBXBXBXBXBXNX9XR.gXNXNX#.1 * * * y G.J.J.XX                                ",
"                                |.{.J.P.^ # * * , J NXNXBX~.<XNXBXBXBXBXBXBXBXBXBXBXBXBXgXgXBXBXBXzXzXzXgXgXgXgXgXgXgXgXgXgXgXeXeXeXeXeXeXeXeXeXeX0XgXnXBXeXeXgXBXgXgXqX0X0X0XqXqX0XfXW # * * * $ $ $ * $ * * * * * $ $ $ * * e o ' 7X<X6X6X6X6X6X6X6X6X<X<XgX0X<XgXnXnXnXnXnXnXnXnXnXnXnXBXNX;.# e $ * * * $ * * * * $ * * $ * $ $ * $ * * $ T.fXwXeXeXqX0XgXzXBXeX0XgXnXBXgXeXeXeXeXeXeXeXeXeXeXgXgXeXgXeXgXeXgXgXgXgXgXgXgXBXgXgXeXgXlXBXBXBXBXBXBXBXBXBXBXBXNXBXR.0XNXNXS.x = * * * p.J.J.XX                                ",
"                              |.{.J.J.Z.r * * * j 5.NXNXeXR.eXNXBXBXBXBXBXBXBXBXBXlXBXBXlXBXBXBXBXzXzXgXgXgXgXgXgXgXgXgXgXeXgXeXeXeXeXeXeXeXeXeXqXeX0X0XgXnXBXeXeXgXBXgXeX0XqXqX0X0XfXW # * $ $ * $ $ * * * * * * $ $ $ $ * * * o ' hX<X6X6X6X6X6X6X1X<X<X<XfX0X<XgXBXnXnXnXnXnXnXnXnXnXBXNXi.# e $ $ $ * $ * * * * * * $ $ $ $ * * $ $ * # Y fX0X0XeXeXeXgXBXgXeXeXBXnXgXeX0XeXeXeXeXeXeXeXgXeXeXeXgXgXeXeXeXgXgXeXgXgXgXlXzXzXgXgXgXgXlXlXBXBXBXBXBXBXBXBXBXBXNXNX~./.NXNX=XM 3 * * # -.XXJ.XXOX                              ",
"                              |.{.J.XXt.* * * - x L.NXNX9XR.BXNXBXBXBXBXBXBXBXBXBXBXBXBXBXBXBXlXgXeXzXlXgXgXgXgXgXgXgXgXgXeXeXeXeXeXeXeXeXeXeXeXeXqXqXeXqXeXBXnXzXqXgXzXgXgXqXqX0X0XfXW # * $ $ * * * * $ * * * * * * * * * * * + _ hX<X6X1X<X6X6X1X<X<X<X<XfX0X6XgXnXnXnXnXnXnXnXnXnXnXNXv.# * * $ $ * $ * * * * * * * * * $ * * * $ $ * + q.jX0X0XeXgXBXgX0X0XzXnXgXqX0XeXeXeXeXeXeXeXeXeXeXeXeXeXgXgXgXeXgXgXgXgXgXgXgXgXgXzXBXBXBXBXgXlXBXBXBXBXBXBXBXBXBXBXBXNX/.~.BXNXNXX.> * * # ^ P.J.XXOX                              ",
"                              OX{.J.XX-.# * * 5 M iXNXNX^.^.NXBXBXBXBXBXBXBXBXBXBXBXBXBXBXBXBXgXgXgXBXgXgXgXgXgXgXgXgXeXeXeXeXeXeXeXeXeXeXeXeXeXeXqXeXqXeXqX0XgXnXnXgXqXeXgXgXgX0X0XfXT # * $ $ $ $ $ * $ * * * * * * * * * * * # W dX0X1X1X<X1X<X<X<X<X<X<XfX0X6XgXnXnXnXnXnXnXnXBXNXNXi.# $ * $ $ $ $ * * * * * $ * * * * * * $ * $ * @ f $XfX0XgXgXgXeX0XeXBXBXeX0XeXqXwXeXeXeXeXeXeXeXeXeXgXeXeXeXeXgXgXgXgXgXgXgXgXgXgXgXgXBXBXBXBXgXlXBXBXBXBXBXBXBXBXBXBXBXNXeXR.eXNXNX6.j * * * y Z.J.J.{.|.                            ",
"                              XXJ.G.J./ # e e , J NXNXBXR.9XNXBXBXBXBXBXBXBXBXBXBXBXBXzXBXBXBXBXeXgXgXgXzXgXgXgXgXgXgXgXeXeXeXeXeXeXeXeXeXeXeXqXeXeXqXqXqXqXeXqXqXgXnXBXeXeXgXgXgXqXgXW # * $ $ $ * * * * * * $ * * * * * * * e # Q jX0X0X<X1X<X<X1X1X<X<X<XfX0X6XgXnXnXnXnXnXnXNXNXsX' # $ $ $ $ $ $ $ * $ * * * * * * * $ $ * * * $ e # ' hX0XgXgXeX0XeXBXBXeX0XqXeXeXqXqXeXeXeXeXeXeXeXeXeXeXeXeXgXgXgXgXeXgXgXgXgXeXeXgXgXgXgXzXBXBXgXBXlXBXBXBXBXBXBXBXBXBXBXNXBXR.9XNXNXL.x = * e & p.XXJ.{.|.                            ",
"                              XXJ.J.G.p * * e j 5.NXNXeXR.eXNXBXBXBXBXBXBXBXBXBXlXBXBXBXBXBXzXlXgXgXgXeXgXgXgXgXgXgXgXeXeXeXeXeXeXeXeXeXeXeXeXqXeXeXqXqXqXqXqXqXqX0X0XgXnXBXqXeXgXgXxXW + * $ $ $ * * * $ * * * * * * * * * * e # ' jX0X0X1X<X<X<X<X<X<X<X<XfX0X6XgXnXnXnXnXNXNXpXi.u # e $ $ $ $ $ $ $ * $ * * $ * * $ * * * * * $ $ * * _.jXgXgXqX0XgXnXgX0X0XqXqX0XwXqXqXeXeXeXeXeXeXeXeXeXeXgXgXgXgXgXgXgXgXgXgXeXeXgXgXgXgXeXgXlXlXgXBXlXBXBXBXBXBXBXBXBXBXBXNXNX^.^.NXNX=XN 4 * e # :.XXJ.{.|.                            ",
"                              XXJ.XXa.* e * = x S.NXNX<X^.NXNXBXBXBXBXBXBXBXBXBXlXgXBXBXlXeXgXlXBXgXgXgXgXgXgXgXgXgXgXeXeXeXeXeXeXeXeXeXeXeXeXqXeXqXqXqXeXqXqXqX0X0XqX0XeXBXnXgXeXeXnX! + * $ $ $ * $ $ * * * * * * * * $ $ * e # ' jX0X0X6X<X<X<X<X<X<X<X<XfX0X1XgXNXNXNXyXm.>.u o $ * $ $ $ $ $ $ $ * * $ * * $ $ * * * $ * * * @ e . [ xXeX0X0XgXnXgX0X0X0XqXqXqXqXqXeXeXeXeXeXeXeXeXeXeXeXeXeXgXgXgXgXgXgXeXgXgXeXeXgXgXeXeXeXeXBXBXBXBXBXBXBXBXBXBXBXBXBXBXBXBXNX<XR.BXNXbXK 5 * * # ) XXJ.J.|.                            ",
"                            OXXXJ.XX,.# e * 4 m *XNXNX^./.NXBXBXBXBXBXBXBXBXBXlXBXBXgXgXgXeXgXgXzXgXgXgXgXgXgXgXgXgXgXeXeXeXeXeXeXeXeXeXeXeXeXeXeXeXqXqX0XqXqXqX0X0X0X0X0X0XgXnXBXeXgXT # * $ $ $ * $ * * $ * * * * * * $ * * e # ' jX0X0X0X<X<X<X<X<X<X<X<XdX0X6X0XhXN.I t # + $ * * * $ $ $ $ $ $ $ $ $ $ $ * * * $ $ * $ * * * $ @ e $XfX9XgXBXgX0X0X0X0X0XqXqX0XqXqXeXqXeXeXeXeXeXeXeXeXeXeXeXeXgXgXgXgXgXgXgXeXeXeXeXgXeXgXeXeXBXBXBXBXBXBXBXBXBXBXBXBXBXBXBXBXNXeXR.eXNXNX#., e * * p J.J.J.{.                            ",
"                            OXXXJ.XX .# e * 6 F bXNXeXR.0XNXBXBXBXBXBXBXBXBXBXBXBXBXgXgXBXBXlXgXgXgXgXgXgXgXgXgXgXgXgXgXeXeXeXeXeXeXeXeXeXgXeXeXeXqXqXqX0XqXqX0XqX0X0X0X0X0X0X0XgXBXnXT # $ $ $ $ * * * * * * * * * * * * $ * e # ] kX0X0XfX6X<X<X<X<X<X<X<XdX0X0X0X7X{ o * e * * $ $ $ * * $ * $ $ $ $ $ $ $ $ * $ $ $ * $ $ * $ e . 0.fX0XgXzXqX0X0X0X0X0X0X0X0X0X0XqXeX0XqXqXeXqXeXeXeXeXeXeXeXgXgXeXeXeXgXgXeXgXgXeXgXgXgXgXeXgXlXBXBXBXBXBXBXBXBXBXBXBXBXBXBXBXNXnX~.<XNXNXs.j e * * e C.J.J.{.|.                          ",
"                            |.{.J.P.^ * e * , O.NXNX0XQ.BXNXBXBXBXBXBXBXBXBXBXgXBXBXgXgXzXgXlXzXgXgXgXgXgXgXgXgXgXeXgXgXeXeXeXeXeXeXeXeXeXeXeXeXeXqXqXqXqXqXqX0X0X0X0X0X0X0X0X0X0X0XxXW # * $ $ $ * * * * * * * * * $ * * @ $ e # ] 7X0X0X0X0X<X<X<X<X<X<X<XdX0X0X0X8X9.# e * * $ $ * $ $ $ $ $ * $ $ * $ $ $ $ $ $ * * $ $ $ @ * . L fXgXgXgX0X0X0X0X0X0X0X0X0X0XqX0XqXqXwXqXqXqXeXeXeXeXeXeXeXeXeXgXeXeXeXgXeXeXeXgXgXgXgXgXgXeXgXBXBXBXBXBXBXBXBXBXBXBXBXBXBXBXBXNXNX/.^.bXNXL.x = * * # t.XXJ.XXOX                          ",
"                            {.J.J.G.y * * * j 5.NXNX/.^.NXNXBXBXBXBXBXBXBXBXBXBXzXgXgXgXBXBXlXgXgXgXgXgXgXgXgXgXgXgXeXeXeXeXeXeXeXeXeXeXeXeXeXeXeXeXeX0XqX0XqX0X0XqX0X0X0X0X0X0X0X0XdXT + $ $ $ $ $ * $ * * * * * * * * * $ $ e # _ 8X0X0X0XdX6X<X<X<X<X<X<XdX0X0X0X8X8.# e * * * $ $ $ * $ $ $ * * * $ $ $ * $ $ $ $ $ $ $ @ * @ e $XnXgX0X0X0X0X0X0X0X0X0X0X0X0X0XqXqXqXqXeXqXeXeXeXeXeXeXeXeXeXeXgXeXeXeXgXeXeXgXgXgXgXgXgXgXgXBXgXBXlXBXBXBXBXBXBXBXBXBXBXBXBXBXBXNX9XR.tXNX*Xm 4 * * # :.XXJ.XXOX                          ",
"                            {.J.XXB.= * * = x k.NXBX~.<XNXBXBXBXBXBXBXBXBXBXBXBXBXgXgXzXBXBXBXzXgXgXgXgXgXgXgXgXeXeXeXeXeXeXeXeXeXeXeXeXeXeXeXeXeXeXqXqXqXqXqX0XqXqX0X0X0X0X0X0X0X0XfXT + $ $ $ $ $ * $ * * * * * * * * * $ * e # _ 8X<X0X0X0X0X<X<X<X<X<X<XdX0X0X0X8X8.# e * * $ $ * $ $ * $ * $ $ * $ * $ * * $ $ $ $ @ $ $ q . v.nX0X6X0X0X0X0X0X0X0X0X0X0X0X0X0XqXqXqXqX0XeXeXeXeXeXeXeXeXeXeXeXgXeXeXgXgXgXgXeXeXgXgXgXgXgXgXgXgXgXgXBXBXBXBXBXBXBXBXBXBXBXBXBXBXNXBXR.9XNXaXA 5 * * # | XXG.{.OX                          ",
"                            {.J.XXy.# * * - v P.NXeXR.eXNXBXBXBXBXBXBXBXBXBXlXBXBXBXlXzXBXlXgXzXgXlXgXgXgXgXgXgXeXeXeXeXeXeXeXeXeXeXeXeXeXeXeX0XqXeXeX0XqX0X0X0XqXqX0X0X0X0X0X0X0X0XfXT # * $ $ * $ * * * * * * * * * * $ * * e # ] 7X<X1X0X0X0X6X<X<X<X<X<X0X6X0X0X7X{ + e $ $ * $ * $ $ * $ $ $ $ * * $ * * * $ $ $ $ $ $ e . 9.jX9X6X0X0X0X0X0X0X0X0X0X0X0X0X0XqXqXqXqX0X0XeXeXeXeXeXeXeXeXeXeXeXgXgXeXeXgXgXeXeXgXeXgXBXgXgXlXBXgXgXeXgXBXBXBXBXBXBXBXBXBXBXBXBXBXNXNX^.^.NXNXO., * * # ^ P.G.{.OX                          ",
"                          |.{.J.XX:.# * * 4 M *XNX9X~.BXNXBXBXBXBXBXBXBXBXBXBXBXBXBXlXBXBXlXzXgXgXgXgXgXgXgXgXgXeXeXeXeXeXeXeXeXeXeXeXeXqXqXeX0XqXeX0XqX0X0X0X0XqX0X0X0X0X0X0X0X0X0XfXT # * $ $ * $ * * * * * * * * * * * * * e # W 7X<X<X0X0X0X0X<X<X<X<X<X0X0X6X0X7X8.# e $ $ $ $ $ * $ $ $ $ $ $ $ $ $ $ $ $ $ $ $ * $ e . ' dX5X0X0X0X0X0X0X0X0X0X0X0X0X0X0X0X0XqXqXqX0X0XqXeXqXeXeXeXeXeXeXeXeXgXgXeXeXeXgXgXgXeXgXgXgXgXgXgXzXgXgXgXgXBXBXBXBXBXBXBXBXBXBXBXBXBXBXNX<XR.BXNX4.1 * * & y G.J.J.OX                          ",
"                          |.{.J.XX| # * * 5 A bXNX/.^.NXNXBXBXBXBXBXBXBXBXBXBXBXBXBXBXBXBXgXzXgXgXgXgXgXgXgXgXgXeXeXeXeXeXeXeXeXeXeXeXeXqXeXeXeXqXqX0XqX0X0X0X0X0X0X0X0X0X0X0X0X0X0XdXT # * $ $ $ * * * * * * * * * * * * * * e # ] 7X<X<X1X0X0X0X6X<X<X<X,X0X6X6X0X7X8.# e $ $ $ $ $ $ $ * $ $ $ $ $ $ $ $ * $ $ * * * * . ' dX0X0X0X0X0X0X0X0X0X0X0X0X0X0X0X0X0X0X0X0X0X0X0XqX0XqXqXeXeXeXeXeXeXeXeXgXeXeXgXeXgXgXgXgXgXgXgXgXgXeXgXgXgXlXBXBXBXBXBXBXBXBXBXBXBXBXBXBXNXeXR.eXNXs.j * * * e C.J.J.OX                          ",
"                          OXXXJ.XX/ # * * , J NXBXQ.9XNXBXBXBXBXBXBXBXBXBXBXBXBXBXBXlXzXlXgXzXlXgXgXgXgXgXgXgXgXeXgXeXeXeXeXeXeXeXeXeXqXqXeXeXeXqXqXqXqXqX0X0X0X0X0X0X0X0X0X0X0X0X0XdXT # * $ $ * * * * * * * * * * * * * * * e # ] 7X<X<X<X6X0X0X0X1X<X<X,X6X6X0X0X7X8.# e $ $ $ $ $ $ $ * $ $ * $ $ $ $ $ $ * * * e * . [ dX6X5X0X0X0X0X0X0X0X0X0X0X0X0X0X0X0X0X0X0XqX0X0XqXqXqX0XqXeXeXeXeXeXeXeXeXgXeXeXgXgXgXgXgXgXgXgXgXgXgXtXzXlXeXeXBXBXBXBXBXBXBXBXBXBXBXBXBXBXNXBXR.9XNXS.x - * * * g.J.J.|.                          ",
"                          OXJ.J.J.s & * * 2 @.NXeXR.eXNXBXBXBXBXBXBXBXBXBXBXBXBXlXgXlXzXgXgXgXgXgXgXgXgXgXgXgXgXgXeXeXeXeXeXeXeXeXeXeXqXqXqXeXeXqXqXqXqXqXqX0X0X0X0X0X0X0X0X0X0X0X0XdXT # * $ $ * * * * * * * * * * * * * * * e + W 7X<X<X<X<X6X0X5X0X<X,X,X6X6X0X0X7X{ # * $ $ * $ $ $ $ $ $ $ $ $ $ $ $ $ * * * e * # 0.dX0X6X0X6X0X0X0X0X0X0X0X0X0X0X0X0X0X0X0X0X0X0XqXqX0X0X0XqXeXqXeXeXeXeXeXeXeXgXeXeXgXgXgXgXgXgXgXeXgXgXgXgXeXlXeXeXgXlXBXBXBXBXBXBXBXBXBXBXBXBXNXNX^.^.NXoXc - * * & t.XXJ.{.|.                        ",
"                          OXXXJ.G.y * * * j 3.NX/.~.BXNXBXBXBXBXBXBXBXBXBXBXBXBXgXgXgXeXgXgXeXgXgXgXgXgXgXgXgXgXeXeXgXeXeXeXeXeXeXeXeXqXeXqXqXqXqXqXqXqXqXqX0X0X0X0X0X0X0X0X0X0X0X0XdXW # e $ $ $ * * * $ $ * * * * * * * * * e o W 7X<X<X<X,X<X6X5X0X<X,X,X1X<X5X0X7X{ # * $ * $ $ $ $ $ $ $ $ $ $ $ $ $ $ * e e # u x.dX5X0X6X0X6X0X0X0X0X0X0X0X0X0X0X0X0X0X0X0X0X0X0XqXqXqXqXqXeXeXqXeXeXeXeXeXeXeXeXgXgXgXgXgXgXeXgXgXgXgXgXgXgXgXzXeXeXgXgXBXBXBXBXBXBXBXBXBXBXBXBXBXNX9XR.nX=Xb 3 * * # ,.XXJ.{.|.                        ",
"                          OXJ.J.C.e * * * j d.NX~.(.NXBXBXBXBXBXBXBXBXBXBXBXlXlXgXgXzXeXlXzXgXgXgXeXgXgXgXgXgXgXeXeXeXeXeXeXeXeXeXeXeXqXeXeXqXqXqX0XqXqXqXqX0X0X0X0X0X0X0X0X0X0X0X0XdXW # * * * * * * * $ * * * $ * * $ * * * e # ] hXdX1X1X1X3X7XdXfX7X3X3X7X7XdXdX8X8.. * $ $ $ $ $ $ $ $ $ $ $ $ @ $ $ * e * # T (.7X5X6X0X0X6X6X0X0X0X0X0X0X0X0X0X0X0X0X0X0X0X0X0X0X0X0XqXeXqXeXeXeXqXeXeXeXeXeXeXgXgXeXgXgXgXgXgXgXgXgXgXlXgXlXgXzXlXlXBXBXBXBXBXBXBXBXBXBXBXBXBXBXBXNXeXR.0XaXM 5 * e # :.XXJ.{.|.                        ",
"                          XXJ.XXg.* * * = k k.nXY.9XNXBXBXBXBXBXBXBXBXBXBXBXBXzXgXlXgXeXBXBXgXgXgXeXgXgXgXgXgXgXeXeXeXeXeXeXeXeXeXeXeXeXeXeXqXqX0XqXqXqX0X0X0X0X0X0X0X0X0X0X0X0X0X0XdXW # e * * * * * * * * * $ * * * $ * * * e # T T.x.x.x.x.x.x.x.x.x.c.c.T._.x.x.).] + * $ $ $ $ $ $ $ * $ $ $ $ $ $ e $ o t q.6X6X<X6X6X6X0X6X6X0X0X0X0X0X0X0X0X0X0X0X0X0X0X0X0X0X0X0XqXqXwXeXqXeXeXeXeXeXeXeXeXeXeXgXeXgXgXgXgXgXgXgXgXgXgXgXgXgXgXgXeXBXBXBXBXBXBXBXBXBXBXBXBXBXBXBXNXnXR.<XbXG 0 * e # =.XXJ.{.|.                        ",
"                        OXXXJ.XXp.$ * * = x F.hXR.gXNXBXBXBXBXBXBXBXBXBXBXBXBXBXBXBXgXgXBXzXgXgXgXeXgXgXeXeXgXgXeXeXeXeXeXeXeXeXeXeXeXeXeXeXqXqXqXqXqXqXqXqX0X0X0X0X0X0X0X0X0X0X0X0XdXW # e * $ * * * * $ $ * $ * * $ $ $ * * * * * * * $ $ $ * * @ @ @ $ $ * * * $ @ $ $ $ $ $ $ $ $ $ $ $ * $ $ $ $ $ o @ { /.7X5X<X1X6X6X6X0X0X0X6X0X0X0X0X0X0X0X0X0X0X0X0X0X0X0X0X0X0X0XqXwXqXqXeXqXqXeXeXeXeXeXeXeXeXeXgXgXgXgXgXgXgXgXgXlXgXgXlXzXgXgXgXlXBXBXBXBXBXBXBXBXBXBXBXBXBXBXNX^.R.BXF > * * # ) XXJ.{.|.                        ",
"                        |.{.J.XXy.# e * - v I.1X~.NXNXBXBXBXBXBXBXBXBXBXBXBXBXBXBXBXBXgXBXzXgXgXgXgXgXgXgXgXgXgXeXeXeXeXeXeXeXeXeXeXeXeXeXeXeXqXqX0X0XqXqXqX0X0X0X0X0X0X0X0X0X0X0X0XdXT # e * $ * * * $ * $ * * * $ $ $ $ $ * * * * * * e e * * * e q e e * * * * * q $ * * $ @ $ $ $ * * $ * $ $ * $ a { T.3X1X<X<X<X6X6X6X6X6X6X6X6X0X0X0X0X0X0X0X0X0X0X0X0X0X0X0X0X0X0X0XqX0XqXqXeXeXeXeXeXeXeXeXeXeXgXeXeXgXgXgXeXgXgXgXBXzXgXgXgXzXgXeXBXgXBXBXBXBXBXBXBXBXBXBXBXBXBXBXNX9XY.gX+.: e * # / XXJ.XX                          ",
"                        |.{.J.XXr.# e * - v XX>X/.NXBXBXBXBXBXBXBXBXBXBXBXBXBXBXBXBXgXgXgXgXgXgXgXgXgXgXgXgXgXgXeXeXeXeXeXeXeXeXeXeXeXeXeXeXeXqXqXqXqXqXqXqX0X0X0X0X0X0X0X0X0X0X0X0XdXT # e $ $ * * * * * * * * * $ $ * $ $ * * * * * * $ * * * * * $ $ $ * * * * $ $ $ * * $ @ $ $ $ $ * $ * $ * $ P c.dX7X6X1X<X<X5X6X6X6X6X6X1X9X0X0X0X0X0X0X0X0X0X0X0X0X0X0X0X0X0X0X0X0XqX0XqXqXqXqXeXeXeXeXeXeXeXeXeXeXgXeXgXgXgXgXgXgXeXVXgXgXgXzXBXBXBXgXlXBXBXBXBXBXBXBXBXBXBXBXBXBXNXgXY.0X@.: e * # I P.J.XX                          ",
"                        |.J.G.XX,.# e * 4 N  XE.9XNXBXBXBXBXBXBXBXBXBXBXBXBXBXBXBXBXeXeXgXgXgXgXgXgXgXgXgXgXeXeXeXeXeXeXeXeXeXeXeXeXeXeXeXeXeXqXqXqXqXqXqXqX0X0X0X0X0X0X0X0X0X0X0X0XdXW # $ $ * * * * * * * * * * $ $ * $ $ $ * $ * $ $ $ * * $ $ * * $ * * * * @ $ * * e * $ @ $ $ $ $ $ * $ $ * * e e a ' q.T.dX7X6X<X5X6X6X6X6X6X6X0X0X0X0X0X0X0X0X0X0X0X0X0X0X0X0X0X0X0XqXqXqXqXqXeXeXeXeXeXeXeXeXeXeXeXeXeXeXeXgXgXgXgXgXgXgXgXgXzXlXBXBXBXlXBXBXBXBXBXBXBXBXBXBXBXBXBXNXNX~.1X2.1 * * # s J.J.{.OX                        ",
"                        {.J.G.XX:.# e * 3 N ].E.BXNXBXBXBXBXBXBXBXBXBXBXBXBXBXBXBXlXBXgXgXBXgXlXgXBXgXgXgXeXgXeXeXeXeXeXeXeXeXeXeXeXeXeXeXqXqXqXeXqXqXqX0X0X0X0X0X0X0X0X0X0X0X0X0X0XdXT # $ $ $ * * * * * * $ * $ $ $ * $ * * * * * * * * $ $ $ $ * $ * * * * * * * * * . X + $ * * $ $ $ $ * $ * * * $ $ # # e W N./.7X6X<X<X6X6X6X9X6X0X0X0X0X0X0X0X0X0X0X0X0X0X0X0X0X0X0X0XqXqXqX0XqXeXeXeXeXeXeXeXeXeXeXeXeXeXgXgXgXeXeXgXeXgXgXgXBXBXlXBXBXlXBXBXBXBXBXBXBXBXBXBXBXBXBXBXNX/.>X2.j * * # p J.J.{.OX                        ",
"                        {.J.J.XX-.# e @ 5 N T.^.NXNXBXBXBXBXBXBXBXBXBXBXBXBXBXBXBXBXlXgXgXgXgXgXgXeXgXgXgXeXgXeXeXeXeXeXeXeXeXeXeXeXeXeXeXqXqXqXeXqX0X0X0X0X0X0X0X0X0X0X0X0X0X0X0X0XdXT # * * $ * * * * * * * * $ $ $ $ $ * $ * * * * * * * $ * $ $ $ $ * * * * * * # P q.q.N.m._.L # * $ $ $ * * * * * * e e $ # # a { (.7X6X<X6X6X5X0X0X0X0X0X0X0X0X0X0X0X0X0X0X0X0X0XqXqX0X0XqXqXqXqXeXeXeXeXeXeXeXeXeXeXeXeXeXgXeXeXeXeXgXeXeXgXgXgXBXlXBXBXlXBXBXBXBXBXBXBXBXBXBXBXBXBXBXNXeX;X1.j * * $ p G.J.{.OX                        ",
"                        |.{.J.XX=.# e * , D R./.NXBXBXBXBXBXBXBXBXBXBXBXBXBXBXBXBXBXBXBXBXBXlXeXeXgXgXgXgXgXgXeXeXeXeXeXeXeXeXeXeXeXeXeXeXeXqXqXqXqXqXqX0X0X0X0X0X0X0X0X0X0X0X0X0X0XdXT # * * * * * * * * * * * * $ $ $ $ $ * $ $ * * $ * * $ $ $ $ * * * * * * * e + ~ 8XdXdX6X1X~ # $ $ $ * * * * * * * * $ * * * $ o e [ (.kX0X9X0X0X0X0X0X0X0X0X0X0X0X0X0X0X0X0X0X0XqXwX0XqXqXqX0X0XqXeXeXeXeXeXeXeXeXeXeXgXgXgXgXgXgXeXgXgXgXgXeXeXgXlXBXBXlXBXBXBXBXBXBXBXBXBXBXBXBXBXBXNXpXW.u.x * * $ y G.J.J.OX                        ",
"                        OX{.G.XX=.# e * , ..W.eXNXNXNXNXNXNXNXNXNXNXNXNXNXNXNXNXNXNXNXNXNXNXNXNXNXNXNXNXNXNXNXBXnXnXnXnXnXnXnXnXnXnXnXnXnXnXnXnXnXnXnXBXBXBXzXgXgXgXgXgXgXgXgXgXgXgXxXW # * $ * * $ * * * * * * * $ $ $ * $ * $ $ * * * $ $ * $ * * * * * * * * * e + ~ 7X0X0X<X7XT # $ $ $ $ * * * $ $ $ * * $ * $ * e * o u q.fXjXeXfXdXfXgXgXgXgXgXgXgXgXgXgXgXgXBXBXBXBXBXBXBXBXBXBXBXBXBXBXBXnXnXnXnXnXnXnXnXnXnXnXnXnXNXNXNXNXNXNXNXNXNXNXNXNXNXNXNXNXNXNXNXNXNXNXNXNXNXNXbXR.c.B = * * t G.J.J.|.                        ",
"                        OX{.J.XX=.# * $ , i.:XeXBXBXBXgXgXgXgXeXeXeXeXeXeXeXeXeXeXeXeXeXeXeXeXeXeXeXeXeXeXeXeXeXqXqXeXeXeXeXeXeXeXeXeXeXqXqXqX0XeXqXqXqXqXqXqX0X0X0XqXeXeXeXqX0X0X0XgXW # * * $ $ * $ * * * $ * * * $ * * * $ * * $ $ * * * $ $ $ * * * * * * * * e # Q dX<X<X<X1XL # $ $ $ $ * $ $ * * * $ $ * $ $ $ * * e * o U _.7X<X<X6X0X0X0X0X0X0X0X0X0X0X0X0X0X0X0X0X0X0X0X0X0X0X0X0X0X0X0X0XqX0X0X0XqXeXeXeXeXeXeXeXeXeXeXeXeXeXeXeXeXeXeXeXeXeXeXeXeXgXgXgXgXgXzXBXBXBXBX^.R...% * # y G.J.{.|.                        ",
"                        OX{.J.XX=.# * * , i.E.9XgXgXeXeXgXgXgXeXeXeXeXeXeXeXeXeXeXeXeXeXeXeXeXeXeXeXeXeXeXeXwXeXeXeXeXeXeXeXeXeXeXeXeXeXeXqXeXeXeXeXeXeXqXqXeXqXeXeXeXeXeXeXqXqX0X0XfXT # * $ $ $ $ $ * * * * * * * * $ * $ * * $ * * $ $ * $ $ $ * * * * * * * * e # Q 7X<X<X0X6XL + $ $ $ $ $ $ $ $ $ * $ $ * $ $ * * * * * e # $ 0.0X0X9X0X0X0X0X0X0X0X0X0X0X0X0X0X0X0X0X0X0X0X0X0X0X0X0X0X0X0X0X0X0X0XqXqXeXeXeXeXeXeXeXeXeXeXeXeXeXeXeXeXeXeXeXeXeXeXeXeXeXeXeXeXgXgXgXgXBXBX/.~.D & * $ y G.J.J.|.                        ",
"                        OX{.J.XX=.# * * , ..W.9XNXNXNXNXNXNXNXNXNXNXNXNXNXNXNXNXNXNXNXNXNXNXNXNXNXNXNXNXNXNXNXNXNXNXNXnXBXnXnXnXnXnXnXnXnXnXBXBXnXBXnXnXBXnXBXBXBXBXgXgXgXgXgXgXgXgXxXT # * $ $ $ $ * * * $ * $ * * $ $ $ * $ $ * * * $ $ $ $ $ * * $ $ * * * * $ e # T dX0X0X0X7XL # $ $ $ $ $ * $ $ * * $ * * $ * * * * * * * e * # Q rXjXeXgXgXgXgXgXgXgXgXzXBXBXBXBXBXBXnXBXBXBXnXBXBXnXnXnXnXnXnXnXnXnXnXnXnXnXnXnXBXBXBXNXNXNXNXNXNXNXNXNXNXNXNXNXNXNXNXNXNXNXNXNXNXNXNXNXNX>Xz.x * * # y G.J.J.|.                        ",
"                        OX{.J.XX-.# * * 7 S Y.^.NXBXBXBXBXBXBXBXBXBXBXBXBXBXBXBXBXBXlXBXBXlXgXgXgXgXgXgXgXgXeXgXgXgXgXgXgXgXeXeXeXeXeXeXeXeXeXeXeXeXeXqX0XqX0X0X0X0X0X0X0X0X0X0X0X0XfXT # $ $ $ $ $ $ $ * $ * * * $ * * $ $ * * * * * $ $ $ * $ * $ $ * * * * * * e + T dX0X0X<X3X~ # @ $ $ $ $ $ * * $ * $ * * * * * * * * * * * * e # a _.kX9X0X0X0X0X0X0X0X0X0XqX0X0XqXqXqXqXqXqXeXqXeXeXeXgXgXeXeXgXgXeXeXgXgXgXgXgXgXgXgXgXgXgXeXBXgXlXBXgXBXBXBXBXBXBXBXBXBXBXBXBXBXBXBXNXpX;Xe.x * * # y G.J.{.|.                        ",
"                        OX{.J.XX:.# * * 6 A T.^.NXNXBXBXBXBXBXBXBXBXBXBXBXBXBXBXBXBXgXgXgXgXgXgXgXgXgXgXeXgXeXeXeXgXgXeXeXeXeXeXeXeXeXqXqXqXqXqXqXqXqX0X0X0X0X0X0X0X0X0X0X0X0X0X0X0XdXT # * $ $ $ * * $ $ * * * * * $ * * * * * * * e e e e q e e q e e e e e e e e + W hX0X6X0X7XT # @ $ $ $ $ $ * $ $ * * * * * * * * * * * * * * * e & e x.kX9X0X0X0X0X0X0X0X0X0X0X0X0X0XqX0XqXqX0XqXeXeXeXeXeXeXeXeXeXeXeXeXeXeXeXeXeXeXeXeXeXeXeXzXgXtXgXBXBXlXBXBXBXBXBXBXBXBXBXBXBXBXBXNX9X;X<.k * * # p J.J.{.|.                        ",
"                        |.{.J.XX:.# * * 5 N '.E.BXNXBXBXBXBXBXBXBXBXBXBXBXBXBXBXBXBXlXlXBXlXgXgXgXgXgXgXgXeXgXeXeXgXgXeXgXeXeXeXeXeXeXeXeXeXeXeXqXqXeX0X0X0X0X0X0X0X0X0X0X0X0X0X0X0XdXT # * $ $ $ $ * * $ * * * * * * * * * * * * $ # # # # # # # # # # # # # # # # O ! hX0X1X<XdXT # $ $ $ $ $ $ $ * * * * * * * * * * * * * * * * * * e * * N.hX9X0X0X0X0X0X0X0X0X0X0XqX0X0X0XqXeX0XeXeXeXeXeXeXeXeXeXeXeXeXeXeXgXgXgXgXgXeXeXeXgXeXzXgXBXlXBXBXBXBXBXBXBXBXBXBXBXBXBXBXBXNXNX^.:X6.j * * # d J.J.XXOX                        ",
"                        |.{.J.XX,.# = * 3 M  XE.9XNXBXBXBXBXBXBXBXBXBXBXBXBXlXgXBXBXlXgXzXgXgXgXgXlXgXgXgXeXgXgXeXeXeXeXeXeXeXeXeXeXeXeXeXeXqXqXqXqXqXqXqXqXqX0X0X0X0X0X0X0X0X0X0X0XdXT # * $ $ $ * * * * * * * * * * * $ * * * $ u _ ' T ! W W W W W W W Q Q W T W ! w.7X<X1X6X0XT # * $ $ $ $ * $ * * * * * * * * * * * * * * * * * * * e * & N.hX9X0X0X0X0X0X0X0X0X0X0X0X0XqXeXeXqXqXeXeXeXeXeXeXeXeXeXeXeXeXeXgXeXgXgXgXeXgXgXgXgXBXBXBXBXBXBXBXBXBXBXBXBXBXBXBXBXBXBXBXNXBXR.1X5.j * * # s P.J.XXOX                        ",
"                        |.{.J.XXr.# = * ; v XX>X/.NXBXBXBXBXBXBXBXBXBXBXBXBXlXgXBXBXBXlXgXgXgXgXlXlXgXgXgXgXgXgXgXeXeXeXeXeXeXeXeXeXeXeXeXqXqXqXqXeXqXqXqXqXqX0X0X0X0X0X0X0X0X0X0X0XdXT + * $ $ $ $ * * * * * * * * * * * * * e + ] cX7X3X7XdX3X3X1X3X7X6XhX7X3X7X7XdXdX1X1X,X5XdXL # * $ $ $ $ * * * * * * * * * * * * * * * * * * * * * * * * * x.kX9X0X0X0X0X0X0X0XqX0X0X0XqXqXeXeXeXeXeXeXeXeXeXeXeXeXeXeXgXgXgXeXgXgXgXlXlXgXgXBXBXBXBXBXBXBXBXBXBXBXBXBXBXBXBXBXBXBXBXNXeXY.dX2.: * * # I XXJ.XXOX                        ",
"                        |.{.J.XXp.& * * - c I.1XQ.BXNXBXBXBXBXBXBXBXBXBXBXBXBXgXBXBXlXgXeXgXgXeXgXgXgXgXgXeXgXgXeXeXeXgXeXeXeXeXeXeXeXeXeXqXqXqXeXqXeXqXeX0XqXqX0X0X0X0X0X0X0X0X0X0XdXT # * $ $ * * * * * * * * * * * * * * * e # W 3X<X0X1X,X,X>X>X<X5X9X<X<X<X0X1X,X6X1X0X<X,X1XL # $ $ $ * * * $ * * * * * * * * * * * * * * * * * * * * * * * * T.dX0X0X0X0X0X0X0X0X0XqX0X0XqXeXeXeXeXeXeXeXeXeXeXeXeXeXeXeXeXgXgXeXgXgXgXgXgXgXBXgXeXeXBXBXBXBXBXBXBXBXBXBXBXBXBXBXBXBXNX<XY.nX@.: $ * # ) XXJ.XXOX                        ",
"                          {.J.XXg.* * * - c F.dXY.gXNXBXBXBXBXBXBXBXBXBXBXBXBXlXBXBXlXgXeXgXgXgXgXgXgXgXgXgXgXgXeXeXeXeXeXeXeXeXeXeXeXeXeXeXqXqXwXqXqXqXqX0XqXqX0X0X0X0X0X0X0X0X0X0XdXT # * * $ * * * * * * * * * * * * * * * e # W 7X6X1X<X,X,X>X,X1X5X6X,X1X1X0X6X,X1X6X6X6X>X,XY # @ $ $ $ $ $ * * * $ * * * * * * * * * * * * * * * * * * * * & a 9X0X0X0X0X0X0X0XqX0XqXqXqXqXeXeXeXeXeXeXeXeXeXeXeXeXeXgXgXeXgXgXgXgXgXgXgXgXgXgXzXgXgXgXBXBXBXBXBXBXBXBXBXBXBXBXBXBXBXNX^.~.NXJ > $ * +  .XXJ.{.OX                        ",
"                          XXJ.J.C.= * * = x k.xXY.9XNXBXBXBXBXBXBXBXBXBXBXBXBXBXlXlXlXgXBXgXgXgXgXgXgXgXgXgXgXgXeXeXeXeXeXeXeXeXeXeXeXqXeXeXeXeXwXqXqXqXqX0X0X0X0X0X0X0X0X0X0X0X0X0XdXT # * $ * * * * * * * * * * $ * * * * * e # W 7X,X<X<X,X,X,X1X0X0X1X>X1X6X0X6X,X,X6X6X1X,X1XT # q * * $ $ $ * * * * * * * * * * * * * * * * * * * * * * * * e # Q fX0X0X0X0X0X0XqX0XqXqXqXqX0X0XqXeXeXeXeXeXeXeXeXeXeXeXeXeXgXgXgXgXgXgXgXgXgXeXeXgXgXlXBXBXBXBXBXBXBXBXBXBXBXBXBXBXNXBXR.<XbXG 0 * * + ;.XXJ.{.|.                        ",
"                          OXJ.J.Z.y * * = j d.NX~./.NXBXBXBXBXBXBXBXBXBXBXBXBXBXlXBXgXgXBXlXgXgXgXgXgXgXgXgXeXgXeXeXeXeXeXeXeXeXeXeXeXeXeXeXeXeXwXqXqXqXqX0X0X0X0X0X0X0X0X0X0X0X0X0XdXT # * * * * * * * * * * * * * * $ * $ * e + W 7X,X,X,X<X,X1X6X<X6X,X,X1X6X0X6X,X,X1X1X1X0X1XP X # * e * * * $ * * * * * * * * * * * * * * * * * * * * * * * * e o q.hX9X0X0X0X0X0XqXqXqXqXqXqXqXeXeXeXeXeXeXeXeXeXeXeXeXgXgXeXgXgXgXgXeXgXeXeXeXgXgXgXBXBXBXBXBXBXBXBXBXBXBXBXBXBXBXNXeXR.gXaXM 0 $ * # ,.XXJ.{.|.                        ",
"                          OXXXJ.G.p & * * 1 3.NX/.~.nXNXBXBXBXBXBXBXBXBXBXBXBXlXBXBXlXBXBXzXgXgXgXgXgXgXgXgXgXgXgXeXgXeXeXeXeXeXeXeXeXeXeXeXqXqXeX0XqX0XqXqXqX0X0X0X0X0X0X0X0X0X0X0XfXW # * * * * * * * * * * * * * * $ * * * e # W 3X<X<X<X,X<X6X0X6X1X,X<X1X1X0X6X,X,X>XgXnXnXgXm.w.U # o $ * * * * * * * $ $ * * * * * * * * * * * * * * * * * * * * * _.fX0XqX0XqXqXqXqX0XqXqXeXqXqXeXeXeXeXeXeXeXeXeXeXeXgXeXeXgXgXgXgXgXgXgXeXgXgXBXBXBXBXlXBXBXBXBXBXBXBXBXBXBXBXBXNX<XR.nX=Xv ; $ * # y.XXJ.{.|.                        ",
"                          OXXXJ.J.s # * * : $.NX0XR.eXNXBXBXBXBXBXBXBXBXBXBXBXlXBXBXBXBXBXBXgXgXgXgXgXgXgXgXgXgXgXeXeXeXeXeXeXeXeXeXeXeXqXeXqXqXeX0X0X0XqXqX0XqX0X0X0X0X0X0X0X0X0X0XdXT # * * * * * * * * * * * * * $ * * * * e # ] 3X<X<X<X,X1X0X5X6X,X,X,X1X6X0X6X,X,X>XgXNXnXnXBXNXNX'.;.* + e * * * * * $ * * * * * * * * * * * * * * * * * * * * e # ! fX0XqX0XqXeXqXqX0XeXeXeXqXeXeXeXeXeXeXeXeXeXeXeXeXgXgXgXgXeXgXgXlXgXgXlXgXgXlXBXBXBXBXBXBXBXBXBXBXBXBXBXBXBXNXNX~.^.NXoXc % $ * * a.XXJ.{.|.                        ",
"                            XXJ.XX) # * * > J NXBXR.9XNXBXBXBXBXBXBXBXBXBXBXBXlXlXzXgXgXBXgXgXgXzXgXgXgXgXgXeXgXgXeXeXeXeXeXeXeXeXeXeXeXeXeX0XqXqXqXqXqXqXqXqXqX0X0X0X0X0X0X0X0X0X0XfXT # * * * * * * * * * * * * * * * * * * e # ] 7X<X<X<X1X6X0X0X1X,X,X,X1X6X0X6X,X,X>XgXBXnXnXnXBXnXBXNX#X' # $ e * $ * $ * * * * * * * * * * * * * * * * * * * * * * o N.hX0XqX0XqXqXqXwXeXeXeXqXeXeXeXeXeXeXeXeXeXeXeXeXgXgXgXgXeXeXgXgXgXBXlXBXBXgXlXBXBXBXBXBXBXBXBXBXBXBXBXBXBXNXBXR.9XNXS.k = * * e C.J.J.{.|.                        ",
"                            {.J.XX=.# = * 3 S aXNX^.^.NXBXBXBXBXBXBXBXBXBXBXBXBXlXzXgXgXBXgXgXgXBXgXlXgXeXgXeXgXgXgXeXeXeXeXeXeXeXeXeXeXeXeXqX0XqXqXqXqXqXqXqX0X0X0X0X0X0X0X0X0X0X0XfXT # * * * * * * * * * * * * * * * * * * e # ] 7X<X<X<X6X0X0X6X<X,X,X,X1X6X0X6X,X,X>XgXnXnXnXnXnXnXnXBXBXNXv.e # e * * * $ * * * * * * * * * * * * * * * * * * * * * # a 0XqX0X0X0XqXqXqXeXeXeXqXeXeXeXeXeXeXeXeXeXeXeXeXgXeXgXgXgXeXeXeXgXlXBXzXBXgXgXlXBXBXBXBXBXBXBXBXBXBXBXBXBXNX0XR.eXNXd.j * * & t Z.J.J.XX                          ",
"                            {.J.XX,.# = * 4 m *XNX<XR.BXNXBXBXBXBXBXBXBXBXBXBXlXBXBXgXgXBXlXzXlXgXzXgXgXgXgXgXgXeXgXeXeXeXgXeXeXeXeXeXeXeXqXeX0XqXeX0XqXqXqX0X0XqX0X0X0X0X0X0X0X0X0XfXT # * * $ * * * * * * * * * * * * * * * e # W 7X<X<X1X0X0X0X1X,X,X,X,X1X6X0X0X,X,X>XgXNXnXnXnXnXnXnXnXnXnXNX#Xa # e * * $ * * * * * * * * * * * * * * * * * * * * * * o q.hX0XqXqX0X0XqXeXeXeXeXeXeXeXeXeXeXeXeXeXeXeXgXeXeXeXgXeXgXBXVXgXeXeXBXBXgXgXgXBXBXBXBXBXBXBXBXBXBXBXBXBXNX/.~.BXNX2.: * * # s J.G.J.OX                          ",
"                            {.J.XXa.* * * = v P.NXeXR.eXNXBXBXBXBXBXBXBXBXBXBXBXBXBXBXlXBXBXBXlXlXBXgXeXeXeXgXgXeXgXeXeXeXeXeXeXeXeXeXeXeXeXeXqXeXeXqXqXqXqX0X0XqX0X0X0X0X0X0X0X0X0XfXT # $ * $ * * * * * * * * * * * * * * * e # W 7X<X<X0X0X6X6X<X<X<X<X<X6X6X0X0X,X,X>XgXNXnXnXnXnXnXnXnXnXnXBXBXpXs # e * * * * * * * * * * * * * * * * * * * * * * * * & a 0XqX0X0XqXqXeXeXeXeXeXeXeXeXeXeXeXeXeXeXeXeXeXeXeXeXgXeXgXBXeXeXeXpXgXBXeXgXBXlXBXBXBXBXBXBXBXBXBXBXBXNXNX~./.NXNXX.> $ * # / P.G.{.OX                          ",
"                            {.J.{.C.e * * = k k.NXBX~.9XNXBXBXBXBXBXBXBXBXBXBXBXBXBXgXgXgXgXBXzXgXgXgXgXeXeXgXgXgXgXeXeXeXeXeXeXeXeXeXeXeXeXeXeXeXqXqXqXqXqX0X0XqXqX0X0X0X0X0X0X0X0XdXT # e * * * * * * * * * * * * $ * * * * e # W 7X<X6X0X0X0X1X<X<X<X,X,X6X6X0X0X<X<X,XgXNXnXnXnXnXnXnXnXnXnXnXBXBXpXa # e * * * * * * * * * * * * * * * * * * * * * * * * o q.hXqXqXqXqXeXeXeXeXeXeXeXeXeXeXeXeXeXeXeXeXeXgXeXgXgXgXgXgXgXgXgXgXlXBXBXBXBXBXBXBXBXBXBXBXBXBXBXBXBXNXBXR.9XNXaXA 3 $ * . =.P.G.XX                            ",
"                            |.{.J.G.y # * * j 5.NXNX/.^.NXNXBXBXBXBXBXBXBXBXBXBXBXBXgXeXlXgXzXzXgXgXgXeXgXgXgXeXeXeXeXgXeXeXeXeXeXeXeXeXeXeXeXeXeXeXqXqXqXqXqX0XqXqX0X0X0X0X0X0X0X0XdXT # * * * * * * * * * * * * $ $ $ * * * e # W 7X<X0X0X0X6X<X<X<X<X<X,X6X6X6X0X<X<X,XgXNXnXnXnXnXnXnXnXnXnXnXnXBXBX#Xq $ * * * * * * * * * * * * * * * * * * * * * * * * # U gXqXqXqXqXeXeXeXeXeXeXeXeXeXeXeXeXeXeXeXeXgXgXeXgXgXgXgXBXgXgXeXeXBXBXBXBXBXlXBXBXBXBXBXBXBXBXBXBXBXNX0XR.eXNX+Xm = $ * # r.XXJ.XXOX                          ",
"                            OX{.J.XX^ # * * , X.NXNX9XR.BXNXBXBXBXBXBXBXBXBXBXBXBXBXBXgXgXgXBXzXlXgXgXeXeXeXeXgXeXgXeXgXeXeXeXeXeXgXeXeXeXeXeXeXeXqXqXqXqXqXqXeXqX0X0X0X0XqX0X0X0X0XjXW # * * $ * * * * * * * * * * * * * * * e + W 7X0X0X0X6X1X<X<X<X<X<X<X0X6X6X0X<X<X,XgXBXnXnXnXnXnXnXnXnXnXnXnXnXBXNXN.o e * * * * * * * * * * * * * * * * * * * * * * * * * _.gX0X0X0XqXqXeXeXeXeXeXeXeXeXeXeXeXeXeXeXgXeXgXgXeXeXtXzXlXlXeXgXgXBXBXBXBXBXBXBXBXBXBXBXBXBXBXBXBXNX^.~.bXNXS.j * $ * * g.XXJ.XX                            ",
"                              XXJ.XX .# e * 5 A aXNXeXR.wXNXBXBXBXBXBXBXBXBXBXBXBXBXgXgXgXgXzXzXBXgXgXeXgXeXeXgXeXeXeXeXeXeXeXeXeXeXeXeXeXeXeXeXeXqXqXqXqXeXqXqXqXqX0X0XqXqX0X0X0XgXxXW # e * * * * * * * * * * * * $ * * * * e + ] 7X0X0X0X6X<X<X1X<X<X<X<X0X6X6X0X<X<X,XgXBXnXnXnXnXnXnXnXnXnXnXnXnXnXnXNXQ # e * * * * * * * * * * * * * * $ * * * * $ * * e # &.jX0X0XqXeXeXeXeXeXeXeXeXeXeXeXeXeXeXeXeXgXeXeXeXgXeXeXeXBXgXgXgXlXBXgXBXBXBXBXBXBXBXBXBXBXBXBXBXNXBXR.<XNXNX6.1 * * $ y G.J.J.{.                            ",
"                              XXJ.XX,.# e * 4 v +XNXbX^.<XNXBXBXBXBXBXBXBXBXBXBXBXBXBXBXgXgXeXeXzXgXgXgXeXeXeXgXeXeXgXeXeXeXeXeXeXgXeXeXeXeXeXeXeXeXqXeX0XqXqXqX0X0X0X0X0X0X0XgXgXeXgXT # e * * * * * * * * * * * * * * * * * e # W kX0X0XdX1X<X<X<X<X<X<X<X0X6X6XdX<X<X,XgXnXnXnXnXnXnXnXnXnXnXnXnXnXnXnXBX%Xe * * $ * * * * * * * * * * * * * * * * * * * * * $ a qXeX0XeXqXqXeXeXeXeXeXeXeXeXeXeXeXeXeXgXgXeXeXgXeXgXeXgXgXgXzXBXlXgXlXBXzXBXBXBXBXBXBXBXBXBXBXBXNXeXR.0XNXNX@.: q * # I {.J.{.|.                            ",
"                              XXJ.XXa.* * * = x S.NXNX/.~.NXNXBXBXBXBXBXBXBXBXBXBXlXBXBXlXgXeXgXzXgXgXgXeXgXeXeXeXeXgXgXgXeXgXgXeXeXeXeXeXeXeXeXeXeXqXeXeXqXqXqXqX0X0X0X0XgXgXgXeX0XgXT # * * $ * * * * * * * * * * * * * * * e + W hX9X0X6X<X1X<X<X<X<X<X<X0X0X0X0X<X<X,XgXNXnXnXnXnXnXnXnXnXnXnXnXnXnXnXBXNX>.# e * * $ $ * * * * * * * * * * * * * * * * * * * * _.gX0XeXeXqXeXeXeXeXeXeXeXeXeXeXeXeXeXeXeXgXgXgXgXzXgXeXgXgXzXgXlXgXlXBXBXBXBXBXBXBXBXBXBXBXBXBXNX<XR.BXNXbXS 0 $ e # =.XXJ.{.|.                            ",
"                              OX{.J.G.y * * * j 5.NXNX0XR.BXNXBXBXBXBXBXBXBXBXBXBXBXBXBXBXgXgXgXzXBXgXgXgXeXgXeXeXgXgXgXeXeXgXeXeXeXeXeXeXeXeXeXeXeXqXqX0X0X0X0XqXqX0XgXgXgXeXeXgXeXgXW # * $ $ * * * * * * * * * * * * * * * e + W dX0X0X<X<X<X<X<X<X<X<X<X0X0X0XdX<X<X<XgXBXnXnXnXnXnXnXnXnXnXnXnXnXnXnXnXBX%Xe * * * * * $ * * * * $ $ $ * * * * * * * * * * e o u.jXeXqXeXeXeXeXeXeXeXeXeXeXeXeXeXeXgXeXeXgXgXgXgXgXeXgXlXgXBXBXgXgXgXeXlXBXBXBXBXBXBXBXBXBXBXNXNX^.^.NXNX*Xv - $ e # r.XXJ.{.|.                            ",
"                              OXXXJ.XXI # * * , X.NXNXBXR.0XNXBXBXBXBXBXBXBXBXBXBXlXBXBXBXlXgXzXgXBXgXgXgXgXgXgXgXgXgXgXgXgXgXgXeXeXgXeXeXeXeXeXeXeXeXqX0X0X0XqXqXeXgXgXgXeXgXgXgX0XfXW # * $ * * * * * * * * * * * * * $ * * e + _ dX0X6X<X<X<X<X1X1X<X<X1XdX0X0XdX<X<X<XgXBXnXnXnXnXnXnXnXnXnXnXnXnXnXnXnXnXBXQ # e * $ $ * $ * * * * * * * * * * * * * * * * * # ' jXqXeXeXeXeXeXeXeXeXeXeXeXeXeXeXeXgXgXgXeXgXgXgXzXeXgXgXBXzXpXgXlXgXBXlXBXBXBXBXBXBXBXBXBXBXNXBXR.9XNXNXS.k = * * * a.{.J.{.                              ",
"                                XXJ.XX=.# * * 5 N iXNXNX~./.NXNXBXBXBXBXBXBXBXBXBXBXlXzXBXBXBXBXBXzXgXgXgXeXgXgXgXgXgXgXgXeXgXgXeXeXeXeXeXeXeXeXeXeXeXqXqXqXqXqXgXBXgXeXeXgXgXgX0X0XfXT # * $ $ * * * * * * * * * * * * $ $ * e + ' dX0X<X<X<X1X1X1X<X<X<X<XdX0X0XdX1X1X<XgXNXnXnXnXnXnXnXnXnXnXnXnXnXnXnXnXBXBXv.# e * * * * $ $ $ $ $ $ $ $ * * * * * * * * * * * a rXgXqXeXeXeXeXeXeXeXeXeXeXeXeXeXgXeXgXgXgXgXgXgXgXgXgXgXzXzXBXBXBXlXzXlXBXBXBXBXBXBXBXBXBXBXNX0XR.eXNXNX3.j * * * p G.J.J.|.                              ",
"                                {.J.XXy.& = * - c L.NXNX<X~.nXNXBXBXBXBXBXBXBXBXBXBXlXzXBXBXBXBXBXzXeXgXgXeXlXgXgXgXgXgXgXgXeXeXeXeXeXeXeXeXeXeXeXeXeXeXqXqXgXzXgXeXeXgXzXgX0X0X0X0XfXT # * $ * * * * * * * * * * * * * * * * e # W hX6X<X6X1X6X6X6X1X<X<X<XdX0X0XdX1X<X<XgXnXnXnXnXnXnXnXnXnXnXnXnXnXnXnXnXnXnXyXe $ $ $ $ $ * $ $ $ $ $ $ * * * * * * $ * * * * * * _.gXeXeXeXeXeXeXeXeXeXeXeXeXeXgXeXeXgXgXeXgXgXeXgXgXgXgXzXgXBXlXBXBXlXBXBXBXBXBXBXBXBXBXBXBXNX<X~.BXNXNXK , * * # ) XXJ.{.OX                              ",
"                                {.J.{.C.r * * = j 5.NXNXeXR.eXNXBXBXBXBXBXBXBXBXBXBXlXBXBXBXgXeXBXgXVXgXgXgXgXgXgXgXgXgXeXeXeXgXeXeXeXeXeXeXeXeXeXeXeXeXgXBXBXeXqXgXBXgXeX0X0X0X0X0XfXT # * * $ * * * * * * * * * * * * $ * * e # W hX<X6X1X1X1X1X1X<X<X5X6X0X0X0XdX1X1X<XgXBXnXnXnXnXnXnXnXnXnXnXnXnXnXnXnXnXnXBXU # $ $ $ $ $ $ $ $ $ $ * * * * * * * * * * * * * # b.jXeXeXeXeXeXeXeXeXeXeXeXeXeXeXeXeXgXgXgXgXeXeXgXlXlXBXzXeXgXlXBXBXBXBXBXBXBXBXBXBXBXBXBXNXNX~./.NXNX*XM - * e # :.XXJ.XX                                ",
"                                |.{.J.J.g # * * , J NXNXBXR.4XNXBXBXBXBXBXBXBXBXBXBXlXBXBXlXgXgXBXlXgXgXgXgXgXgXgXgXgXgXgXeXgXgXeXeXeXeXeXeXeXeXeXeXeXzXBXgX0XeXzXgXgXqXqXqX0X0XqX0XfXT # * * * * * * * * * * * * * $ * $ $ * e # Q dX<X6X6X6X6X6X1X1X1X1X1XdX0X0XdX1X1X<XgXBXnXnXnXnXnXnXnXnXnXnXnXnXnXnXnXnXBXNX>.X * $ $ $ $ $ $ $ $ $ $ * * * * * * * * * * $ e o i.BXeXeXeXeXeXeXeXeXeXeXeXeXeXeXeXgXgXgXgXgXgXgXgXlXlXgXBXgXgXlXBXlXlXBXBXBXBXBXBXBXBXBXBXNXgXR.9XNXNXk.x e * * * g.XXJ.XX                                ",
"                                |.{.J.XX=.# = * 8 M *XNXNX^.^.NXNXBXBXBXBXBXBXBXBXBXBXBXBXBXgXgXzXgXBXzXgXgXeXeXgXgXgXgXgXeXgXeXeXeXeXeXeXeXeXeXeXgXBXgX0X0XgXBXgXeXqXqXqXqX0X0XqX0XfXT # e * * * * * * * * * * * * * * * $ * e # ] 7X5X6X6X1X6X6X6X6X6X1X1XdX0X0XdX6X<X<XgXBXnXnXnXnXnXnXnXnXnXnXnXnXnXnXnXnXBXNXv.o * $ $ $ $ $ $ $ $ $ $ $ * * * * * $ * * * * * o %.xXBXBXgXeXeXeXeXeXeXeXeXeXeXeXeXgXeXgXgXgXgXgXgXgXgXgXgXgXlXBXBXBXBXBXBXBXBXBXBXBXBXBXBXNX9XR.BXNXNX@.1 e * * d J.J.XXOX                                ",
"                                |.{.J.XXp.# * * = x k.NXNX<XR.BXNXBXBXBXBXBXBXBXBXBXBXBXBXBXlXgXzXlXgXBXBXgXeXeXgXgXeXgXgXgXeXeXgXeXeXeXeXeXeXgXBXgX0X0XgXBXgXeXqXqXeXqXqXqXqXqX0X0XfXT # e * * * * * * * * * * * * * * * * * e # W dX5X6X1X6X6X6X6X6X6X6X6XdX0X0XfX6X<X<XgXnXnXnXnXnXnXnXnXnXnXnXnXnXnXnXnXnXnXNX].# $ $ $ * * $ $ $ $ * $ * $ * * * * * * * * $ * . ' jXeXBXBXBXgXeXeXeXeXeXeXeXeXeXeXeXgXgXgXeXgXgXgXlXgXgXgXgXgXBXBXBXBXBXBXBXBXBXBXBXBXBXBXNX/.^.NXNXaXN 5 * e # ) XXJ.XXOX                                ",
"                                  {.J.J.G.y # * * 1 @.NXNXeXR.eXNXBXBXBXBXBXBXBXBXBXBXBXBXBXlXgXzXBXBXBXBXlXgXeXgXgXgXgXgXgXgXeXgXgXeXeXeXgXBXBXeX0XeXBXzXgXqXqXqXqXqXqXqX0XqXqX0X0XfXT # e * * * * * * * * * * * * * * * * * e # Q dX5X6X6X6X6X6X0X6X6X6X6XdX0X0XgX6X6X1XgXBXnXnXnXnXnXnXnXnXnXnXnXnXnXnXnXnXnXBX#X@ $ $ $ $ $ $ $ $ $ $ * $ $ * * * * * * * * * * + Q nXeXeXeXBXBXgXeXeXeXeXeXeXeXeXgXeXgXgXgXeXeXgXgXlXBXgXlXgXBXBXBXBXBXBXBXBXBXBXBXBXBXBXNXnX~.<XNXNXP.v - * * # r.XXJ.XX                                  ",
"                                  OX{.J.XX) # * * 5 N iXNXBX~.<XNXBXBXBXBXBXBXBXBXBXBXBXBXBXlXlXgXzXBXBXBXlXgXeXgXgXgXgXgXgXgXgXeXeXeXgXBXBXgX0XqXBXBXgXeXeXeXeXqXqXeXqXqXqXqXqX0X0XfXT # e * * * * * * * * * * * * * * $ * * e # Q dX9X6X6X6X6X0X0X0X6X6X6XfX0X0XgX0X6X<XgXBXnXnXnXnXnXnXnXnXnXnXnXnXnXnXnXnXnXnX%X@ $ $ $ $ $ * $ $ $ $ $ $ * * * * * * * $ * * * # W jXlXBXgXeXgXBXBXgXeXeXgXeXeXgXeXgXgXgXlXgXgXgXgXzXBXgXlXgXBXBXBXBXBXBXBXBXBXBXBXBXBXBXNXeXR.eXNXNX6.j e * $ e C.J.J.|.                                  ",
"                                  OX{.J.XXr.# * * - x S.NXNX/.^.NXNXBXBXBXBXBXBXBXBXBXBXBXBXBXBXgXBXBXlXBXBXgXeXzXgXgXgXgXgXgXgXeXgXBXBXBXqX0XBXBXgXeXeXeXeXqXeXeXqXqXeXeXqXqX0XqX0XgXT # e $ * * * * * * * * * * * * * * * * e # W dX5X0X0X0X0X0X0X6X6X6X6XfX0X0XgX6X6X1XgXNXnXnXnXnXnXnXnXnXnXnXnXnXnXnXnXnXnXNX%X$ $ $ $ $ $ * $ $ $ $ * * * * * * * * * $ * * * + W jXeXgXnXBXeXqXgXnXBXgXeXeXeXeXeXeXeXeXeXgXgXlXlXgXgXlXgXeXlXlXBXBXBXBXBXBXBXBXBXBXBXBXNX<X~.BXNXbXH 6 $ * # / XXJ.{.|.                                  ",
"                                    {.J.J.Z.r * * * z #.NXNX9XR.gXNXBXBXBXBXBXBXBXBXBXBXlXBXBXBXlXBXBXlXzXzXgXlXzXzXgXgXgXgXgXgXgXBXnXeX0XgXnXBXgXeXeXeXeXeXeXeXeXqXqXeXeXqXqXqXqX0XgXT # e * * * * * * * * * * * * * * * * * e # W dX0X0X0X0X0X0X0X6X6X6X6XgX0X0XgX0X6X1XgXnXnXnXnXnXnXnXnXnXnXnXnXnXnXnXnXnXnXNX%X$ $ $ $ $ $ $ $ $ * $ $ $ $ * * * * * * $ * * * + Q jXeXgXgXBXnXgXeXeXBXnXBXeXeXgXgXgXeXeXeXeXgXgXzXBXBXlXBXgXgXlXBXBXBXBXBXBXBXBXBXBXBXNXNX^./.NXNXP.c - * * # ,.XXJ.{.|.                                  ",
"                                    |.{.J.XX) # * * 5 N iXNXBXR.9XNXBXBXBXBXBXBXBXBXBXBXlXBXBXBXBXBXBXBXBXBXzXlXzXzXgXgXgXgXzXBXnXgX0XeXBXBXgXeXeXeXeXeXeXeXeXeXeXqXeXqXqXqXqXqXqX0XgXT # * * * * * * * * * * * * * * $ * * * e # Q dX9X0X0X0X0X0X0X0X0X0X6XfX0X0XgX0X6X1XgXnXnXnXnXnXnXnXnXnXnXnXnXnXnXnXnXnXnXNXm.+ $ $ $ $ $ $ $ $ $ * * * $ $ * * * * * * $ $ * o ' xXeXgXeXeXgXBXnXgXeXeXBXnXBXeXeXgXeXeXeXgXgXBXBXBXBXlXBXBXBXlXBXBXBXBXBXBXBXBXBXBXBXNXBXR.9XNXNX3.j * * * e C.J.J.OX                                    ",
"                                    |.{.J.XXr.# * * = x S.NXbX^.^.NXBXBXBXBXBXBXBXBXBXBXBXBXBXBXBXBXBXzXBXBXzXgXgXzXgXgXgXBXBXBX0X0XBXnXBXgXeXeXeXeXeXeXeXeXeXeXeXqXeXqXqXeXeXqXqXqXgXT # * * * * * * * * * * * * $ * * * * * e # Q dX9X0X0X0X0X0X0X0X0X0X6XfX0X0XgX0X0X1XgXnXnXnXnXnXnXnXnXnXnXnXnXnXnXnXnXnXBXNXN.o * $ $ $ $ $ $ $ $ $ * $ * * * * * * * * * $ e . &.xXeXeXeXeXeXeXgXnXBXeX0XzXNXBXgXeXeXeXeXgXgXBXBXgXlXlXlXlXlXBXBXBXBXBXBXBXBXBXBXBXBXNX0XR.eXNXaXA 6 * * # ^ XXJ.XXOX                                    ",
"                                      |.{.J.Z.y * * * 2 @.NXNX<XR.BXNXBXBXBXBXBXBXBXBXBXBXBXBXBXBXgXgXgXgXlXBXgXgXgXgXBXnXBXeX0XgXnXBXgXeXeXeXeXeXeXeXeXeXeXeXeXeXeX0X0XqXqXwXeXqXqXjXT # e * * * * * * * * * * * * * * $ $ * e # Q hX0X0X0X0X0X0X0X0X0X0X0XgX0X0XgX0X0X6XgXnXnXnXnXnXnXnXnXnXnXnXnXnXnXnXnXnXBXNX>.o * $ $ $ $ $ $ * * * * $ * * * * $ $ * * * $ e . q.xXeXeXeXeXeXgXeXgXBXnXBXeXeXBXnXBXeXeXeXgXgXzXBXlXgXgXgXlXBXBXBXBXBXBXBXBXBXBXBXBXBXNX/.^.bXNXD.c - * * # r.OXJ.OX                                      ",
"                                      OX{.J.XX .# e * 3 M *XNXeXR.eXNXBXBXBXBXBXBXBXBXBXBXBXBXBXBXlXgXzXBXgXBXgXeXBXnXnXeX9XeXBXnXgXgXgXgXeXeXeXeXeXeXeXeXeXeXeXeXeXqX0X0XqXeXeX0X0XfXT # e * * * * * * * * * * * * * $ $ $ * e + Q hX0X0X0X0X0X0X0X0X0X0X0XgX0X0XgX0X0X6XgXnXnXnXnXnXnXnXnXnXnXnXnXnXnXnXnXnXnXNX! # $ $ $ $ $ $ * * * * * $ $ * * * * $ $ * $ $ $ + v.jXeXeXeXgXgXeXeXeXeXgXBXNXgX0XeXnXnXBXeXgXBXgXBXlXlXlXgXBXBXBXBXBXBXBXBXBXBXBXBXBXNXBX~.<XNXNX#.j * * * y G.XX{.OX                                      ",
"                                      OXXXJ.XXa.* * * * k 6.NXBXR.<XNXBXBXBXBXBXBXBXBXBXBXBXBXBXBXgXgXgXBXBXgXzXBXNXBX0XeXBXnXBXgXgXgXgXgXgXeXeXeXeXeXeXeXeXeXeXeXeXeXeXeXeXeXeX0X0XgXW # e * * * * * * * * * * * * $ $ $ @ * e # Q hX0X0X0X0X0X0X0X0X0X0X0XgX0X0XgX0X0X0XgXnXnXnXnXnXnXnXnXnXnXnXnXnXnXnXnXnXBXyXe $ $ $ $ $ $ $ $ * * $ * * $ * * * $ $ $ $ $ $ @ @ _.gXeXeXeXgXgXeXeXeXgXeXeXBXnXBXeX0XgXNXBXBXeXgXBXlXlXBXBXBXBXBXBXBXBXBXBXBXBXBXBXBXNXeXR.9XNX=XM 8 * * #  .XXJ.{.|.                                      ",
"                                        OXXXJ.J.g # * * 6 G bXNX^.^.NXNXBXBXBXBXBXBXBXBXBXBXBXBXBXBXgXgXgXBXBXNXBXeX0XBXBXBXgXeXgXgXgXgXgXgXeXeXeXeXeXeXeXeXeXeXeXeXeXeXeXeXeXeXqX0XgXW # e * * * * * * * * * * * * $ @ $ @ * e + Q hX0X0X0X0X0X0X0X0X0X0X0XgX0X0XgX0X0X0XgXnXnXnXnXnXnXnXnXnXnXnXnXnXnXnXnXBXNXv.+ * $ * $ $ * $ * * * * * * * * * $ * $ $ $ $ $ $ u 9XgXeXeXeXgXgXeXeXgXgXgXgXeXgXBXBXBX0X0XBXNXBXlXgXgXBXBXBXBXBXBXBXBXBXBXBXBXBXBXBXBXNX<XR.VXNXs.j e * * * p.XXJ.{.|.                                      ",
"                                          XXJ.XX:.# * * = x S.NX9X~.BXNXBXBXBXBXBXBXBXBXBXBXBXBXBXBXgXgXBXBXBXeX0XgXNXnXBXgXgXgXgXgXgXgXeXgXgXeXeXeXeXeXeXeXeXeXeXeXeXeXeXqXqXeXeXeXgXT # * * * * * * * * * * * * * * * @ $ $ e + ' hX0X0X0X0X0X0X0X0X0X0X0XgX0X0XgX0X0X0XgXnXnXnXnXnXnXnXnXnXnXnXnXnXnXnXnXnXBXQ # * * * $ $ * * * * * * * * * * * * * $ * $ $ $ + T gXeXeXeXeXgXeXeXgXgXgXgXgXgXgXgXzXnXNXgX9XeXBXNXBXlXlXBXBXBXBXBXBXBXBXBXBXBXBXBXBXNXNX^.^.NXbXG 6 * * # s J.J.{.|.                                        ",
"                                          XXJ.J.C.r * * * , X.NXeXR.0XNXBXBXBXBXBXBXBXBXBXBXBXBXBXBXBXnXNXBX0XeXnXNXBXgXgXgXgXgXgXeXgXgXeXeXgXeXeXeXeXeXeXeXeXeXeXeXeXeXeXeXqXqXeXeXgXT # * * * * * * * * * * * * * * * $ $ $ e # Q hX0X0X0X0X0X0X0X0X0X0X0XgX0X0XgX0X0X0XgXnXnXnXnXnXnXnXnXnXnXnXnXnXnXnXnXBX%X* * $ $ * * * * * * * * * * * * * * * $ $ * $ $ * . 9.xXeXeXeXgXeXeXgXgXgXgXeXgXgXeXgXgXgXBXNXBXeX9XlXNXNXBXgXBXBXBXBXBXBXBXBXBXBXBXBXBXNXBXR./.NXS.x - * * # :.XXJ.{.|.                                        ",
"                                          XXXXJ.XX=.# * $ - c I.BX~./.NXBXBXBXBXBXBXBXBXBXBXBXBXBXbXNXBX0XqXBXNXBXlXgXgXgXgXgXgXgXgXgXgXgXeXeXeXeXeXeXeXeXeXeXeXeXeXeXeXeXeXeXqXeXeXgXT # * * * * * * * * * * * * $ $ * $ $ $ e # ' hX0X0X0X0X0X0X0X0X0X0X0XgX0X0XgX0X0X0XgXnXnXnXnXnXnXnXnXnXnXnXnXnXnXnXBXNX>.o * $ $ $ * * * * * * * * * * * * * * * * * * $ $ + m.jXeXeXeXgXeXeXgXgXgXgXeXgXeXeXgXgXzXgXeXBXNXBX0X0XBXNXNXBXBXBXBXBXBXBXBXBXBXBXBXBXNX0XR.eXNXX., * * * y Z.J.J.|.                                          ",
"                                          |.{.J.{.B.= * * * z #.NX/.~.nXNXBXBXBXBXBXBXBXBXBXBXBXNXNXeX9XBXNXnXBXlXlXBXgXgXgXgXgXgXgXeXgXgXeXeXeXgXeXeXeXeXeXeXeXeXeXeXeXeXeXeXeXeXeXgXT # * * * * * * * * $ * * $ $ * * $ $ $ e o _ hX0X0X0X0X0X0X0X0X0X0X0XgX0X0XgX0X0X0XgXnXnXnXnXnXnXnXnXnXnXnXnXnXnXnXNX%Xe * * $ * * * * * * * * * * * * * * * * * * * * $ # a eXgXeXeXgXeXeXeXgXgXeXgXgXgXgXgXgXgXgXzXgXeXBXnXNXBX9XeXBXNXBXBXBXBXBXBXBXBXBXBXBXBXNX<XR.nXoXv - * * # =.XXJ.{.|.                                          ",
"                                            |.{.J.XX/ # e * 4 m oXdXR.gXNXBXBXBXBXBXBXBXBXBXNXNXgX9XeXNXNXBXgXgXBXgXgXgXgXeXeXeXgXeXgXgXeXgXgXeXeXeXeXeXeXeXeXeXeXeXeXeXeXeXeXeXeXeXgXT # * * * * * * * * * * * * * * * $ * * e o Q hX0X0X0X0X0XqX0XqX0X0X0XgX0X0XgX0X0X0XzXnXnXnXnXnXnXnXnXnXnXnXnXnXnXnXNXQ # e * * * * * * * * * * * * * * * * * * * * * * * o ' xXeXeXgXeXeXeXgXgXeXeXeXgXgXgXgXgXlXBXgXgXgXgXgXBXNXNXeX9XeXNXNXBXBXBXBXBXBXBXBXBXNXNX^.^.NX@.j e * * * C.{.J.XX                                            ",
"                                            |.{.J.XXt.# e * e j #.nXQ.9XNXBXBXBXBXBXBXBXNXNXBX0X0XBXNXBXBXlXlXzXBXBXgXgXgXgXgXeXgXgXeXgXeXgXgXgXeXeXgXeXeXeXeXeXeXeXeXeXeXeXeXeXeXeXgXT # * * * * * * * * * * * * * * * * * * e . Q hX0X0X0X0X0X0X0XqX0X0X0XgX0X0XgX0X0X0XzXnXnXnXnXnXnXnXnXnXnXnXnXnXBXNXv.# e * * * * * * * * * * * * * * * * * * * * $ * * * o v.xXeXeXeXeXeXgXgXeXgXeXeXgXgXgXgXlXlXgXBXgXgXgXBXBXBXBXNXnXeX9XBXNXNXBXBXBXBXBXBXBXNXgXR.dX+Xc 4 * e # ) XXJ.XXOX                                            ",
"                                              {.J.J.P.^ * e * 4 M OX>X(.NXbXBXBXBXBXNXNXNXeX0XBXNXNXBXBXBXBXlXgXzXgXlXgXzXgXgXgXgXgXgXgXeXeXgXgXgXgXgXeXeXeXeXeXeXeXeXeXeXeXeXeXeXeXgXT # e * * * * * * * * * * * * * * * * * e o ' jX0XqX0X0X0X0X0X0X0X0X0XgX0X0XgX0X0X0XgXnXnXnXnXnXnXnXnXnXnXnXnXBXNX%Xe $ * * * * * * $ $ * * * * * * * * * * * * * $ $ * + a eXgXeXeXeXeXgXgXgXeXeXgXgXeXeXgXgXgXgXBXlXBXzXgXgXBXBXlXBXnXNXBX0XeXBXNXBXBXBXBXBXBXNX9XR.nX2.j * * e * a.XXJ.XXOX                                            ",
"                                              |.{.J.XXt.# * * * z 2.1XR.BXNXBXBXnXNXNXBX0XgXNXNXBXBXBXBXBXBXBXgXBXBXBXlXBXzXgXgXgXgXgXgXeXeXeXgXgXgXeXeXgXeXeXeXeXeXeXeXeXeXeXeXeXeXgXW # * * * * * * * * * * * * * * * * * * e o ' jX0X0XeXeX0X0X0X0X0XqX0XgX0X0XgX0X0X0XzXnXnXnXnXnXnXnXnXnXnXnXBXNXpXa # e * * * * * * * $ $ * * * * * * * * * * * $ $ $ e o w.xXeXgXeXgXgXgXgXeXgXgXeXeXgXgXgXeXgXeXBXBXBXBXgXlXBXBXBXBXBXBXNXNXBX0XeXNXNXNXBXBXBXNX^.>XOXb 5 * * # / XXJ.{.OX                                              ",
"                                              |.OXXXJ.P.s # * * 8 M M.E.eXNXBXNXNXBX0XeXNXNXbXBXBXBXBXBXBXBXBXgXBXBXBXBXBXBXzXgXgXgXgXgXgXeXeXeXgXgXeXeXeXeXeXeXeXeXeXeXeXeXeXeXeXeXgXW # e * * * * * * * * * * * * * * * * * * + _ hX0XqXeXqX0XqX0X0X0X0X0XgX0X0XzXqX0X0XBXnXnXnXnXnXnXnXnXnXnXBXNXpXI # e $ $ * $ * * * * * * * * * * * * * * * * $ $ * * $ e #XgXeXeXgXgXgXgXgXeXeXeXgXeXgXgXgXgXgXgXgXgXgXgXgXBXBXBXBXBXBXBXBXBXNXNXeX0XBXNXNXBXNXBXY.1X#.j = * * & p.XXJ.{.OX                                              ",
"                                                OXXXJ.XXr.# * * * j ..E.9XNXNXNXeXwXBXNXNXBXBXBXBXBXBXBXBXBXlXBXBXBXBXBXBXBXzXzXgXgXzXeXgXgXgXeXgXgXgXeXeXeXeXeXeXeXeXeXeXeXeXeXgXeXjXW + * * * * * * * * * * * * * * * $ * * * + _ jXeXeXeXeXeXeXqXqX0X0X0XgX0X0XBXeXqX0XBXnXnXnXnXnXnXnXnXnXBXNX%Xa # e $ $ $ $ * * * * * * * * * * * * * * * * * * * * e . ' xXeXgXgXgXgXgXgXgXeXeXeXgXeXBXgXgXgXgXgXgXgXgXgXzXBXBXBXBXBXBXBXBXBXBXNXNXnXeXeXnXNXNXeXE.b.n 5 * e & ( P.J.{.OX                                                ",
"                                                  |.{.J.XX^ & * * 3 B T.<XNXeX0XBXNXNXBXBXBXBXBXBXBXBXBXBXzXBXBXBXBXBXlXgXgXBXzXgXgXlXgXgXgXgXgXgXgXgXgXeXeXeXeXeXeXeXeXeXeXeXeXgXeXjXW + * $ $ * * * * * * * * * * * * * * * * + ' jXeXeXeXeXeXeXeXqXqX0X0XBXqX0XBXqXqX0XBXnXnXnXnXnXnXnXnXBXNXv.e # e $ $ $ $ * $ * * * * * * * * * * * * * * * * $ * * * * #XgXeXeXgXgXgXgXgXgXgXgXgXeXgXBXBXgXBXgXBXBXgXgXeXBXBXBXBXBXBXBXBXBXBXBXBXBXNXNXBXeXeXNX9X>X..k * * * * p.XXJ.XXOX                                                ",
"                                                  OXXXJ.XXp.& * * * z N.>XrXBXNXNXBXBXBXBXBXBXBXBXBXBXBXBXBXBXBXBXBXBXlXgXgXgXgXlXBXlXgXgXeXgXgXgXgXeXgXeXeXeXeXeXeXeXeXeXeXeXgXgXeXxXW # * * $ * * * * * * * * * * * * * * * * # ' jXeXeXeXeXeXeXeXqX0X0X0XBXeX0XBXeXeX0XzXnXnXnXnXBXnXBXNX%X' + @ e $ $ $ $ $ * $ * * * * * * * * * * * * * * * * * * * . &.xXeXgXgXgXgXgXgXgXgXgXgXgXgXgXgXgXlXBXgXBXbXgXgXlXBXBXBXBXBXBXBXBXBXBXBXBXBXBXBXNXNXBX0X^.~.D 3 * * # ) XXJ.J.OX                                                  ",
"                                                    |.{.J.XX/ # * * ; ..>X/.NXNXBXBXBXBXBXBXBXBXBXBXBXBXBXBXBXBXBXBXgXeXeXeXgXgXeXBXgXBXgXeXeXeXeXgXgXeXgXgXeXeXeXeXeXeXeXeXeXgXgXeXxXW # * $ * * * * * * * * * * * * * * * * e . Q jXeXeXeXeXeXeXeXeXeX0X0XgXeX0XzXeXqXqXgXnXnXnXBXNXNX#X>.e # e * * $ * * * * $ $ * * * * * * * * * * * * * * * * * * # t rXgXeXeXgXgXgXgXgXgXgXgXgXgXgXgXgXgXgXlXgXBXNXBXBXlXBXBXBXBXBXBXBXBXBXBXBXBXBXBXBXBXNXNX/.E.i.z * * * * g.P.J.XXOX                                                  ",
"                                                    |.{.J.XXg.* * * * z 1.E.^.NXNXBXBXBXBXBXBXBXBXBXBXBXBXBXBXBXBXlXgXgXgXlXgXgXgXgXgXBXgXgXeXeXgXeXgXgXeXeXeXeXeXeXeXgXeXeXgXeXgXeXxXT # * * * * * * * * * * * * * * * * * * e . Q jXeXeXeXeXeXeXeXeXeXqX0XgXqX0XBXeXeXeXBXnXnXnX#Xi.Q * . $ e * * * * * * * * * * $ * $ * * * * * * * * * * * * * * e o v.xXeXgXgXgXgXgXgXgXeXgXgXgXgXgXgXBXBXgXzXBXNXNXBXlXBXBXBXBXBXBXBXBXBXBXBXBXBXBXBXBXbXNX9XE.z.m 3 * * #  .XXJ.J.XX                                                    ",
"                                                      |.J.J.XX .# * * = c t.:X/.NXNXBXBXBXBXBXBXBXBXBXBXBXBXBXBXBXBXBXlXBXBXBXBXgXgXeXeXgXgXeXeXeXgXgXgXeXeXeXeXeXeXeXeXgXgXgXgXeXeXzXT # * * * * * * * * * * * * * * * * * * e + ' jXeXeXeXeXeXeXqXqXqX0X0XgX0X0XBXeXqXeXgXgXeXgXP X # $ * $ * * * * * * * $ * * * $ * * * * * * * * * * * * * * $ e o ' xXeXgXgXgXgXgXgXgXgXgXgXgXgXgXgXlXlXBXgXgXBXNXNXBXBXBXBXBXBXBXBXBXBXBXBXBXBXBXBXBXNXNX/.R.$XN > $ * * e C.P.P.XXOX                                                    ",
"                                                      |.{.J.J.G.y * * $ 5 M  X^./.NXNXBXBXBXBXBXBXBXBXBXBXBXBXBXBXBXBXlXBXBXBXBXgXgXeXeXgXgXgXeXeXlXgXeXgXgXeXeXgXgXeXeXeXgXgXgXgXeXxXT # * * * * * * * * * * * * * * * * * * * . ' jXeXeXeXeXeXeXeXeXwX0X0XzX0X0XBXeXqXeXeXeXeXfXL # e $ $ $ $ * $ $ * * $ $ $ * * $ $ * * * * * * * * * * $ $ * * # a rXgXeXgXgXgXgXgXgXgXgXgXgXgXgXgXtXBXBXBXgXgXBXNXNXNXBXBXBXBXBXBXBXBXBXBXBXBXBXBXBXNXNX9XY.dX#.j * $ e # :.XXJ.{.OX                                                      ",
"                                                        OXXXJ.XX,.# * $ $ 1 O.BXR./.NXNXBXBXBXBXBXBXBXBXBXBXBXBXBXBXgXlXBXBXBXlXBXzXgXeXgXgXeXeXVXgXgXeXeXgXgXgXgXgXgXgXgXeXgXgXgXeXxX! # * * * * * * * * * * * * * * * $ $ $ * # ' jXeXeXeXeXeXeXeXeXeXeXeXBXqX0XBXeXeXeXeXeXeXgXL # $ $ $ $ $ $ * * $ * * * * * $ $ * $ * * * * * * * * * * $ * * @ _.xXeXgXgXgXgXgXgXgXgXgXgXeXeXeXeXBXgXBXBXBXBXBXNXNXNXBXBXBXBXBXBXBXBXBXBXBXBXBXBXNXNX9XY.dXD.x - $ * + p J.J.J.{.|.                                                      ",
"                                                          XXJ.J.{.s # * $ - x j.jXY./.NXNXBXBXBXBXBXBXBXBXBXBXBXBXBXBXBXBXBXBXBXBXBXBXgXgXgXgXeXlXVXgXgXgXgXgXgXeXgXgXgXgXgXgXgXgXeXxX! # * * * * * * * * * * * * * * * $ $ $ * # Q jXeXeXeXeXeXeXeXeXeXeXeXBXeX0XnXeXeXeXeXeXeXgXP # * $ $ $ $ $ * * * * * * * * $ * * * * * * * * * * * * $ $ * . i.nXeXgXgXgXgXgXgXgXgXgXgXgXeXeXeXgXBXBXgXlXBXBXNXNXNXNXBXBXBXBXBXBXBXBXBXBXBXBXBXNXNX9XY.0XiXN > * * * # t.XXJ.{.|.                                                        ",
"                                                          OX{.J.XXp.& * * * 8 M *XjXR./.NXNXBXBXBXBXBXBXBXBXBXBXBXBXBXBXBXBXBXBXBXBXBXBXgXgXgXgXBXgXlXgXgXgXgXgXgXgXeXgXgXeXgXgXgXeXxX! # * * * * * * * * * * * * * * * $ * * * o Q jXeXeXeXeXeXeXeXeXeXeXeXBXeX0XnXeXeXeXeXeXeXgXP # $ $ $ $ $ $ $ * $ $ * * * * * * * * * * * * * * * * $ * e . &.nXeXgXgXgXgXgXgXgXgXgXgXgXgXeXgXgXgXBXBXBXgXBXBXNXNXNXNXBXBXBXBXBXBXBXBXBXBXBXBXNXNX9XR.9XNX$.j = * * + ) XXJ.{.|.|.                                                        ",
"                                                            OX{.J.XX| o e * * z X.NXgXR./.NXNXBXBXBXBXBXBXBXBXBXBXBXBXBXBXBXBXBXBXBXBXBXBXlXeXgXlXgXlXeXgXgXgXgXgXgXgXgXeXgXgXgXgXeXxX! # * $ * * * * * * * * * * * * * * * * * + Q xXeXeXeXeXeXeXeXeXeXeXeXBXeX0XnXeXeXeXeXeXeXgXY # $ $ $ $ $ * $ * * * * * * * * * * * * * * * * * * $ $ e o ' xXeXeXgXgXgXgXgXgXgXgXgXgXgXgXlXgXgXeXBXBXlXgXBXBXNXNXNXNXNXBXBXBXBXBXBXBXBXBXBXNXNX5XR.9XNXk.x - $ * * y Z.J.J.{.|.                                                          ",
"                                                            |.{.J.J.G.p * * * - x 3.NXeXR./.NXNXBXBXBXBXBXBXBXBXBXBXBXBXBXBXBXBXBXBXgXgXgXgXBXBXeXgXgXeXBXgXgXeXgXgXgXgXgXgXgXgXeXeXnX! # * $ * * * * * * * * * * * * * * * * e # Q jXeXeXeXeXeXeXgXeXeXeXeXBXeX0XnXgXeXeXeXeXeXgXL # $ $ $ $ $ $ * * * * * * * * * * * $ $ $ * * * * $ $ q X ' nXgXeXgXgXgXgXgXgXgXgXgXeXgXeXgXBXlXgXBXgXgXBXBXBXBXNXNXNXNXNXBXBXBXBXBXBXBXBXBXNXNX9XR.9XNX*Xb 5 $ $ * & r.XXJ.XXOX                                                            ",
"                                                              |.{.J.XXp.= * * * 8 c L.NXeXR./.NXNXBXBXBXBXBXBXBXBXBXBXBXBXBXBXBXBXBXBXgXgXgXBXBXeXgXgXgXBXgXzXeXgXgXgXgXgXgXgXgXeXeXBX! + * * $ * * * * * * * * * * * * * * * * + Q xXeXeXeXeXeXeXgXeXeXgXeXBXeX0XnXeXeXeXeXeXeXgXY # $ $ $ $ $ $ * * * * * * * * * * * $ * * * * * $ $ $ . >.xXgXeXgXgXgXgXgXgXgXgXgXgXeXgXgXgXBXBXzXBXgXeXlXBXBXNXNXNXNXNXNXNXBXBXBXBXBXBXBXNXNX<XY.9XNXNXK 1 * $ * # ) XXJ.{.OX                                                              ",
"                                                                OXXXJ.OX-.o e * * 7 N =XNXeXR./.NXNXBXBXBXBXBXBXBXBXBXBXBXBXBXBXBXBXBXlXgXgXgXgXeXgXlXlXBXBXeXeXgXgXgXgXgXgXgXgXeXBXnXT # * * * * * * * * * * * * * * * * * * * # ' xXeXeXeXeXeXeXeXeXeXeXeXBXeX0XnXgXeXeXeXeXeXgXL # * $ $ $ $ $ * * * * * * * * * * * $ $ * * * * * $ + w.BXgXeXgXgXeXgXgXgXgXeXgXzXBXlXgXgXeXBXBXBXBXBXBXNXNXNXNXNXNXNXNXNXNXNXNXNXbXBXBXNXNX<XR.9XNXNX2.x = * * $ y G.J.{.{.|.                                                              ",
"                                                                  XX{.J.J.s # * * e z J NXNXgXR.^.NXNXBXBXBXBXBXBXBXBXBXBXBXBXBXBXBXBXBXBXBXBXlXgXgXBXBXBXBXeXeXgXgXgXgXgXgXgXgXgXBXgX~ # * * * * * * * * * * * * * * * * * * * # ' nXeXeXeXeXeXeXeXeXeXeXeXBXeXeXnXgXeXeXeXeXeXgXY # $ $ $ $ $ $ * $ $ * * * * * * * $ * $ * * * e # e v.jXBXBXgXgXgXeXgXgXgXgXgXgXBXgXBXBXgXBXBXNXNXNXNXNXNXNXNXNXNXNXNXNXNXNXNXNXNXNXNXNXNXeX^.eXNXNXk.x 4 * * * # t.XXJ.{.|.                                                                ",
"                                                                  OXXXJ.P.B.* * e * - x 5.NXNXzXR.^.NXNXBXBXBXBXBXBXBXBXBXBXBXBXBXBXBXBXBXBXgXgXlXBXBXBXgXgXeXeXgXzXeXgXgXgXgXgXBXBXgX! # e * * * * * * * * * * * * * * * * * e # Q nXzXgXgXgXgXgXgXzXgXeXeXBXeXeXnXgXgXgXgXeXeXgXL # $ $ $ $ $ * * * * * $ * * * * * * * * * e * . P #XNXeXeXnXBXgXgXgXgXeXeXeXBXgXzXBXgXBXBXNXNXNXNXNXNXNXNXNXNXNXNXNXNXNXNXNXNXNXNXNXNXNXNXBXNXNXNX+Xb 6 * * e o =.XXJ.J.{.                                                                  ",
"                                                                    OX{.J.XX,.# e * * 8 c S.NXNXgXR.(.NXNXBXBXBXBXBXBXBXBXBXBXBXBXBXBXBXBXBXBXgXBXBXBXBXgXgXgXeXgXgXgXgXgXgXgXBXBXeXjXW # e * * * * * * * * * * * * * * * * * * * u U U U U U U U Y a &.xXeXBXgXeXnXgXgXgXeXeXeXgXL # $ $ $ $ $ * $ * * * * $ * * * * * * * e # $ w.gXzXBXBX0XBXBXgXgXgXgXeXgXgXgXgXgXBXgXgXgXlXBXBXBXNXNXNXNXNXNXNXNXNXNXNXNXNXNXNXNXNXNX0X/.0XNXNXaXC : * * * # ( J.J.J.{.|.                                                                  ",
"                                                                    OXXXJ.J.XX| # e * * 7 b XXNXNXgXR.^.NXNXBXBXBXBXBXBXBXBXBXBXBXBXBXBXBXlXlXBXBXBXBXBXBXeXBXBXBXlXgXgXeXgXgXBXBXwXnXW # e * * * * * * * * * * * * * * * * * * * * # # # # # # # # X T nXeXnXgXeXnXgXgXgXgXeXeXgXL # $ $ $ $ $ $ * $ * $ * * * * * * e e # # W '.nXgXeXeXBXgXeXBXBXlXBXlXzXgXgXgXgXlXlXzXBXBXBXBXBXBXBXBXBXNXNXNXNXNXNXNXNXNXNXNXNXNXNX<XR.0XNXNXNX+.j = $ * * y Z.XXJ.{.|.                                                                    ",
"                                                                      OX{.J.J.J.s # e * * , A iXNXNXzXR.^.NXNXBXBXBXBXBXBXBXBXBXBXBXBXBXBXBXBXlXBXBXBXBXBXBXzXBXBXBXgXgXgXeXBXBXeXzXBX! # e * * * * * * * * * * * * * * * * * * * * * * e e e * * e # Q xXeXBXeXeXnXgXeXgXgXgXeXgXL # $ $ $ $ $ $ $ $ $ * $ * * * e * # # U M.xXxXeXeXgXeXBXBX0XgXNXlXlXzXzXBXgXgXlXBXBXBXBXBXBXBXBXBXBXBXBXBXBXBXNXNXNXNXNXNXBXBXNXNX<XR.eXNXNXNX3.x h * * * & p.XXJ.XX|.                                                                      ",
"                                                                        |.XXJ.XXC.e * * * * z J bXNXNXBXR.^.NXNXBXBXBXBXBXBXBXBXBXBXBXBXBXBXBXlXlXBXzXgXeXgXBXBXBXgXgXeXeXgXBXgXeXBXnXT # * * $ $ * $ * * * * * * * * * * * * * * * * * * * * * * e # Q xXeXBXeXeXnXgXgXgXgXgXeXzXY # $ $ $ $ $ $ $ $ * $ * * * $ . * ! b.zXxXeXeXlXlXgXgXgXBXBX0XnXBXgXgXgXgXgXgXlXBXBXgXgXgXBXBXBXBXBXBXBXBXBXBXBXNXNXNXNXNXBXNXNX/.~.eXNXNXNXd.c 8 * * e # -.XXJ.{.OX                                                                        ",
"                                                                          OX{.J.XXt.# * * * r x O.NXNXNXBXR.^.NXNXBXBXBXBXBXBXBXBXBXBXBXBXBXBXBXBXBXBXzXeXeXlXlXlXgXgXeXeXBXBXeXBXBXnXW # * $ * * * $ * * * * * * * * * * * * * * * * * * * * * * e + Q xXeXnXgXeXnXgXgXgXgXgXeXzXU # $ $ $ $ $ $ $ * $ $ $ # o e ' ].xXxXgXeXgXgXgXgXgXgXgXBXNXeXeXnXgXgXgXgXgXBXBXBXBXgXBXBXBXBXBXBXBXBXBXBXBXBXBXNXNXNXNXnXNXNX/.R.eXNXNXNXk.c 8 * * e # ) P.J.{.|.                                                                          ",
"                                                                            OX{.J.XX:.# * * * - x #.NXNXNXBX~.^.NXNXBXBXBXBXBXBXBXBXBXBXBXBXBXBXBXBXBXBXlXBXBXlXlXlXzXgXgXnXeXeXNXBXnXW # e * e * * e e e e * e e e e e e * * $ * * * * * * * * * e + W xXeXnXgXeXnXgXgXgXgXgXeXzXY # $ $ $ $ $ $ $ * $ $ e ' v.rXnXnXeXeXeXgXlXzXzXgXgXlXzXgXBXBX9XBXBXgXlXBXBXBXBXBXBXBXBXBXBXBXBXBXBXBXBXBXBXBXBXNXNXNXNXNXNX/.R.eXNXNXNXL.n 5 * * e # s J.J.J.{.|.                                                                          ",
"                                                                              XXJ.J.XX .# e * * - x 5.NXNXNXBX~.^.NXNXBXBXBXBXBXBXBXBXBXBXBXBXBXBXBXBXBXBXBXBXBXBXlXlXgXBXBX9XBXBXBXnX! o * # # # # # # # # # # # & # # # # # # # * * * * * * * * * + Q xXeXnXgXeXNXgXeXgXgXgXgXzXP o * * $ $ $ $ $ $ e # N.BXnXzXeXeXgXgXeXgXzXzXgXgXgXgXBXgXBXNXeXeXNXBXBXBXBXBXBXBXBXBXBXBXBXBXBXBXBXBXBXBXBXBXBXNXNXNXNXNX<X~.eXNXNXNXXXb 7 * * e * y Z.{.J.{.|.                                                                            ",
"                                                                              OXXXJ.J.J./ # e * * 8 c 6.NXNXNXBX~.^.NXNXBXBXBXBXBXBXBXBXBXBXBXBXBXBXBXBXBXlXBXBXBXBXlXBXnX0XgXNXgXlXnX[ a I I I I I I I I I I I I I I I I I I I I y $ * * * $ * * * + Q nXeXnXgXeXNXgXgXgXgXgXgXzX' u * * * $ $ $ $ $ e # m.xXeXeXgXgXzXzXzXBXlXgXgXeXeXgXgXgXeXBXNX0XBXNXBXBXBXlXlXBXBXBXBXBXBXBXBXBXBXBXBXBXBXBXBXNXNXNXNX/.Q.gXNXNXNX+XM 7 * * * $ e g.XXJ.{.|.                                                                              ",
"                                                                                OX{.J.J.J.I # * * * 8 v s.NXNXNXBX~.^.NXNXBXBXBXBXBXBXBXBXBXBXBXBXBXBXBXBXBXBXBXBXBXBXNXBX0XNXBXgXgXBXBXBXBXzXBXBXzXBXBXBXBXBXBXBXBXzXzXBXBXBXgXBX%.o e $ $ * $ $ * + Q nXeXnXgXeXNXgXgXgXgXgXgXeXnX'.$ $ * $ $ $ $ $ e + b.nXeXzXgXlXgXBXlXlXgXgXgXeXeXtXgXgXeXBXNXgX0XNXBXBXBXBXBXBXBXBXBXBXBXBXBXBXBXBXBXBXBXBXBXBXNXNX9XR.eXNXNXNX*XM , e * * $ * t.XXJ.{.|.                                                                                ",
"                                                                                |.|.{.J.J.G.p # e * * 8 c 6.NXNXNXBX~.^.NXNXBXBXBXBXBXBXBXBXBXBXBXBXBXBXBXBXBXBXBXBXBXBX9XBXNXzXBXgXzXBXBXBXBXzXBXlXgXlXBXlXBXBXzXgXgXzXBXBXBXeXnX[ o * $ $ $ $ * e + Q nXeXnXgXeXNXgXgXgXgXgXgXeXnX'.* $ $ $ $ $ $ $ $ + b.nXeXzXBXgXgXgXlXBXzXlXgXBXBXBXBXeXeXgXBXNX0XgXNXBXBXBXBXBXBXBXBXBXBXBXBXBXBXBXBXBXBXBXBXNXNXNX^.qXNXNXNX*XC , e * * * # r.XXG.J.OX                                                                                  ",
"                                                                                  |.|.XXJ.P.C.y & e * * 8 c s.NXNXNXBXR.^.NXNXBXBXBXBXBXBXBXBXBXBXBXBXBXBXBXBXBXBXBXNXeXeXNXBXBXBXgXgXBXBXBXBXzXgXgXzXlXlXzXgXgXzXgXzXzXBXgXgXeXnX[ o e $ $ $ * * e + Q nXeXnXgXeXNXzXgXgXgXzXgXeXxX'.* $ $ $ $ $ $ $ * + M.nXeXlXgXgXgXzXzXzXBXgXBXBXBXBXBXeXeXBXlXNXBX0XNXnXBXBXBXBXBXBXBXBXBXBXBXBXBXBXBXBXBXBXNXBXzXNXeXNXNXNX+XC z e * * * # ,.XXJ.J.XXOX                                                                                  ",
"                                                                                      OXXXJ.P.C.y $ e * * 8 c 5.NXNXNXBXR.^.NXNXBXBXBXBXBXBXBXBXBXBXBXBXBXBXBXBXBXNXBX9XBXBXgXlXBXBXgXgXBXzXgXzXBXBXBXBXBXBXgXBXgXgXBXBXgXgXgXeXnX%.. e $ $ * * * e # Q nXeXBXgXeXNXBXgXgXgXgXgXgXnX'.$ $ $ $ $ * $ $ * + b.nXeXlXBXgXgXgXeXgXgXlXgXgXlXBXBXeXgXBXlXBXNXeXeXNXBXBXBXBXBXBXBXBXBXBXBXBXBXBXBXBXBXNXNX^./.NXNXNXNXP.M 7 e * * * # :.XXJ.J.{.OX                                                                                    ",
"                                                                                        XXJ.J.XXC.y & e * * h x 3.NXNXNXBXR.^.NXNXBXBXBXBXBXBXBXBXBXBXBXBXBXBXBXBXNXeXeXNXBXBXBXBXBXBXgXgXgXgXgXBXBXBXBXlXBXgXeXzXzXBXBXgXgXgXeXnX[ # e $ $ $ * * e # Q nXeXBXgXeXNXgXgXeXgXgXzXgXnX'.$ $ $ $ * $ $ $ * + m.nXtXBXBXgXgXeXgXgXgXlXgXgXBXBXBXgXBXBXBXBXNXNX9XnXNXBXBXBXBXBXBXBXBXBXBXBXBXBXBXBXNXNX/.~.eXNXNXNXP.M 7 e * * * # :.XXJ.J.{.|.                                                                                      ",
"                                                                                          XXXXJ.XXC.y # e * * - x @.NXNXNXBX~.^.NXNXBXBXBXBXBXBXBXBXBXBXBXBXBXBXNXBX9XNXBXBXBXBXBXBXBXBXBXBXlXBXzXBXgXgXlXgXgXgXlXeXBXBXgXzXgXeXnX' + e $ $ * * * e # Q nXeXBXgX0XNXgXgXzXzXgXgXgXnX'.$ $ $ $ $ $ $ * * + m.nXtXBXBXBXgXBXBXgXzXlXBXgXgXBXBXBXBXBXBXBXBXNXeX0XNXBXBXBXBXBXBXBXBXBXBXBXBXBXBXNXNX/.R.gXNXNXNXS.b 7 e * e * # <.XXG.J.{.|.                                                                                        ",
"                                                                                          OXOX{.J.P.C.y # e * * - k O.bXNXNXBX~.~.NXNXBXBXBXBXBXBXBXBXBXBXBXBXBXNX0XgXNXBXBXBXBXBXBXBXBXBXBXBXBXlXgXgXgXgXgXeXgXgXgXBXBXBXBXgXtXnX[ + e $ $ * * * e + Q nXeXNXgX0XNXBXgXBXzXgXgXgXnX'.$ $ $ $ $ $ * * * + m.nXlXBXBXBXBXBXBXBXBXgXlXgXgXBXBXBXBXBXBXBXBXBXNX9XBXNXBXBXBXBXBXBXBXBXBXBXBXBXNXNX/.~.gXNXNXNXf.n 7 e * e * & ,.XXJ.J.{.|.                                                                                          ",
"                                                                                            |.|.{.J.XXZ.d # e * * - x K *XNXNXBXR.~.NXNXBXBXBXBXBXBXBXBXBXBXBXNXBX0XNXBXBXBXBXBXBXBXBXBXBXBXBXBXBXBXBXgXgXgXeXeXeXgXlXBXgXBXBXtXnX[ . e $ * $ $ $ e + Q nXlXNXgX0XNXBXlXlXBXgXgXlXnX#X$ $ $ $ $ $ * * e + M.nXtXgXgXgXlXBXBXBXBXgXgXgXBXBXBXBXBXBXBXBXBXBXNXzX9XNXBXBXBXBXBXBXBXBXBXBXBXNXNX^.R.eXNXNXNX3.c 8 * * * * * ,.XXG.J.XXOX                                                                                            ",
"                                                                                                |.XXJ.P.Z.s # e * * r V N L.NXNXBXR.^.NXNXBXBXBXBXBXBXBXBXBXNXNX0XBXNXBXBXBXBXBXBXlXBXBXBXBXBXBXBXBXlXgXgXgXgXgXgXgXBXBXBXBXBXtXnX[ . e $ * $ $ * e + Q nXgXNXgX0XNXBXzXBXBXzXzXBXnX#X$ $ $ $ $ $ * * e + m.nXtXBXgXgXgXBXBXBXBXzXBXBXBXBXBXBXBXBXBXBXBXBXBXNX0XgXNXBXBXBXBXBXBXBXBXBXNXNX^.R.qXNXNXaXX.x h * * e * * y.XXG.J.XXOX                                                                                              ",
"                                                                                                |.OXXXJ.P.G./ # e e * e 7 n f.NXNXBX~.^.NXNXBXBXBXBXBXBXBXBXNXeXeXNXBXBXBXBXBXBXBXBXBXBXBXBXBXBXBXBXBXBXlXlXBXlXBXBXBXBXBXBXgXeXnX' X e $ $ $ $ * e + Q nXBXNXzX0XNXBXgXzXgXzXBXBXnX#X$ $ * * $ * * * e # m.nXtXlXBXlXBXBXlXBXBXBXBXBXBXBXBXBXBXBXBXBXBXBXBXNXBX0XNXBXBXBXBXBXBXBXBXNXNX/.R.eXNXNXoXG j - * * e $ e p.XXJ.J.{.                                                                                                  ",
"                                                                                                    OXXXJ.XXXX .& e * * * 5 c #.bXNXBX^.^.BXNXBXBXBXBXBXBXNXNX9XNXNXBXBXBXBXBXBXBXBXBXBXBXBXBXBXBXBXBXBXBXBXBXBXBXBXBXBXBXzXzXtXnX' . * * * $ $ * e + Q nXBXNXBXqXNXBXgXgXzXBXlXBXnX#Xe $ * * $ * * * e # m.nXpXBXBXBXBXBXBXBXBXBXlXBXBXBXBXBXBXBXBXBXBXBXBXBXNXeXeXNXBXBXBXBXBXBXNXNX/.R.eXNXNXj.b , = * * e # y g.XXG.J.{.|.                                                                                                  ",
"                                                                                                      OXXXJ.J.XX:.& * e * * 4 x J +XNXBX~.^.BXNXBXBXBXBXNXNXeXgXNXBXBXBXBXBXBXBXBXBXBXBXBXBXBXBXBXBXBXBXBXBXBXBXBXBXBXBXBXlXlXeXnX[ . * * * * * * e + Q nXBXNXgX0XNXBXlXgXgXgXgXBXnX#Xq $ * $ $ $ $ * * + m.nXBXBXBXBXBXBXBXBXBXBXBXBXBXBXBXBXBXBXBXBXBXBXBXBXNXNX9XNXNXBXBXBXBXNXNX(.R.eXNXNX3.c 5 * * * * # I Z.J.G.J.{.|.                                                                                                    ",
"                                                                                                        OXXXJ.J.XXy.= & e * * r z M k.NXnX~.~.BXNXBXBXBXNXBX0XNXBXBXBXBXBXBXBXBXBXBXBXBXBXBXBXBXBXBXBXBXBXBXBXBXBXBXBXBXBXBXBXtXBX%.o * $ * * * * e + Q nXBXNXgX0XNXBXBXgXBXzXBXBXnX#X$ * * $ $ $ $ $ e + m.nXBXBXBXBXBXBXBXBXBXBXBXBXBXBXBXBXBXBXBXBXBXBXBXBXBXNXgXeXNXBXBXBXNXNX/.Y.eXNX+XK x 4 * * * * #  .J.J.J.{.{.|.                                                                                                      ",
"                                                                                                          |.{.{.J.XXC.d & e * * = 6 c @.aXBX~.^.BXNXBXNXNXeXBXNXBXBXBXBXBXBXBXBXBXBXBXBXBXBXBXBXBXBXBXBXBXBXBXBXBXBXBXBXBXBXBXtXBX%.# * $ $ $ * * * + Q nXBXNXgX0XNXBXBXBXBXBXBXBXnX#X$ $ * $ $ * * $ * + m.BXBXBXBXBXBXBXBXBXBXBXBXBXBXBXBXBXBXBXBXBXBXBXBXBXBXNXNX0XBXNXBXNXNX/.Y.gXNXj.v 2 r * * e * * ,.XXJ.G.{.OX                                                                                                          ",
"                                                                                                            |.OXXXJ.XXG.) & * * * $ - k G L.NX,X~.BXNXNXBXeXNXBXBXBXBXBXBXBXBXBXBXBXBXBXBXBXBXBXBXBXBXBXBXBXBXBXBXBXBXBXBXBXBXtXBX%.# * $ $ * * * e + Q nXBXNXBX0XNXBXBXBXBXBXBXBXnX#X$ $ * $ $ $ * * * # m.BXBXBXBXBXBXBXBXBXBXBXBXBXBXBXBXBXBXBXBXBXBXBXBXBXBXBXNXBX0XNXNXNX/.R.jXiXO.x 5 e * * e # y p.XXJ.J.{.XX                                                                                                            ",
"                                                                                                                XXXXJ.{.XX:.* $ * * * e 7 v 3.sX>XQ.BXNX9XBXNXBXBXBXBXBXBXBXBXBXBXBXBXBXBXBXBXBXBXBXBXBXBXBXBXBXBXBXBXBXBXBXBXBXBX[ + e $ $ * * * e + Q BXBXNXBX0XNXBXBXBXBXBXBXBXnX#Xe $ $ * * * * * e # m.BXBXBXBXBXBXBXBXBXBXBXBXBXBXBXBXBXBXBXBXBXBXBXBXBXBXBXBXNXwXBXNX(.R.gXk.M j 4 * * * $ # ^ Z.XXJ.J.{.|.                                                                                                              ",
"                                                                                                                  OXXX{.J.XXp.y o * * * * r j S A.^.^.9XeXNXNXNXBXBXBXBXBXBXBXBXBXBXBXBXBXBXBXBXBXBXBXBXBXBXBXBXBXBXBXBXBXBXBXBXBX' X $ # # # # # @ X Q NXBXNXBX0XNXBXBXBXBXBXBXBXnX%X$ + + # # # # # $ . m.BXBXBXBXBXBXBXBXBXBXBXBXBXBXBXBXBXBXBXBXBXBXBXBXBXBXNXNXNXBX9X/.E.'.@.x 6 = * * e # * :.P.J.J.{.{.|.                                                                                                                ",
"                                                                                                                    OXOXXXJ.XXZ. .& * e * * * 5 c $.T.>X^./.eXBXNXNXNXNXNXBXBXBXBXBXBXBXBXBXBXBXBXBXBXBXBXBXBXBXBXBXBXBXBXBXBXBXBX>.e a t t t t t a e ' NXBXNXgXeXNXBXBXBXBXBXBXBXnX#Xu u u u u t t t a e m.BXBXBXBXBXBXBXBXBXBXBXBXBXBXBXBXBXBXBXBXBXBXNXNXNXNXNXBXCX~.>X>Xy.Z j - * * * * # p a.XXJ.J.{.{.|.                                                                                                                  ",
"                                                                                                                        OX{.J.J.XXr.y & e * * * = j S <.T.>XR.R.^.9XeXBXNXNXNXNXBXBXBXBXBXBXBXBXBXBXBXBXBXBXBXBXBXBXBXBXBXBXBXBXBXBXpXpXpXpXpXpXpXpXpXpXBXBXNXgXeXNXBXBXBXBXBXBXBXBXBXtXpXpXpXpXpXpXpXpXpXBXBXBXBXBXBXBXBXBXBXBXBXBXBXBXBXBXBXBXBXNXNXNXNXBX0X/.~.R.E.Q.b...c 5 * * * e # #  .J.XXJ.{.{.{.|.                                                                                                                    ",
"                                                                                                                        |.OXXXJ.J.OXZ./ # $ * * * * 5 x C 5.%XdX/.Q.R.~./.9XgXNXNXNXNXNXBXBXBXBXBXBXBXBXBXBXBXBXBXBXBXBXBXBXBXBXBXBXBXnXBXBXBXBXBXBXnXBXBXBXNXlXeXNXBXBXBXBXBXBXBXBXBXnXnXnXBXBXBXBXBXBXBXBXBXBXBXBXBXBXBXBXBXBXBXBXBXBXBXNXNXNXNXBXeX<X^.R.Y.Q.1X0Xg.J v , - * * * * + y t.XXJ.J.{.{.OX                                                                                                                        ",
"                                                                                                                            OXXXXXJ.J.P.r.y o * * * * = 9 x F j.bXnXeX`.^.~.R.^./.0XBXNXNXNXNXNXBXBXBXBXBXBXBXBXBXBXBXBXBXBXBXBXBXBXBXBXBXBXBXBXBXBXBXBXBXBXNXBXqXNXBXBXBXBXBXBXBXBXBXBXBXBXBXBXBXBXBXBXBXBXBXBXBXBXBXBXBXBXBXBXBXNXNXNXNXNXgX9X/.~.R.R./.9XjXNXI.+.c , - e * * * # * =.G.XXJ.J.{.|.|.                                                                                                                          ",
"                                                                                                                                OXXXJ.G.XXZ. .* # * * * = - 6 k G j.bXNXNXBXeX<X^.~.Q.^.<XeXBXNXNXNXNXbXBXBXBXBXBXBXBXBXBXBXBXBXBXBXBXBXBXBXBXBXBXBXBXBXBXBXNXBX0XNXBXBXBXBXBXBXBXBXBXBXBXBXBXBXBXBXBXBXBXBXBXBXBXBXBXBXBXbXNXNXNXNXBX0X/.Q.R.R.^.9XeXBXNXNXI.O.c , - e * * e * # s g.OXP.J.{.{.|.|.                                                                                                                            ",
"                                                                                                                                  OXXXJ.J.J.XXa.^ o # * = = * = 6 k F f.iXNXNXNXbXgX0X/.^.R.R.^.9XeXBXNXNXNXNXBXBXBXBXBXBXBXBXBXBXBXBXBXBXBXBXBXBXBXBXBXBXBXNXlX0XNXBXBXBXBXBXBXBXBXBXBXBXBXBXBXBXBXBXBXBXBXBXBXBXBXNXNXNXNXBXeX<X^.R.R.~.<XeXBXNXNXNXNXS.+.c z - e * * e * # y ,.P.XXJ.{.{.|.|.                                                                                                                                ",
"                                                                                                                                    OX{.{.{.J.XXP.r.p # * = * * = - 6 k A 5.*XNXNXNXNXNXNXeX9X^.R.R.~./.0XBXNXNXNXNXBXBXBXBXBXBXBXBXBXBXBXBXBXBXBXBXBXBXBXBXNXBXeXNXBXBXBXBXBXBXBXBXBXBXBXBXBXBXBXBXBXBXBXBXNXNXNXNXNXgX9X^.R.R.~./.9XBXNXNXNXNXNXiXk.J c : - * * * e * # e =.G.XXJ.J.XXOX|.                                                                                                                                    ",
"                                                                                                                                        OX{.{.J.J.XXJ.:.y % * = - * * = 8 z N @.D.bXNXNXNXNXNXNXBXeX<X^.R.R.^.<XeXBXNXNXNXNXBXBXBXBXBXBXBXBXBXBXBXBXBXBXBXBXNXBXeXNXBXBXBXBXBXBXBXBXBXBXBXBXBXBXBXBXNXNXNXNXNXBX0X/.~.R.~.^.9XgXNXNXNXNXNXNXNX+X2.N x 7 r * * * e * # * ) C.XXJ.J.{.XXOX                                                                                                                                        ",
"                                                                                                                                          OXOXXXXXJ.J.XXG.-.r # & * * * * e - , c K d.+XNXNXNXNXNXNXNXNXBX0X/.~.R.R.^.9XgXnXNXNXNXNXBXBXBXBXBXBXBXBXBXBXBXBXNXBXeXNXnXnXBXBXBXBXbXBXBXBXBXBXnXNXNXNXNXBXeX<X~.R.R.^.9XeXBXNXNXNXNXNXNXNXiXk.O.M j 5 = * * * * * # * / g.XXP.J.{.{.|.|.                                                                                                                                          ",
"                                                                                                                                              OXOXXXJ.J.J.XXG.:.y o # * * * * * - 7 k M O.j.=XNXNXNXNXNXNXNXNXnXeX5X^.R.R.~./.0XBXNXNXNXNXBXBXBXBXBXBXBXBXBXNXBXeXNXnXBXBXBXBXBXBXBXBXNXNXNXNXnXgX9X^.R.R.~./.0XBXNXNXNXNXNXNXNXNXaXL.2.C c , 8 e * * * e * # * / g.XXP.J.J.{.{.|.                                                                                                                                              ",
"                                                                                                                                                  OX{.{.{.J.J.XXG.,.s # # * * = * * = 4 , x N O.d.+XbXNXNXNXNXNXNXNXNXBXeX<X~.R.R.^.9XeXnXNXNXNXNXBXBXBXBXBXNXBXeXNXBXBXBXBXBXNXNXNXNXNXBX0X/.~.R.R.^.9XgXNXNXNXNXNXNXNXNXNXiXS.2.A v j 5 = * * * * * $ # e  .g.P.XXJ.J.{.XXOX|.                                                                                                                                                ",
"                                                                                                                                                      OX|.{.J.J.J.XXJ.y.^ & # * = * * * * e 8 , k m K 3.D.=XNXNXNXNXNXNXNXNXbXeX9X/.~.R.~./.9XBXNXNXNXNXNXBXNXBXeXNXBXNXNXNXNXNXBXeX<X^.~.R.^.<XeXBXNXNXNXNXNXNXNXNXbX+Xf.@.N v z 5 - * * * * * * & & y -.C.XXXXJ.J.XXXXOX                                                                                                                                                      ",
"                                                                                                                                                          |.|.XXXXJ.J.XXP.g.| y & # * e * * * * e - 7 z v N +.5.S.*XbXNXNXNXNXNXNXNXBXeX9X~.R.R.~./.0XBXNXNXNXBXeXNXNXNXBXeX<X^.R.R.~./.eXBXNXNXNXNXNXNXNXNXaXoXj.#.F b k , 8 - * $ * * * * # # * / y.J.XX{.J.{.XXOXOX                                                                                                                                                          ",
"                                                                                                                                                              OXOXXX{.J.J.XXXXZ.,.( = # & * e e * * e e r 8 7 x c M K @.d.D.+XaXNXNXNXNXNXNXnXgX<X~.R.R.~.`.rX9X9XpX9X/.R.Y.R./.0XzXNXNXNXNXNXNXNXiX+Xk.5.O.G b k z 7 4 e * * * * * * $ # & p -.g.XXXXJ.J.{.{.OX                                                                                                                                                                ",
"                                                                                                                                                                  |.{.{.{.J.J.J.XXP.C.:.^ * # & * e e * * * * = - 4 6 , z m N F X.#.5.j.D.oX*XiXaXaXeX0X<XE.E.>X^.:X>X>X<XeXBXbXbXiX*XI.S.f.5.@.J A m x j , 5 - - * * * * * * * * # # y  .t.J.OXXXJ.J.XXOXOXOX                                                                                                                                                                  ",
"                                                                                                                                                                    |.|.|.{.{.J.J.J.XXXXJ.B.-.s e # # * * e * * * * * * e r - 8 7 , j k x v m N A K J +.O.o.1.i.z.<...O.O.+.X.J S N m v x z z , 6 5 - = * * * * * * * * * & # * p  .p.G.XXXXJ.J.{.{.{.OX                                                                                                                                                                        ",
"                                                                                                                                                                          OXOXXXXXXXJ.J.J.XXXXJ.C.,.) y * # & * * * = * * * * * e e e e = - - 3 5 5 0 0 , , z z V z z , 0 0 0 5 5 ; - - * * e e e * * * * * * * * # # & r ( -.g.J.XXXX{.J.J.J.{.|.|.                                                                                                                                                                            ",
"                                                                                                                                                                                  OXOXXX{.J.J.J.J.XXXXG.a.:./ y * & & & * * e e e e e * * * * * * * * * * * e * * e e e * * * * * * * * * * * e e e * * * & # & r s =.t.Z.P.XXXXJ.J.{.XXXX|.|.|.                                                                                                                                                                                ",
"                                                                                                                                                                                        |.|.{.{.J.J.J.J.XXOXXXG.g.r.=.^ y e * # # & * * * * = = e e e = * * * * * = = = * * * * * = = * * * $ # # # * r s  .:.p.Z.J.XXXXJ.J.J.J.{.XXOXOXOX                                                                                                                                                                                      ",
"                                                                                                                                                                                            |.|.|.XXXXXX{.J.J.{.XXXXOXXXG.B.t.:. .( d y e * & & # # & & & & & & & & # # # # # # & & = = e p s ) -.r.p.C.P.XXXXXX{.J.J.J.J.{.XXOXOX                                                                                                                                                                                              ",
"                                                                                                                                                                                                    OXOX|.{.{.{.XXP.J.P.J.XXXXXXXXXXJ.G.C.g.t.,.:.-.=. .) / / / / / / ) )  .=.:.,.r.p.g.Z.G.P.XXOXOXXX{.J.J.J.J.{.{.XXXXOXOX                                                                                                                                                                                                    ",
"                                                                                                                                                                                                            OXOXOXOXXXXXXX{.J.J.J.J.J.J.XXXXXXXXXXXXXXXXXXXXXXXXXXXXXXXXXXXXXXXXXXXXXXXXXXJ.J.J.J.{.{.{.{.{.{.|.|.OX                                                                                                                                                                                                            ",
"                                                                                                                                                                                                                    OXOXOXOX|.|.{.{.{.{.{.J.J.J.J.J.J.J.J.J.J.J.J.J.J.J.J.J.J.J.J.J.J.J.XXXXXXXXOXOX|.|.|.                                                                                                                                                                                                                      ",
"                                                                                                                                                                                                                                |.|.|.|.OXOXOXOXOXXX{.{.{.{.{.{.XXXXXXXXXXXX{.{.{.{.{.|.OX                                                                                                                                                                                                                                      ",
"                                                                                                                                                                                                                                                      |.  |.  |.OXOXOXOX  OX|.  |.                                                                                                                                                                                                                                              ",
"                                                                                                                                                                                                                                                                                                                                                                                                                                                                                                                                ",
"                                                                                                                                                                                                                                                                                                                                                                                                                                                                                                                                ",
"                                                                                                                                                                                                                                                                                                                                                                                                                                                                                                                                ",
"                                                                                                                                                                                                                                                                                                                                                                                                                                                                                                                                ",
"                                                                                                                                                                                                                                                                                                                                                                                                                                                                                                                                ",
"                                                                                                                                                                                                                                                                                                                                                                                                                                                                                                                                ",
"                                                                                                                                                                                                                                                                                                                                                                                                                                                                                                                                ",
"                                                                                                                                                                                                                                                                                                                                                                                                                                                                                                                                ",
"                                                                                                                                                                                                                                                                                                                                                                                                                                                                                                                                ",
"                                                                                                                                                                                                                                                                                                                                                                                                                                                                                                                                ",
"                                                                                                                                                                                                                                                                                                                                                                                                                                                                                                                                ",
"                                                                                                                                                                                                                                                                                                                                                                                                                                                                                                                                ",
"                                                                                                                                                                                                                                                                                                                                                                                                                                                                                                                                ",
"                                                                                                                                                                                                                                                                                                                                                                                                                                                                                                                                ",
"                                                                                                                                                                                                                                                                                                                                                                                                                                                                                                                                ",
"                                                                                                                                                                                                                                                                                                                                                                                                                                                                                                                                ",
"                                                                                                                                                                                                                                                                                                                                                                                                                                                                                                                                "
};
