/* XPM */
static char *bitcoin128[] = {
/* columns rows colors chars-per-pixel */
"128 128 231 2 ",
"   c None",
".  c #CD9502",
"X  c #CF990D",
"o  c #D19B0E",
"O  c #D19805",
"+  c #CF9A13",
"@  c #CF9C1A",
"#  c #CD9714",
"$  c #D19C13",
"%  c #D19F1C",
"&  c #D6A10D",
"*  c #DAA50C",
"=  c #DEA90B",
"-  c #DAA303",
";  c #D6A214",
":  c #D9A513",
">  c #DDA911",
",  c #D2A01D",
"<  c #D8A51B",
"1  c #E1AD0A",
"2  c #E3AE05",
"3  c #E5B30D",
"4  c #EBBC0B",
"5  c #E8B70A",
"6  c #EABC13",
"7  c #ECBE18",
"8  c #E5B615",
"9  c #E1AD10",
"0  c #D3A221",
"q  c #D9A723",
"w  c #D4A52A",
"e  c #D7A92D",
"r  c #DAAB2C",
"t  c #D9A927",
"y  c #D5A935",
"u  c #DBAD34",
"i  c #D6AD3E",
"p  c #D5A630",
"a  c #DDB136",
"s  c #DDB23B",
"d  c #E0B53F",
"f  c #E5BA28",
"g  c #EEC215",
"h  c #EEC31C",
"j  c #F1C314",
"k  c #F0C61A",
"l  c #F3CA1D",
"z  c #EEC10E",
"x  c #EFC724",
"c  c #F3CB23",
"v  c #F4CD2C",
"b  c #F1C724",
"n  c #F7D22A",
"m  c #ECC835",
"M  c #F3CE33",
"N  c #F6D234",
"B  c #F9D435",
"V  c #F5D33C",
"C  c #F9D739",
"Z  c #D5AD42",
"A  c #D7AF48",
"S  c #DBB244",
"D  c #DAB24A",
"F  c #D8B24A",
"G  c #DAB655",
"H  c #DCB95E",
"J  c #D7B559",
"K  c #E1B643",
"L  c #E1B846",
"P  c #E2BA4B",
"I  c #E0B749",
"U  c #E4BE54",
"Y  c #E5BF59",
"T  c #DDBB63",
"R  c #DCBC6A",
"E  c #D7B867",
"W  c #FAD943",
"Q  c #FBDC4C",
"!  c #F6D546",
"~  c #E6C155",
"^  c #E6C25C",
"/  c #E8C35E",
"(  c #E4CA58",
")  c #FADC53",
"_  c #F7DA5A",
"`  c #EACF57",
"'  c #FEE154",
"]  c #FCE15D",
"[  c #FFE14F",
"{  c #DEC173",
"}  c #DEC27B",
"|  c #E7C462",
" . c #E9C663",
".. c #EBCA6C",
"X. c #E9C967",
"o. c #E1C373",
"O. c #EDCD74",
"+. c #E0C47C",
"@. c #EECF79",
"#. c #E2CF70",
"$. c #EFD17B",
"%. c #E8D278",
"&. c #F0D37B",
"*. c #F2D864",
"=. c #FDE264",
"-. c #FDE56A",
";. c #FCE76D",
":. c #FDE673",
">. c #FFE874",
",. c #FFEB7D",
"<. c #F8E377",
"1. c #DCC684",
"2. c #DBCB9E",
"3. c #D7C599",
"4. c #DFD39E",
"5. c #E4CC8C",
"6. c #E2C885",
"7. c #E5D78A",
"8. c #F1D583",
"9. c #F3D98C",
"0. c #F2D788",
"q. c #E3CD94",
"w. c #E1CE9A",
"e. c #E4D097",
"r. c #E5D19D",
"t. c #EAD99A",
"y. c #F5DC93",
"u. c #F6DE99",
"i. c #FFEC82",
"p. c #FEED89",
"a. c #F5E58B",
"s. c #FFF18B",
"d. c #F6E19C",
"f. c #FAE79A",
"g. c #FFF294",
"h. c #FFF49C",
"j. c #EDE090",
"k. c #DDCDA1",
"l. c #D9CBA5",
"z. c #DACEB4",
"x. c #DDD4B5",
"c. c #DFD7A7",
"v. c #E0CFA2",
"b. c #E3D2A3",
"n. c #E5D5AD",
"m. c #EAD9AD",
"M. c #E7D7A8",
"N. c #EADAB2",
"B. c #E6D9BA",
"V. c #E9DCBB",
"C. c #E3D5B2",
"Z. c #F1DFAF",
"A. c #F9E4A4",
"S. c #FAE7AB",
"D. c #FBE8AD",
"F. c #F7E7A8",
"G. c #FFF6AB",
"H. c #FFF6A8",
"J. c #FCEBB4",
"K. c #FDEEBC",
"L. c #F4EDB9",
"P. c #FFF7B3",
"I. c #FFF9B3",
"U. c #FEF1BD",
"Y. c #FFFBBC",
"T. c #EFE7A9",
"R. c #DDDACB",
"E. c #DAD6C7",
"W. c #DEDBD4",
"Q. c #DBDBDC",
"!. c #D6D5DA",
"~. c #E2DCC8",
"^. c #E3DFD6",
"/. c #DFE0DA",
"(. c #ECE3CD",
"). c #EAE5C5",
"_. c #FCEEC4",
"`. c #FAEEC9",
"'. c #F3E9CA",
"]. c #FEF1C5",
"[. c #FFFBC4",
"{. c #FEF2CA",
"}. c #FFFCCA",
"|. c #ECE5D2",
" X c #EBE8DA",
".X c #F3EBD5",
"XX c #FAF2D4",
"oX c #FFFED5",
"OX c #F4F1DD",
"+X c #FAF4DC",
"@X c #FFFDDB",
"#X c #D6D9E3",
"$X c #DBDDE5",
"%X c #DBDDEB",
"&X c #D6D8E7",
"*X c #DBDEF1",
"=X c #D7DDF2",
"-X c #E0DFE1",
";X c #DEE0E7",
":X c #DEE1EA",
">X c #DEE2F4",
",X c #DEE5F9",
"<X c #E3E3E5",
"1X c #E4E5EB",
"2X c #E7E8ED",
"3X c #EBEBEE",
"4X c #EAE8E8",
"5X c #F2EEE4",
"6X c #F0EFEE",
"7X c #F5F1E4",
"8X c #FFFFE4",
"9X c #F2F1EE",
"0X c #FEFEEB",
"qX c #E3E6F4",
"wX c #E6E8F5",
"eX c #EEEEF1",
"rX c #E3E6F9",
"tX c #E5EAFA",
"yX c #EAEDFB",
"uX c #F0EFF1",
"iX c #EFF0F2",
"pX c #EEF1FD",
"aX c #F3F3F4",
"sX c #F8F7F6",
"dX c #FBFBF5",
"fX c #F5F6FB",
"gX c #F8F7F9",
"hX c #F6F9FF",
"jX c #FFFFFF",
"kX c #FBFBFB",
"lX c #F7F8F7",
/* pixels */
"                                                                                                                                                                                                                                                                ",
"                                                                                                                                                                                                                                                                ",
"                                                                                                                                                                                                                                                                ",
"                                                                                                                            ].]._._._.                                                                                                                          ",
"                                                                                                              _._._._.].].].].].]._._.].]._._._._._.].                                                                                                          ",
"                                                                                                    _._.].].{.].].].K.K.J.D.F.F.A.A.F.D.J.K.].].].].].]._._._.{.                                                                                                ",
"                                                                                            _._._.].{.].K.A.0.O.X.U S u r e q q q q w e u s P / O.0.A.J.].].]._._._._.                                                                                          ",
"                                                                                        _.].{.].K.d.@.U a q < $ $ $ o o & * * * = = * & o o o $ + $ q u P ..y.J.].].K.K._.                                                                                      ",
"                                                                                  _._.{.{.K.y./ a < $ $ o * = 3 7 b N Q _ _ *.%.7.` *.] Q C v 7 3 = & o + + < r U 8.D.].]._._.].                                                                                ",
"                                                                              _._.].].d.X.a < $ $ * 3 7 M _ p.I.oX8X9X3X:X%XqXwXqX>X%X:XyXaX0X@XY.f.=.V h 3 * o $ $ r ~ 0.K.]._._.{.                                                                            ",
"                                                                          _._.].K.8.L q $ $ * 8 M -.H.@XjXjXhXyX1X$X$X4X6XdXjXaXaXjXdXaX4X$X$X%XyXfXjXjX8XP.>.N 6 1 ; $ < a O.D.]._._.`.                                                                        ",
"                                                                      ]._.].K.&.a % $ * 3 v >.[.jXjXhXyX4XQ.Q.4X3XaXjXjXjXaXaXaXaXjXaXjXjXjXsX3X4XQ.Q.4XyXhXjXjXoXi.V 3 * $ $ r X.D.]._._.                                                                      ",
"                                                                  {._.].K.8.a % $ * 6 ' I.dXjXpX1XQ.Q.4X3XaXjXjXjXdXaXaXaXaXjXaXaXjXaXaXaXaXaXjXjXjXaX3X4XQ.Q.1XfXjXjX[.=.j = $ + t ..J.]._._.                                                                  ",
"                                                                _._.].y.K % % 9 l ;.}.fXtX$XQ.Q.1XaXjXjXjXjXaXaXaXaXaXaXaXaXaXaXaXjXaXaXaXaXaXaXaXaXaXjXjXjXaX3X$XQ.$XwXfX@X,.l 1 $ $ r 8.].].K.`.                                                              ",
"                                                            {._.].J./ < $ > h -.).qX%XQ.4XaXjXjXjXdXaXaXaXaXaXaXfXjXjXjXhXhXaXaXaXdXaXaXaXhXhXhXjXjXhXaXaXaXdXjXjXhXyX4XQ.$X>X|.<.k = $ $ P A.].K._.                                                            ",
"                                                          _._.].0.r $ ; 6 #.E.%XqX3XsXjXjXjXaXaXaXaXaXaXaXaXaXfX5XM.m.m.m.V.aXaXaXaXaXaXfX(.b.m.m.b.).fXaXaXaXaXaXaXjXjXjXaX3X1X%XE.#.6 : $ < @.U.K._.                                                          ",
"                                                        ].].J.X.< < 1 N n.qXfXdXjXjXaXaXaXaXaXaXaXaXaXaXaXaXaXhXm.. + $ . y aXaXaXaXaXaXhX{ . $ $ . H hX9XaXaXaXaXaXaXaXaXaXjXjXjXfX>Xn.B 2 % $ P D.].K.                                                        ",
"                                                      _.].D.K + < 4 -.Q.yXjX3XjXaXaXaXaXaXaXaXaXaXaXaXaXaXaXaXhXV.$ q < $ S aXaXaXaXaXaXhX+.X q q + R hXaXaXaXaXaXaXaXaXaXaXaXaXjXaXjXwXQ.i.4 ; $ r y.].K.                                                      ",
"                                                    _.]._.u $ : l H.*X3XjXdXaXaXlXaXaXaXaXaXaXaXaXaXaXaXaXaXaXfXV.$ < < $ i aXaXaXaXaXaXhX+.X < < X R fXaXaXaXaXaXaXaXaXaXaXaXjXaXaXaXjX1X%X[.B = % < $.]._._.                                                  ",
"                                                  _.].O.'.i - Q 8X*X4XjXaXaXjXyXgXaXaXaXaXaXaXaXaXaXaXaXaXaX9XfXV.$ % < $ i aXaXaXaXaX9XhX+.X < < X T fX9XaXaXaXaXaXaXaXaXaXaXaXyXjXaXaXjX5X%XdX' 2 < ; / K._._.                                                ",
"                                              `._.].X.q jX*.] jX%X3XjXaXaXaXaXaXaXdXaXaXaXaXaXaXaXaXaXaXaXaXuXfXN.+ < < $ i aXaXaXaXaX6XfX} X % < X R fXuXaXaXaXaXaXaXaXaXaXaXaXfXaXaXaXaXjX3X$XjXs.6 % q ~ J.].].                                              ",
"                                              _.].X.. G jX0XjX$X3XjXaXaXaXaXaXjXaXaXaXaXaXaXaXaXaXaXaXaXuXiX9XfXn.+ % < $ i aXaXaXaXiX6XfX} X < < X R fXyXyXaXaXaXaXaXaXaXaXaXaXaXaXaXaXaXaXjX3XQ.jXI.5 ~ r d K._._.                                            ",
"                                            _.]./ $ o 0.jXjX-X3XjXaXaXaXaXaXaXaXaXyXaXaXaXaXaXaXaX9X9X6X3X3X3XfXn.+ < < $ i aXaXaXaX3X3XfX} X < < X R fX3XiXiXyXaXaXaXaXaXaXyXjXaXaXaXaXaXaXaXjX3XQ.jX[.f.U o K J._._.                                          ",
"                                          _.{.X.$ ; j @XjXjXuXjXaXaXaXaXaXaXaXaXaXaXaXaXaXaXfXfXfXfXfXfXiXpXiXfXB.+ % < $ Z aXaXaXaXpXiXfX} X % < X R fX3XyXiXyXyXuXaXyXaXyXaXaXaXaXaXaXaXaXaXaXjX3XQ.jX@X_ * % K J._.].                                        ",
"                                        _.K.X.O < v }.jXjXjXjXaXaXaXaXaXaXaXaXaXaXaXyXaXiX5X(.(.|.|.|.(.|.|.(. Xw.+ < < $ Z yXyXaX3X(.|.fX+.X < < o T fX3XyXyXyXyXyX6X9XaX3XaXaXaXaXaXaXaXaXaXaXaXjX3XW.].].B : $ P U._.                                        ",
"                                      _.{.J.o.Z.XXdXjXjXjXjXjXjXjXjXjXaXaXaXaXaXaXaXaX3XhXb.+ < % @ < < % q q , % @ % < $ Z yXyXfXV.$ q y y @ % < X T fX3XyXyXyXyXyX3XaX3XaXaXaXaXaXaXaXaXaXaXaXaXaXjX7XU.XX@Xb ; $ / ]._.                                      ",
"                                    _.].S.t.+XdXjXjXjXjXjXjXjXjXjXjXjXjXaXaXaXaX9X6XaX3XhXv.X < @ @ % % % < @ % % q < q % Z yXyXfXB.$ % $ $ % % < X T fXyX3XyXyX3X3X3XaXyXaXyXuX9XaXaXaXaXaXaXaXaXaXfX+X].U.jX@Xj < $ O.]._.                                    ",
"                                  ]._.J.r o 2 i.jX3XjXjXjXjXjXjXaXaXaXaXaXaXaXuX6X6X9XaXpXb.o q @ @ < < < < @ < % + + + X y yXyXfXB.$ % < < % % % % < o.5XfX3XyX3X3XaX3XaXyXyXyX6X9XaXaXaXaXaXaXaXaXaX{.].].|.fXY.4 < < y.]._.                                  ",
"                                  _.U.P % > ' jX4X4XjXjXjXjXaXaXaXaXaXaXaXuXyXyXyXyX3XaXpXb.+ q % < < < < < < % w J H H G { 3X3XpXB.$ < % % % % % % % X y B.pX3X3XaXyXaXaX3X3X3X3X3XaXaXaXaXaXaXaXfX9X].].]..XQ.jXs.2 % r D.K._.                                ",
"                                _.].O.$ < B dX1X4XjXaXjXjXjXaXaXaXaXaXaXaXaXyX3XyXyX3X3XfXb.+ , < < < < < < < + Z pXpXpXpXiX3X3XpXB.$ < % % % % % % % q $ $ r.pX3XaXyXaX3X3X3X3X3XyX6XaXaXaXaXaXaX9X+X].].].{.7XQ.fX-.= $ D ]._.`.                              ",
"                              _.].d.q % j oXqX4XjXaXaXaXjXjXaXaXaXaXaXaXaXuX3X3XyXyXyX3XfXM.+ , % < < < < < < $ Z yX3X3X3X3X3X3XpXB.$ < % % % % % % % % < < o 5.fX3XaXyX3X3X3X3XyXyXyXyXaX9XOXXX{.].].].].].].]._..X@X) r $ $.]._.                              ",
"                              _.K.K % 3 g.>X4XjXaXaXaXaXjXjXaXaXaXaXaXaXuXiXyX3XyXyXyX3XpXb.+ q % < < < < < < $ Z yX3X3X3X3X3X3XpXB.$ < % % % % % % % % % < < o b.fX6X3XyX3X3X3XyX6XOX{.].U.U.U.].].].].].].].].].].].{.U.S.&.D.].`.                            ",
"                            _.].O.$ : ' 1X1XjXaXaXaXaXaXjXaXaXaXaXuXaXuXiXyX3XyXyXyX3X3XpXb.X q < < % < < < < + Z yX3X3X3X3XyX3XpXB.$ q < % % % % % % % % % % % < |.yX3XyXyXyXyX3X3X6X7XOXXX{.].].].].].].].].].].].].'.].! w U ]._.                            ",
"                            _.F.t ; k ~.yXjXaXaXaXaXaXaXjXaXuXaXuXuXyX3XyXyX3XyXyXyX3X3XpXb.o < < < % % < < % + Z yX3X3X3X3X3X3XpXB.$ $ $ < % % % % % % % % % < o F yX3X3X3X3XyX3X3XyXyXyXiX9X9X7XXX{.].].].].XX+X7XdXaX$Xm - < 0.]._.                          ",
"                          _.]./ $ 8 4.wXjXaXaXaXaXaXaXaXaXaX9X9XaXaX3X3X3X3X3X3X3X3XyX3XpXb.o < % % % % % % < $ Z wX2X1X3X2X3X3XyXaX.Xb.F $ % % % % % % % % % % < o b.pX3X3X3X3X3X3X3X3X3X6XaXuXiXiX7X].].].{.aXfXfXaXjXyXE.m o s K.K.                          ",
"                        _.].d.q * ( qXsXlXjXaXaXaXaXaXaXaXaX9XaXiX3X3X3X3X3X3X3X3X3X3X3XpXb.o % @ % % % % < < $ Z wX1X1X2X1X3XyXuXjXfXhXjXb.< $ < % % % % % % % % $ A yX3X3X3X3X3X3X3X3XyX3X3X9XaXaX9X].].].+XaXaXaXdXaXsXtX7.1 $ $.]._.                        ",
"                        _.].U $ 5 t.yXjXaXaXjXaXaXaXaXaXaXaX9X6X9XyXyXyX3X3X3X3X3X3X3X3XpXk.+ < @ % < % % % < $ Z 2X1X1X1X1X3XyXyXfXfXaXfXjX(.q % % % % % % % % % < $ B.yX3X3X3XyXyXyX3X3X3X3XyXyXaXiXXX].].7XaXaXjXaXaXjXfXE.k $ u J._.                        ",
"                      `.].u.< ; ! $XaXjXjXaXaXaXjXaXaXaXaXaX6X3X3XyXyXyX3X3X3X3X3X3X3X3XpXv.+ < % % % < % % < + Z 2X1X1X1X1X2XyXyXfXfXfXfXaXjXV.$ < % % % % % % % < o { pX3X3X3XyX3XyXyX3XyX3XiXyXyXiXOX].].9XfXaXaXaXjXaXsX%X<.1 $ O.]._.                      ",
"                      _.].U $ 6 D.%XdXaXaXaXjXaXaXaXaXaXiXaXiXyX3X3XyX3X3X3X3X3X3X3X3X3XyXk.$ q % % < < @ % @ + Z 1X1X1X1X1X1X3XyXfXfXfXfXfXaXjXT o < % % % % % % < $ Z 3X3X3X3X3XyX3X3X3X3X3XyX3XuXiX7X].{.aXaXaXjXaXaXaXjX1X|.b $ u K.].                      ",
"                      ].A.q ; W 3X4XjXaXaXaXaXaXaXaXaXaXaXyXyXyX3X3XyX3X3X3X3X3X3X3X3X3XyXk.+ % < < < < % % @ + Z 1X1X1X1X1X1X3XyXfXfXfXfXfXaXjX).$ < % % % % % % < % q |.yX3X3X3X3X3X3X3X3X3XyX3X3XyX9X].XXyXaXfXaXaXaXaXjX3X>X,.= % 8.]._.                    ",
"                    _.].X.$ 3 H.*X3XjXaXaXaXaXaXaXaXaXaXaXaXaXyX3X3X3X3X3X3X3X3X3X3X3X3XyXk.+ q % % < < % % @ + Z 1X1X1X1X1X1XyXyXfXfXfXfXfXfXfXaXy $ < % % % % % % < $ B.yX3X3X3X3X3XyX3X3X3XyX3X6XaXaX{.+XfXaXaXaXaXaXaXaXaX&X@Xh $ S _._.                    ",
"                    ].J.r $ v dX$XaXaXaXaXaXaXaXaXaXaXaXaXaXaXaX3X3X3X3X3X3X3X3X3X3X3X3XyXk.+ q @ < < < % % % + Z 1X1X1X1X1X1X2XyXfXfXfXfXfXfXfXhXG $ < % % % % < % % $ n.yX3X3X3X3X3X3X3X3X3XyXaXaXyXaXXX7XaXaXaXaXaXaXaXaXjXQ.fX] * q u.].`.                  ",
"                  _.{.8.% = i.pXQ.jXaXaXaXaXaXaXaXaXyX3XaXaXaXyXaXaX3X3X3X3X3X3X3X3X3X3XyXk.$ q % % < < % < % + Z 1X1X1X1X1X1X2X3XfXfXfXfXfXfXaXhXH + < % % % % % % < $ n.yX3X3X3X3X3X3X3X3XyXaXyXyXaXaX7X9XaXaXaXaXaXaXaXaXjX4XqXY.8 $ | {._.                  ",
"                  _.].P $ 6 @XqX4XjXaXaXaXaXaXaXaXiXiXyX3X3XaXaXaXaXaXyX3X3X3X3X3X3X3X1XyXk.+ < % % < < < < @ $ Z 1X1X1X1X1X1X2XyXfXfXfXfXfXfXfXhXF $ < % % % % % % % + N.yX4X3X3X3X3X3X3XuXuX3XaXaXyX3X3XiXaXaXaXaXaXaXaXaXjXaX$XjXM $ u K._.                  ",
"                  ].F.q o ! jX$XaXjXaXaXaXaXaXaXaX9X9X3X6X3X3X3XaXaXyXyXyX3X3X3X3X3X3X1XyXk.$ < % % % % < < < $ Z 1X1X1X1X4X1X1XyXfXfXfXfXfXfXfX6Xw % % % % % % < % % @ ~.yX3X3X3X3X3XyXyX3XuXaXyX3X3X3XyXiXaXaXaXaXaXaXaXaXaXjXQ.jX>.* % 0.{._.                ",
"                _.].&.$ = g.hXQ.jXaXaXaXaXaXaXaXaXaX6X3X3X3X3X3X3XyXaXaXyXyX3X3X3X3X2X1XyXk.$ < % % < % % < < $ Z 1X:X:X4X$X:X1XwXfXfXfXfXfXfXhXm.$ < % < % % % < < @ w  XwX3X3X3XyXyXyXyXaXyX3X3X3X3X3XyXyXaXaXaXaXaXaXaXaXaXjX-XyX}.3 # / {._.                ",
"                _.].P + 6 oXyX4XjXaXaXaXaXaXaXaXaXaXaXiXyXyX3X3X3X3X3XyXaXyXyXyX3X1X1X1XyXk.$ < % < < < < < < $ Z :X:X:X%X%X%X1X2XfXfXfXfXfXfXhXS $ < < % % % < % q + A yX2X2X3XyXyX3XyXyX3X3X3XyX3X3X3X3X3XyXaXaXaXaXaXaXaXaXjX3X4XjXv o u J.].                ",
"                _.J.r o V jX4X3XjXaXaXaXaXaXaXaXaXaX9XyXyXyX3X3X3X3X3X3X3XyXyXyXyXyX1X1XyXk.$ < < < < < < < < $ Z :X%X%X%X$X%X1X2XfXfXfXfXfXjX5.X < % < % % % % < q X 1.tX1XyXyX3XyXyX3X3X3X3X3X3XyX3X3X3X3XyXiXaXaXaXaXaXaXaXaXaXQ.jX-.* < y.{.                ",
"                ].y.< * >.jXQ.aXaXaXaXaXaXaXaXaXaXyX3X3XyXyX3X3X3X3X3X3X3X2X3XyXiXyXyX3XtXk.o < < % % % < < < $ Z 1X$X$X%X$X%X1X2XfXaXfXjXjXw.+ % % % < % % % % < % @ ~.yX3XyXyXyXyX3X3X3X3X3X3X3XyXyX3XyX3X3X6XaXaXaXaXaXaXaXaXjXQ.fXH.3 $ O.{._.              ",
"              _.].O.% 3 H.fXQ.jXaXaXaXaXaXaXaXaXyXyX3X3XyXyX3X3X3X3X3X3X3X3X2X1X3XyXyX3XpXb.X < % < % % % % < $ Z wX:X$X$X$X$X1X2XjXhXhX.XT $ % % % < < < < % % < o J yX3X3XyXyX1X1X2X3X3X3X3X3XyXyX3X3XyX3X3X6XaXaXaXaXaXaXaXaXjX4XyX8Xh $ U ]._.              ",
"              ].].U $ 7 @XqX4XjXaXaXaXaXaXaXaXaXyXyX3X3XyX3X3X3X3X3X3X3X3X3X2X2X1X1XyXyXpXb.X < % % % % % % < + Z wX1X$X$X$X%X1XqX5Xw.H < X < % % % % < < < % % < % ~.yX3XyX1X1X1X4X3X3X3X3X3X3X3X3X3X3XyX3XyX3X9XaXaXaXaXaXaXaXjX3X$XjXM $ u K._.              ",
"              _.K.s $ M dX$XaXjXaXaXaXaXaXaXaXyXuX3X3X3XyXyX3X3X3X3X3X3X3X3X2X1X1X1X1X1XyXb.X % % % % % % < q + Z qX1X%X$X$X$X1XqXz.O $ % < % % % % % % % % % q X } yX3X1X1X1X1X1X1X2X3X3X3X3X3X3X3X3X3X3XyXiXuXaXaXaXaXaXaXaXaXaXfXQ.jX_ & q A.].              ",
"              _.F.t & ) jXQ.gXaXaXaXaXaXaXaX9X3X6X6X3X3X3X3X3X3X3X3X3X3X3X2X2X1X1X1X1X4XrXk.X % % < % < < < < + Z :X1X1X$X$X$X1XrXx.% q < % % % % % % % % % q + S yX1X1X1X1X1X1X1X2X1X2X3X3X3X3X3X3X3XyX3XyX6X9XyXaXaXaXaXaXaXaXaXjXQ.fXi.* % 0.].              ",
"              {.u.% * >.fX$XjXaXaXaXaXaXaXaX9XyXaX3X3X3X3X3X3X3X3X3X3X3X2X2X1X1X1X1X1X4XtX2.o % % < % < < < q + Z %X:X1X:X$X$X1XqXz.$ < % % % % % % % % % q $ w ^.qX;X1X1X1X1X1X1X1X1X1X2X3X3X3X3X3X3XyX3X3X3XaXyXaXaXaXaXaXaXaXaXjX4XqXH.1 $ O.].              ",
"              {.8.$ 1 g.rX3XjXaXaXaXaXaXaX9XuXyXaXyX3X3X3X3X3X3X3X3X3X3X2X2X1X1X1X1X1X4XtX2.o < < < < < % % q $ Z %X$X1X1X$X$X;XqXz.$ < % % % % % % % < q $ w R.qX4X1X1X1X1X1X1X1X1X1X1X2X2X3X3X3X3X3XyX3X3X3X3XyXaXaXaXaXaXaXaXaXjXaX%X[.6 $ X.]._.            ",
"            ].{.O.+ 3 H.%XaXaXaXaXaXaXaXaXaXuXyXaXyX3X3X3X3X3X3X3X3X3X3X2X2X1X1X1X1X1X1XrX2.$ < < < < < % % q $ Z >X%X%XqX:X%X:XtXz.$ < % % % % % % q < o A W.qX4X1X1X1X1X1X1X1X1X1X2X1X2X3X3X3X3X3XyXyX3X3X3X6X3XuXaXaXaXaXaXaXaXaXjX$X+Xh $ U ]._.            ",
"            _.{.| + 6 U.%XdXaXaXaXaXaXaXaXaXuXyX3X3XyXyX3X3X3X3X3X3X2X2X2X2X1X1X1X1X1X1XrXk.$ < % % % % < < q $ i W.E.E.R.E.E.R.W.3.$ < % % % % % @ o < } :X:X$X:X1X1X1X1X1X1X1X1X1X1X1X3X3X3X3X3X3XyXyX3X3X3X3X3XyXaXaXaXaXaXaXaXaXjX$X Xb $ L ]._.            ",
"            _.].U + h ).1XjXaXaXaXaXaXaXaXaXuXyX3XyXyXyX3X3X3X3X3X3X2X2X2X2X1X1X1X1X1X1XtXk.$ < % % % % < < < % < q q q q 0 0 q q @ < % % % % % % w E E.>X$X$X:X:X:X1X1X1X1X1X1X1X1X1X2X2X3X3X3X3X3X3XyX3X3X3XyX3XyXaXaXaXaXaXaXaXaXjX3X/.B o s K._.            ",
"            _.].P $ b ).yXjXaXaXaXaXaXaXaXaXaXyXuXyXyXyX3X3X3X3X3X3X3X2X2X2X1X1X1X1X1X4XtXk.$ < < < < % % % @ % < % < % % % % % % < o X $ % % % % A l.W.:X>X:X$X:X:X1X1X1X1X1X1X1X1X1X2X2X3X3X3X3X3X3X3X3X3XyXyX3X6XaXaXaXaXaXaXaXaXaXaXQ.V o u K.].            ",
"            _.K.P $ b R.fXaXaXaXaXaXaXaXaXaXyX3X3X3X3X3X3X3X3X3X3X3X1X1X1X1X1X1X1X1X1X4XtX2.$ < % % < < % % @ @ < < < < % % % % < w J R F % % % < % o < F 2.$X>X$X;X1X:X1X1X1X1X1X1X1X1X1X2X3X3X3X3X3X3X3X3X3X3X3X3X6X9XaXaXaXaXaXaXaXjX;XV o e J.{.            ",
"            _.K.S o m Q.jXjXjXjXgXfXaXaXaXaXaXaXaXaXaXaXaXiXyXyXyXyXyXyXyXyXyXyX3X3X3X1XyXk.$ q % < < < % % % % < < @ % % % % q $ Z >XtXl.X < < < < q % $ o y 2.wXqX1X1X1X1X2X3X3X3X3XyX3XyXyXyXyXyXuXaXaXaXaXaXaXaXaXaXaXaXaXgXjXdXjXjX:X( * w J._.            ",
"            _.K.S O ~ %XaXaXaXaXaXaXyXyXaXaXaXyX3X3X3X3X3X3X3X3X3X3X3X3X3XyX3X3X3X3XyX3XyXv.$ % % % < < % % % % < % % @ % % < q $ Z $X>X3.X % % < < % < % q $ $ G W.wX1X1X1X1X1X2X3X2X2X3X3X3X3X3X3X3X3X3X3X3XyXyXyXyXyXyXiXaXaXaXaXaXaXqX1.* w J._.            ",
"            _.].S o m !.jXjXjXjXjXjXjXfXdXaXaXaXaXaXaXaXaXaXaXuXyXyX3XyXyXyXyXyXyXyX2X1XtXk.X % % % < < < % < < % , , , q q q q % Z :XrX3.o @ % @ @ % < < < < q $ w N.tX1X3X2XyXyXyX3X3X3XyXyXyXyXyXyXiXaXaXaXaXaXaXaXaXaXfXjXjXjXjXjXjXqX( * w J._.            ",
"            _.].I o b R.fXsXaXaXaXaXaXaXaXuXuXyX3X3X3X3X3X3X3X3X3X3X3X2X3X2X1X1X1X1X1X1XtX2.X % % % % % < < < < % $ $ $ $ $ $ $ o i 1X,X2.o @ @ % % % % < < < < q < ; 2.tX4X1X1X1X1X1X1X2X3X3X3X3X3X3X3X3X3X3X3X3XyX9XaXaXaXaXaXaXaXaXjX$X! o e J.].            ",
"            _.].U $ k ~.yXdXaXaXaXaXaXaXaXaX9X6X3X3XyX3X3X3X3X3X3X3X3X2X2X2X2X1X1X1X1X1XrX2.X % % < % % % % < % y k.k.k.3.3.k.k.2.N.$X>X2.o % % % % % < < < % < < q < $ 2.rX1X1X1X1X2X2X3X3X3X3X3X3X3X3XyXyX3X6X6X9XaXaXaXaXaXaXaXaXjXaX$X! o u K.{.            ",
"            _.]./ $ k ).%XjXaXaXaXaXaXaXaXuX9X3X3X3XyXyX3X3X3X3X3X3X2X2X1X1X2X1X1X1X1X1XrX2.$ % < < < < % % q $ Z ,X>X=X=X>X>X>X,X*X:X=X3.$ q < % % % < < < < % < < < < $ x.wX4X1X1X2X1X3X3X3X3X3X3X3X3XyXyX3X6X6X9XaXaXaXaXaXaXaXaXjX4X4XB X s K._.            ",
"            _.].X.$ 6 U.%XdXaXaXaXaXaXaXaXaXyXyX3XyXyXyX3X3X3X3X3X3X3X3X2X2X2X1X1X1X1X1XtX2.$ < < < < < < < q $ Z $X#X#X$X;X#X$X:X#X$X>X3.O $ < < % < < < < < < < < < q < w ^.qX1X1X2X1X3X3X3X3X3X3X3X3XyXyXyX6XyXaXaXaXaXaXaXaXaXaXjX$X Xb X F ]._.            ",
"              {.O.$ 3 H.%XaXaXaXaXaXaXaXaXaXuXyX3X3XyXyXyX3X3X3X3X3X3X3X2X1X1X1X1X1X1X1XtXk.$ < < < < < < % q $ Z %X$X$X:X%X#X%X1X#X:XfX3Xm.H $ $ q < < < < % < < % % % q $ J wX1X1X2X2X3X3X3X3X3X3X3X3XyXyX3X6XyXaXaXaXaXaXaXaXaXaXdX$X@Xg + U ]._.            ",
"              {.0.$ = g.qX3XjXaXaXaXaXaXaXaXaXyX9XyXyXyXyX3X3X3X3X3X3X3X2X3X1X1X1X1X1X1XtX2.$ q % < % < < < < $ Z %X$X:X1X$X#X:X1X#X:XfXfXjXhX(.A o q < % % < < < < @ % % q $ n.tX1X2X3X2X3X3X3X3X3X3X3XyX3X3X3XyXaXaXaXaXaXaXaXaXjX6X%X[.5 + X.]._.            ",
"              {.d.< * >.pX$XjXaXaXaXaXaXaXaXaXuXaXyXyXyXyX3X3X3X3X3X3X3X3X2X2X1X1X1X1X1XtX2.$ q % < < < < % < $ Z %X%X1X:X#X$X:X1X#X1XfXfXaXaXhXfXH $ q % % < < < < % < % < $ Z 2X1X2X2X2X3X3X3X3X3X3X3XyX3X3X3X3XuXaXaXaXaXaXaXaXjX4XqXH.1 + $.].              ",
"              _.J.r o ) jXQ.jXaXaXaXaXaXaXaXaXaXaX3X3XyX3X3X3X3X3X3X3X3X3X3X2X1X1X1X1X1XtX2.$ q % < % % < % q $ Z %X1X1X$X#X$X:X1X#X1XfXfXfXfXaXfXhXG + q % % < < < < < % % < $ n.yX1X2X3X3X3X3X3X3X3X3XyXyX3X6X3XaXaXaXaXaXaXaXaXjXQ.fXi.* % y.].              ",
"              _.K.s $ v dX$XaXjXaXaXaXaXaXaXaXiXuX6X3X3X3X3X3X3X3X3X3X3X3X3X2X1X1X1X1X1XyXb.$ q % % % < < < q $ Z :X1X%X$X$X$X:X1X$X1XfXfXfXfXfXfXfX6Xw % < < < < < < % % % < $ T yX1X3X3X3X3X3X3X3X3XyX3X3X3X9XyXuXaXaXaXaXaXaXaXaXQ.jX) o q F.].              ",
"              _.].U $ 6 @XqX4XjXaXaXaXaXaXaXaXaX6X6X3X3X3X3X3X3X3X3X3X3X3X3X2X2X1X1X2X3XyXk.$ < % < < < < < < $ Z 1X1X%X$X$X$X1X1X$X1XfXfXfXfXfXfXaXjXr.$ q % < < < < < % % % % w  XyX3X3X3X3X3X3X3X3X3X3X3X9X9XaXaXaXaXaXaXaXaXjX3X$XjXM $ s K._.              ",
"                {.O.$ 3 H.fXQ.jXaXaXaXaXaXaXaXaX9X6XyXyX3X3X3X3X3X3X3X3X3X3X2X1X3XyXyX3XyXk.$ < < < < < % % < $ Z 1X%X$X%X$X$X1X1X$X1XfXfXfXfXfXfXfXfXaXy % < < % < % < < % % < $ N.yX4X3X3X3X3X3X3X3X3X3X3X9XaXaXaXaXaXaXaXaXaXjX4XwX@X6 + U ]._.              ",
"                {.u.< * >.jXQ.fXaXaXaXaXaXaXaXaX9X3XyXyXyX3X3X3X3X3X3X3X3X3X3XyXyXyXyX1XtX2.o < % < < < % < q $ Z 1X%X%X%X$X%X1X1X$X1XfXfXfXfXfXfXfXaXhXo.X % % % % % % < % % < o 1.yX4X3X3X3X3X3X3XyXyXyXyXiXaXaXaXaXaXaXaXaXaXjXQ.fXH.3 $ @.{.                ",
"                _.J.r o V jX$X3XjXaXaXaXaXaXaXaX9X6XyXyXyX3X3X3X3X3X3X3X3XyXyXyXyXyX1X1XtX2.o < % < < < < < q $ Z :X%X%X:X%X%X1X1X%X1XfXfXfXfXfXfXfXaXhXm.X < % % % % % % % % < o T pX3X3X3X3X3X3X3XyXyXyXiXaXaXaXaXaXaXaXaXaXsXaXQ.jX-.* q d.{.                ",
"                _.].P $ g @XyX4XjXaXaXaXaXaXaXaXaXaXaXaXyXyXyX3X3X3X3X3XyX3X3XyX3X2X2X1XtXk.$ q < % < < < < q + Z 1X:X:X:X:X:X1X1X%X1XfXfXfXfXfXfXfXaXhX.X% % % % % @ % < % % < $ S yXyXyX3X3X3X3X3X3XyX3X3XuXaXaXaXaXaXaXaXaXjX3X4XjXv $ u K.].                ",
"                _.{.@.$ 1 g.fXQ.jXaXaXaXaXaXaXaXaXaXaX9XuXyX3X3X3X3XyXyX3XyXyX3X3X3X2X1XtXk.$ q < < < < % % q $ Z 1X:X:X1X:X:X1X1X:X1XfXfXfXfXfXfXfXfXhX5Xq % < % % % % < < % % $ i yXyXyXyXyX3X3X3X3XyX3XyXaXaXaXaXaXaXaXaXaXjX4XyX}.6 # Y ]._.                ",
"                  ].A.q & Q jXQ.aXjXaXaXaXaXaXaXaXaX9XaX6X9X3XyXaXaX3XyXyX3X3X3X3X3X2X1XyXk.$ q < < < % % % q + Z 1X1X1X1X:X1X1X1X:X1XfXfXfXfXfXfXfXfXhX5Xq % % % % % % < < < < $ i yXyXyXyXaXaX3X3X3X3X3XyXuXuXaXaXaXaXaXaXaXjXQ.jX,.* % 0.{.                  ",
"                  _.].K $ h @X1X3XjXaXaXaXaXaXaXaXaX9X9X6X6XaXaX3X3XaXyX3X3X3X3X3X3X2X1XyXk.$ q < < < % % % q $ Z 1X1X1X1X1X1X1X1X1X1XfXfXfXfXfXfXfXfXhX|.% % % % % < < < < < < $ F yX3X3XaXaXyXaXaX3X3X3XaXyXaXaXaXaXaXaXaXjXaX$XjXM $ r J.].                  ",
"                  _.{.$.$ 1 g.pXQ.jXaXaXaXaXaXaXaXaXaXyXaXaXyXyXaXaX3X3X3X3X3X3X3X3X3X1XyXk.o < < % % % < < % $ Z 1X1X1X1X1X1X1X1X1X2XfXfXfXfXfXfXfXaXhXV.X < % % < < < % % % 0 + J yX3X3X3XyXaXuX6XaXaX3XiXaXaXaXaXaXaXaXaXjX4XqX[.5 + / {._.                  ",
"                    ].D.r $ C dX$XjXaXaXaXaXaXaXaXaXaXaXaXyXaXaXiXyX3X3X3X3X3X3X3X3X3X3XyXk.$ < < < % % % < < + Z 1X1X1X1X1X1X1X2X1X3XfXfXfXfXfXfXfXaXhXo.X q % < < < < % < @ @ X 1.pX3XyX3X3XyXaXaXyXaXaXaX6XaXaXaXaXaXaXaXjXQ.fX=.* < y.{.                    ",
"                    ].].U $ 3 P.%X6XjXaXaXaXaXaXaXaXaXyXaXaXaX3XyXyX3X3X3X3X3X3X3X3X3X3XyXk.+ q < < % < % < q + Z 1X1X1X1X1X1X1X3X1X3XfXfXfXfXfXfXfXfXaXy $ % % % % % % < < < < + n.pX3X3X3X3X3X3X6XaXaXyXaXaXaXaXaXaXaXaXaXaX$X@Xk $ s K._.                    ",
"                      ].u.< & ' wX4XjXaXaXaXaXaXaXaXaXaXaXyX3X3XyX3X3X3X3X3X3X3X3X3X3X3XyXk.X q < < % % < < , $ Z 1X1X1X1X1X1X2X3X1X3XfXfXfXfXfXfXaXjXr.X < % % % % < < < < < % q  XyX3X3X3X3XyX3X3X3XaXaXaXaXaXaXaXaXaXaXjX3X>Xp.= + $.{.                      ",
"                      _.].K % 6 L.%XjXaXaXaXjXaXyXaXaXaXaXaXyX3X3X3X3X3X3X3X3X3X3X3X3X3XyXv.$ q < < < % % % < $ Z 2X1X1X1X1X1X3X3X1XyXfXfXfXfXfXaXhX9Xw @ % % % % % < < % % q + G iX3X3X3X3X3X3X3XyXyXyXaXaXaXiXaXjXaXaXaXjX1X Xv $ r J.].                      ",
"                      _.].0.% : ) %XaXjXjXaXaXaXsXaXaXaXaXaXaXyX3X3X3X3XyX3X3X3X3X3X3X3XpXv.$ q < < % % % % < $ Z wX1X1X1X1X1X3X3X1XyXfXfXfXfXaXfXjXG $ q % % % % % < < % @ , + b.pX3X3X3X3XyX3XyXyXaXaXaXaXaXfXaXaXaXjXaXdX*Xa.1 + ..{._.                      ",
"                        _.].s $ g c.pXjXaXaXdXaXaXaXaXaXaXuXaXuXaX6XyXyXyX3X3X3X3X3X3X3XpXb.$ q % < < < < < < $ Z yX3X2X2X1X2X3X3X2XyXfXfXaXaXjXfXT $ q % % < < < < < < % @ + y 3X3X3X3XyXyXyXaXyXyXaXaXaXaXaXaXaXjXaXaXjXaXR.b ; r D.].                        ",
"                        `.{.y.% * X.rXaXaXjXaXaXaXaXaXaXaXaXaXaXaXaXyXyXyXyX3X3X3X3X3X3XpXb.$ < % < < < < < < $ Z yX3X3X3X2X2X3XyX3XyXfXfXjXjX(.S + q < < < < < < < < % % q X w.pX3X3X3XyXyXaXaXyXaXaXaXaXaXaXaXaXaXjXaXaXrX7.3 $ ..{._.                        ",
"                          _.].P $ f x.yXjXaXaXaXaXaXaXaXaXaXaXaXyXyX3X3X3X3X3X3X3X3X3X3XpXb.X < % % < < % % < + Z yX3X3X3X3X3X3X3X3XyXfX9XV.T % + q % % % % < < % < < < < $ S yX3XyX3X3X3XuXaXaXuXaXsXuXaXaXaXaXaXaXaXjXaXE.m $ r J.].                          ",
"                            ].d.< & v Q.yXjXaXaXaXaXaXaXaXaXaXaXaXyX3X3X3X3X3X3X3X3XyX3XpXb.o < % < < < % % < + Z yX3X3X3X3X3X3X3X3X3XpXw.. $ % q < % % % @ < < % % % < < < (.pX3XyX3X3X3X9XaXaXaXjXjXaXaXaXaXaXaXaXjXaX&X_ * + $.{._.                          ",
"                            _.{.X.+ 1 >.%X3XjXaXaXaXaXaXaXaXaXaXaXaXuXyX3X3X3X3X3X3XyX3XpXb.$ < % < < < % % < + Z yX3X3X3X3X3X3X3X3X3XyX2.o q % < % < < % % % < % % < < o r.fX3X3X3XyX9XuXaXaXaXaXjXjXaXaXaXaXaXaXjXaX&XA.5 # S U._.                            ",
"                              _.J.r % g U.%X6XjXaXaXaXaXaXaXaXaXaXaXaXuXyX3X6X3X3X3XyX3XpXb.o < < < < < < % < + Z yX3X3X3X3X3X3XyX3X3XpXw.o < % % < < < % % % < % % q X } fX3X3X3X3XuX6XyXaXaXaXaXjXjXaXaXaXaXaXjXaX&X+Xb $ < d.].`.                            ",
"                              _.].0.< ; n 0X$X9XjXaXaXaXaXaXaXaXaXaXuXaXuXyX3X3X3XyXyX3XpXb.+ q < < % % < < < $ Z 3X3X3X3X3XyXyXyXyX3XpXw.o < % % % % < < < < < < @ X } fX3X3X3X3X3X3XyXyX3XyXaXaXjXjXjXaXaXaXjXaX!.hX[ * + ..{._.                              ",
"                                _.{./ $ * ' jXQ.aXjXaXaXaXaXaXaXaXaXaXaXaXaXyX6X6XyXaX3XfXb.+ q < % % % < < < + S fXpXpXpXpX3XyXyXyX3XpXw.o % % % % < < < < < q + + w.fX3X3X3X3XiXiXuXaXaXaXjXjXjXjXjXjXjXjXjXjXQ.hXi.2 @ s K._.                                ",
"                                  ].J.u % 3 s.jXQ.uXjXaXaXaXaXaXaXaXaXaXaXaX9X6XaX9XyX6XfXv.$ q % < % % % < < % y r.w.w.w.n.yXyXyXyX3XpXw.X % % @ @ % % < q % o y V.fXyXaX3X3X3XyXuXaXaXjXjXjXjXjXjXjXjXjXjXfX3XjXI.5 % q A._.                                  ",
"                                  _.].A.q % 4 H.jXQ.yXjXaXaXaXaXaXaXaXaXaXaX9X9XaXaX3XaXpXb.$ q % < % < < < % < < o o $ O y iXyXyXyX3XpXw.X % % @ @ % < $ o q 6.3XpXaXyXaXaXaXyXuXuXaXaXaXaXaXaXjXjXjXjXjXaXQ.fX@Xl % $ 0.{._.                                  ",
"                                    _.{.8.$ % g }.jXQ.yXjXaXaXaXaXaXaXaXaXaXaXaXaXyXaX6XfXb.$ q q q q q q q q q < q q q % A iXyXyXiX3XpXw.X % % % < @ $ y 5. XpXyX3XiXaX3XaXaXaXaXaXaXaXaXaXaXaXaXjXjXjXyXQ.jX0Xn < $ | ]._.                                    ",
"                                      _.].X.$ < l @XjXQ.yXjXaXaXaXaXaXaXaXaXaXaXaXaXaX3XhXr.. $ o o o o $ o o X $ < < < + Z iXiXyXiX3XfXw.. q % < $ Z V.3XfXiX3X3XyX3XaX3XaXaXaXaXaXaXaXaXaXaXaXaXjXjXaXQ.fXjXC : $ P ]._.                                      ",
"                                        _.]./ $ ; n 8XjXQ.yXjXaXaXaXaXaXaXaXaXaXaXaXyXaXfX|.w.e.e.e.r.e.e.e.w.r.{ $ < % $ Z aXaXaXaX3XaX|.A $ < < X R hX3X3XyXyXyXyXaXyXaX9XaXaXaXaXaXaXaXaXaXaXaXjXaXQ.jXjXW * + s K._.                                        ",
"                                        `._.U.P $ : n 8XjXQ.yXjXaXaXaXaXaXaXaXaXaXaXuXaXaXfXfXfXfXfXfXfXfXfXfXhXB.+ % < $ Z aXaXaXaX3X3XfX1.X < < X T fX3XuXaXiXuXaXaXyXaXaXaXaXaXaXaXaXaXaXaXaXjXjX3XfXjXQ = % u J.].                                          ",
"                                            ].K.L + ; v @XjXQ.3XjXaXaXaXaXaXaXaXfXyXaXaXaXaX9X9X3X3X3X3X6X3X3XfXn.+ < < $ Z aXaXaXaX3X3XfX{ X < < X T fX3XaXaXaXaXaXaXaXaXaXyXaXaXaXaXaXaXaXaXjXyXQ.jXdXW > @ r F._._.                                          ",
"                                            ].].K.L $ ; l }.jXQ.3XjXaXaXaXaXaXjXaXaXaXaXaXaXaXaXaXaXuXuXaXaX3XfXn.+ < < $ Z aXaXaXaXyX3XfX} o < < X T fX6XaXaXaXaXaXaXaXaXaXaXyXjXaXaXaXaXaXjXyXQ.jX8XN > @ u D.]._.                                            ",
"                                                ].U.P $ < g H.jXQ.3XjXaXaXaXaXjXyXaXaXaXaXaXaXaXaXaXaXaXaXaX9XfXn.+ % < + Z aXaXaXaXyX6XfX} o < < X R fX9XaXaXaXaXaXaXaXaXaXjXyXaXaXaXaXaXjXaX!.jX}.b : % s D.]._.                                              ",
"                                                {.].]./ ; < 4 ,.jX$X3XjXaXaXjXaXaXaXaXaXaXaXaXaXaXaXaXaXaXaXaXfXN.+ < < + Z aXaXaXaXaX6XfX+.o < < o R fXaXaXaXaXaXaXaXaXaXaXaXfXuXjXaXaXjX6X!.jXh.z ; $ K J._._.                                                ",
"                                                    ].].O.< % 3 [ 8X%X3XjXaXjXaXjXaXaXaXaXaXaXaXaXaXaXaXaXaXaXfXV.$ < < $ Z aXaXaXaXaX9XhX+.o < q + R fXaXaXaXaXaXaXaXaXaXaXaXjXaXaXaXjX3X&XdX;.3 % $ / K._._.                                                  ",
"                                                      _.{.0.t % * b H.>XyXjXaXaXaXaXaXaXaXaXaXaXaXaXaXaXaXaXaXfXV.$ q q % A aXaXaXaXaXaXhX+.$ q q + R hXaXaXaXaXaXaXaXaXaXaXaXaXhXyXjXuX%X].B = % < @.]._.                                                      ",
"                                                        _.{.F.s $ < 6 =.~.qXaXjXjXdXaXaXaXaXaXaXaXaXaXaXaXaXaXhXm.. o o . y jXaXaXaXaXaXhXo.. o + . T hXaXaXaXaXaXaXaXaXaXaXsXjXjXaXwXQ.>.j ; $ r y.{._.                                                        ",
"                                                            ].U...< % * b 7.Q.>X3XaXjXjXjXdXaXaXaXaXaXaXaXaXaXfX|.6.5.5.5.r.jXaXaXaXaXaXfXV.6.5.5.6.V.fXaXaXaXaXaXaXaXdXjXjXaX3XqX$Xb.N 1 @ $ / J.]._.                                                          ",
"                                                              ].{.u.s $ $ 3 M d.1X%X$X4X3XaXjXjXjXaXaXaXaXaXaXaXfXhXhXhXjXhXaXaXaXaXaXaXaXhXjXjXhXjXhXaXaXaXaXjXjXjXfX3X4XQ.%X1XT.V 6 ; + r 8.]._._.                                                            ",
"                                                                _.].K.O.q $ : 5 W H.dXpX1XQ.Q.4X3XaXjXjXdXaXaXaXaXaXaXaXaXaXaXaXaXjXaXaXaXaXaXaXaXaXaXaXjXjXjXaX1X$XQ.$XyXaXP.' 6 : + < / K.{._.                                                                ",
"                                                                    _.{.D./ < $ ; 3 V g.8XjXfX3XQ.Q.$X1XaXjXjXjXdXaXaXaXaXaXjXaXaXjXaXaXaXaXaXaXjXjXjXaX3X4XQ.Q.1XfXjXdXh.W 3 & $ % P d.{.].                                                                    ",
"                                                                      _.].].A.~ < $ $ = h =.I.dXjXjXfX1XQ.Q.4X3XaXjXjXjXaXaXaXaXaXjXaXsXjXjXjXfX3X4XQ.Q.4XyXjXjXjX[.;.v 3 $ % < L y.].]._.                                                                      ",
"                                                                          _.{.{.A.X.r $ $ * 8 v =.H.@XjXjXjXyX1X$X$X4X3XsXdXjXsXaXjXjXdX9X3X$XQ.$XyXfXjXjX0XI.>.M 6 = $ $ q U u.].{._.                                                                          ",
"                                                                              _.{.].J.$.d < $ $ * 3 h V -.h.}.0XjXhXyX>X%X>XyXyXyXyX>X%X>XyXfXjXdXoXP.,.Q b 8 * $ + % u ..F.{.{._.                                                                              ",
"                                                                                  _.{.{.U.d...s q $ $ o * 3 6 b V ) -.,.p.a.7.c.x.7.j.f.i.>.] ! v 7 3 = & $ $ < u | y.K.{.{.                                                                                    ",
"                                                                                        ].{.{.K.A.$.U u < $ $ $ $ o & * = 1 3 8 8 3 3 = = * & o $ $ $ < r P O.d.K.{.{._._.                                                                                      ",
"                                                                                              _.{.{.{.K.A.8...P s r q < < % $ $ $ $ $ % < q r u P | 8.d.J.].{.{.].                                                                                              ",
"                                                                                                    _.{.{.{.{.].K.J.F.d.y.0.8.8.8.8.8.y.d.A.J.K.].{.{.{.{._.                                                                                                    ",
"                                                                                                              `.`.{.{.{.{.{.{.{.{.{.{.{.{.{.{.{.]._.                                                                                                            ",
"                                                                                                                                                                                                                                                                ",
"                                                                                                                                                                                                                                                                ",
"                                                                                                                                                                                                                                                                ",
"                                                                                                                                                                                                                                                                ",
"                                                                                                                                                                                                                                                                ",
"                                                                                                                                                                                                                                                                ",
"                                                                                                                                                                                                                                                                ",
"                                                                                                                                                                                                                                                                ",
"                                                                                                                                                                                                                                                                "
};
