/* XPM */
static char *bitcoin64[] = {
/* columns rows colors chars-per-pixel */
"64 64 215 2 ",
"   c None",
".  c #CE9604",
"X  c #CF990C",
"o  c #CE9708",
"O  c #D19B0E",
"+  c #CF9B11",
"@  c #D19C13",
"#  c #D19F1A",
"$  c #D7A002",
"%  c #DAA404",
"&  c #DCA807",
"*  c #D7A20D",
"=  c #DAA50C",
"-  c #DEAA0D",
";  c #D3A015",
":  c #DAA612",
">  c #DDAA14",
",  c #D2A01E",
"<  c #DAA61A",
"1  c #DCAA1C",
"2  c #E1AD0D",
"3  c #E1AF18",
"4  c #E2B117",
"5  c #E2B21C",
"6  c #D2A121",
"7  c #DCAD24",
"8  c #D4A52B",
"9  c #DDAD2A",
"0  c #D6A82A",
"q  c #D5A935",
"w  c #D6AB3A",
"e  c #DEB134",
"r  c #DFB43F",
"t  c #E3B622",
"y  c #E5BA2B",
"u  c #E3B729",
"i  c #E5BC32",
"p  c #E8BF35",
"a  c #E2B53D",
"s  c #E5BE3D",
"d  c #E0B130",
"f  c #EBC53D",
"g  c #E6C03C",
"h  c #D5AD45",
"j  c #D7AF46",
"k  c #DDB343",
"l  c #DBB34B",
"z  c #DBB74A",
"x  c #D2AE50",
"c  c #D6B152",
"v  c #DBB550",
"b  c #DEBF53",
"n  c #DAB65A",
"m  c #DCB85A",
"M  c #D4B35E",
"N  c #E1B644",
"B  c #E3BA4B",
"V  c #E3BC54",
"C  c #E4BF5C",
"Z  c #D6B663",
"A  c #DDBB63",
"S  c #DDBE6C",
"D  c #D6B86A",
"F  c #D7BC75",
"G  c #DCBF73",
"H  c #D7BE7E",
"J  c #D8BE7D",
"K  c #E5C144",
"L  c #EDCA4C",
"P  c #E8C448",
"I  c #EDCC53",
"U  c #E6C15E",
"Y  c #EBCC5B",
"T  c #E8C357",
"R  c #F0CE50",
"E  c #EFD056",
"W  c #F1D15C",
"Q  c #DFC37B",
"!  c #DEC176",
"~  c #E6C262",
"^  c #E9C462",
"/  c #EACD63",
"(  c #E6C56B",
")  c #E6CD6C",
"_  c #E9C76C",
"`  c #EED36D",
"'  c #F1D363",
"]  c #E9C972",
"[  c #ECCC79",
"{  c #E4C875",
"}  c #EAD478",
"|  c #F4DA7B",
" . c #F1D777",
".. c #DDC78F",
"X. c #D6C494",
"o. c #DAC694",
"O. c #DDC995",
"+. c #DBC89A",
"@. c #E2C681",
"#. c #ECCF82",
"$. c #E1CA8B",
"%. c #E3C881",
"&. c #EDD184",
"*. c #E6D58C",
"=. c #EDD48C",
"-. c #EAD889",
";. c #F0D58C",
":. c #F1DE8D",
">. c #F3DD84",
",. c #E2CC96",
"<. c #E2CF9E",
"1. c #EFDE94",
"2. c #E5D29B",
"3. c #E8D899",
"4. c #F1D792",
"5. c #F2D994",
"6. c #F4DD9C",
"7. c #F7E38C",
"8. c #F8E58D",
"9. c #F6E59C",
"0. c #F8E696",
"q. c #DCCFAE",
"w. c #DACFB4",
"e. c #DCD3BE",
"r. c #E5D5AA",
"t. c #E8D7AB",
"y. c #E6DCAC",
"u. c #E6D7A5",
"i. c #F3DDA0",
"p. c #E5D6B2",
"a. c #E7D8B4",
"s. c #E9DAB5",
"d. c #E2D6BA",
"f. c #E7DAB9",
"g. c #EADEBF",
"h. c #EEE3AA",
"j. c #F5E2A4",
"k. c #F7E4AC",
"l. c #F8E5AC",
"z. c #FDEFAC",
"x. c #F8E7A5",
"c. c #EBE3B7",
"v. c #F8E6B2",
"b. c #F4E9B4",
"n. c #F9E8B6",
"m. c #F6ECBD",
"M. c #FBEBBB",
"N. c #FFF3BD",
"B. c #FCF0B1",
"V. c #DED6C2",
"C. c #D9D5CC",
"Z. c #DCDBDB",
"A. c #E3DBC4",
"S. c #E9DEC3",
"D. c #E6DECB",
"F. c #ECE1C5",
"G. c #ECE3CA",
"H. c #FCEEC2",
"J. c #F4EDC8",
"K. c #FEF2C4",
"L. c #FEF3CC",
"P. c #E9E2D1",
"I. c #E6E2DA",
"U. c #EDEADD",
"Y. c #F1EBDD",
"T. c #F0E7D1",
"R. c #F6F1D4",
"E. c #FEF6D3",
"W. c #FFF8D5",
"Q. c #F5F2DC",
"!. c #F8F2DA",
"~. c #FFFADA",
"^. c #DCDDE4",
"/. c #DCDFEA",
"(. c #DEE1EB",
"). c #DFE0E5",
"_. c #DEE3F4",
"`. c #DBE4FE",
"'. c #DEE8FF",
"]. c #E1E2E6",
"[. c #E9E7E4",
"{. c #ECECE4",
"}. c #E5E6EB",
"|. c #E7E8ED",
" X c #EBEBEE",
".X c #F0EFED",
"XX c #F4F2E2",
"oX c #F2F1ED",
"OX c #F9F6E9",
"+X c #E2E6F4",
"@X c #E5E9F5",
"#X c #EDEEF1",
"$X c #E1E6F9",
"%X c #E5E9F9",
"&X c #EBEEFB",
"*X c #F0EFF1",
"=X c #EEF0F4",
"-X c #EEF1FC",
";X c #F3F3F4",
":X c #F1F2F5",
">X c #F4F4F4",
",X c #F6F6F5",
"<X c #F3F3F3",
"1X c #F8F7F5",
"2X c #F8F7F4",
"3X c #F9F9F6",
"4X c #F3F6FF",
"5X c #F1F4FD",
"6X c #F4F7FE",
"7X c #F4F5FC",
"8X c #F5F9FF",
"9X c #F5F9FF",
"0X c #F9FAFD",
"qX c #FAFBFD",
"wX c #F8F7FC",
/* pixels */
"                                                                                                                                ",
"                                                                                                                                ",
"                                                    ~.E.L.M.M.v.v.n.M.H.L.E.E.                                                  ",
"                                              L.n.4._ B e 7 1 : > 1 1 9 N ^ ;.v.L.E.                                            ",
"                                        E.M.&.N > > y I  .:.3.y.y.3.1.| Y p > = e [ n.L.                                        ",
"                                    E.v.^ 1 4 I 9.R.,X-X-X-X4X9X9X4X-X&X-X,X!.x.W 5 : V j.L.                                    ",
"                                E.M.^ : t >.Q.-X&X#X,X,XqXqXqX,X,X,X3XqX4X,X#X&X-XXX:.y % V n.E.                                ",
"                              L.4.1 7 *.{.-X=X,X,X1X,X4XY.G.T.,X,X,XoXG.G.oXqX,X,X#X&X X*.1 : &.L.                              ",
"                            H.U % Y {.4X4X1X,X,X,X,XoX9XA o q oX,X9Xs.@ o r.9X,X,X,X,X4X4X{./ % B M.                            ",
"                          H.( 2 j.-XqX,X,X,X,X,X,X,X,X4XA o w oX,X4Xs.@ + r.4X,X,X,X,X,X,XqX&Xb.5 0 l.E.                        ",
"                      ~.x.l H.J.&X,X,X,X,X,X,XoX,XoX.X4XA o w oX,X4Xa.@ + r.4X.X,X,X,X,X,X,X,X&XQ.f 9 j.E.                      ",
"                      j.O / qX#X,X,X,X,X,X,X,X4X4X4X4X9XS o w  X,X9XS.@ + r.4X X#X#X,X,X,X,X,X,X#X,X| O j.E.                    ",
"                    L.{ | 3XqXqXqX,X,X,X,X4XU.! Q Q Q Q w @ w #X{.$.S # @ a.4X X#X#X*X,X,X,X,X,X,X XE.R * l.                    ",
"                  K.C 9.qXqXqXqXqX,X,X,X X4XS.o o O o o @ o 8 =XP.o @ , + Q 4X#X X#X#X X,X,X,X,X4XXXK.2Xf 7 M.                  ",
"                E.( & b.#X3XqX,X,X#X,X#X X4XG., 6 6 6 @ S r.r.=XP.6 , # # @ l {.-X X X X#X=X,X,X,XE.N.U.Q.5 l K.                ",
"                6.% 9.-X,X,XqX,X,X,X=X#X X-XG.# , , 6 O <.-X#X-XG.# , # # , O q {.=X X X XXXE.L.K.K.K.K.L.z.T 6.L.              ",
"              H.9 P -X,X,X,X,X,X*X#X X X X-XA.# , , 6 o O.&X[.#XP., O # # # 6 o n -X X#X#X.XXXQ.L.K.K.L.L.OX1.7 n.              ",
"            E.[ > U.9X,X,X,X,X#X#X X X X X&XA.# # , 6 o O.&X}. X,XY.%.@ # # # , O a.-X X#X#X#X#X=X!.N.XX4X4X{.7 ^ E.            ",
"            M.1 ) 4X,X,X,X,X#X#X#X#X X X X&XA.# # , 6 O O.&X}. X,X9XqXu.@ # # , O n &X X#X#X X X#XXXK.oX,X,X4X*.= k.            ",
"          ~.[ 4 U.4X,X,X,X,X,X X#X X X X X&XA.# , , 6 O O.%X}.}.,X4X,XqXn @ # # # 8 [.#X X#X#X#X#XoXL.,X,X,X,X Xu ^ E.          ",
"          H.9 ` &X,X,X,X,X,X,X,X#X X X X X&XA.# , , 6 O O.%X].}.4X4X4XqX2.o , # # , D.#X X X#X#X=X,X!.,X,X,X1X&X:.< M.          ",
"          4.& J.&X1X,X,X,X#X,X,X,X#X X X X#XA.# , , 6 O o.%X].}.,X4X,XqXt.o , # # # D.#X X X#X#X,X#XoX,X,X,X,X#XQ.3 &.~.        ",
"        E.V f =X,X,X,X,X,X#X#X#X#X#X#X X X#XA.# , , 6 O o.$X).}.,X4X,XqX{ o , # # 6 I.#X X#X#X#X#X#X#X,X,X,X,X,X-XI r L.        ",
"        M.1 >.&X,X,X,X,X,X#X#X#X X X#X#X X@XA.# , , , O o._.^.(.#X4XqXY.6 # , , @ h #X X#X#X#X X X#X#X=X,X,X,X,X&X9.: n.        ",
"        j.> m.&X,X,X,X,X#X X#X X X X X X#X-XA.@ , , 6 O O._.^.(.4XqXG.w @ , , 6 o ..-X X X X X X X#X#X#X,X,X,X1X#XR.> 4.        ",
"        &.5 XX#X,X,X,X#X#X X#X X X X X}.}.#XA.# , , 6 O O.$X^.(.I.v @ @ , # , @ q  X#X}.}. X X X X#X X#X,X,X,X,X,XoXy ( ~.      ",
"      ~.^ p ,X,X,X,X,X#X X X X X X X|.}.}.$XV.@ , , 6 O o.@XZ.(.V.@ # , # 6 # @ d.@X].}.}.}. X X X X#X#X#X,X,X,X,X-XL B E.      ",
"      E.N I -X,X,X,X,X#X X X X X X X|.}.}.@XV.# , , 6 O +.'._.`.Z.6 # # # O , q.$X].}.}.}.}. X X X#X X#X#X,X,X,X,X-X` e L.      ",
"      L.e / -X,X,X,X,X#X#X#X X X X X|.}.}.$XV.# , , , @ c H F H D @ # , , Z Z.$X].}.}.}.}.}.}. X X#X X X X*X,X,X,X-X} 7 H.      ",
"      H.9 ) 4X,X,X,X,X#X#X#X X X X X|.}.}.$XV.# , , # , @ O O O @ h 8 # 6 F w.(.$X].}.}.}.}. X X X X X X X,X,X,X,X9X*.1 M.      ",
"      H.7 $.9X,X,X,X,X,X,X#X#X#X#X#X#X#X X&XA.# , , # # , 6 6 , q _.M O , O O h e.%X}.|. X X X#X#X#X#X#X,X,X,X,X,XqXr.1 M.      ",
"      H.9 { 9X,X,X,X,X,X,X#X#X#X#X X X X|.@XA.@ , , , , # # , @ q $XZ @ , 6 6 @ ; O.%X}.|. X X#X#X#X#X#X,X,X,X,X,X9X2.1 M.      ",
"      K.d ) 4X,X,X,X*X#X X X X X X X|.}.}.$XV.# , , 6 @ J C.e.V.V._.x O 6 , , 6 , O O.%X}.}. X X X X X#X#X,X,X,X,X4X-.7 H.      ",
"      L.a Y -X,X,X,X,X#X X X X X X X|.}.}.@XV.# , , 6 O X.`.(._./.$X,.8 @ 6 , , , , ; A.@X}. X X X X#X#X#X,X,X,X,X-X} 9 H.      ",
"      ~.V P =X,X,X,X,X#X#X#X X X X X|.}.}.@XV.# , , 6 O X._.^.^.^.#XqX,XS @ 6 , , 6 @ l @X|. X X X X#X#X*X,X,X,X,X&XY r L.      ",
"        ] y oX,X,X,X,X*X#X X X X X X X|.}.@XA.# , , 6 O o.%X^././.#X4X4XqXA @ 6 , , , @ d.&X X X X X X#X*X,X,X,X,X=Xs C E.      ",
"        4.> R.#X,X,X,X,X#X#X#X#X X X|.}.|.&XA.# , , 6 O O.$X^.(./.#XwX,X9XY.6 , , , , O G &X X X X X X#X=X,X,X,X#XXX5 #.        ",
"        v.> x.&X,X,X,X,X,X#X#X#X X X X#X X&XA.# , , 6 O o._.^.}.(.#X4X4X,X9Xn O , # , @ l #X X X X X#X#X,X,X,X1X&Xm.> j.        ",
"        L.e ' -X,X,X,X,X,X#X#X#X#X#X#X#X X@XA.# , , 6 O o.$X^.}.}.#X4X4X,XqX{ o , # , @ q  X#X X X X X#X,X,X,X,X&X| 9 K.        ",
"        ~.] t oX#X,X,X,X,X#X#X#X#X#X X X X#XA.# , , 6 O o.%X].}.}.#X4X4X,XqX{ o , , , @ q  X=X,X#X X X*X,X,X,X,X,Xp ^ ~.        ",
"          k.= j.&X,X,X,X,X,X,X,X*X X X X X#XA.# , , 6 O O.%X].}.}.#X4X4X4XqXm o , , , @ j #X X#X#X#X#X,X,X,X,X&Xm.& i.          ",
"          L.N P #X,X,X,X,X,X,X#X#X X X X X#XA.# , , 6 O O.%X].}.}.#X4X,X9XY.6 # , , 6 o G -X X X#X,X,X,X,X,X,X&XY e L.          ",
"            6.= c.4X,X,X,X,X#X#X#X#X X X X&XA.# , , 6 O O.&X}.|.}.=X4X4XqXA @ 6 , , 6 @ a.-X X#X X#X,X,X,X,X4XG.& &.            ",
"            L.a z -X1X,X,X,X,X#X#X X X X X&XA.# , , 6 O O.&X}. X X,XqX,XS @ , , , 6 @ h #X#X X#X,X,X,X,X,X1X4X^ 9 H.            ",
"              6.* y.4X,X,X,X,X,X*X X X X X-XA.# , , 6 O O.&X X X X-X2.8 @ , , , , , @ f.-X X#X#X,X,X,X,X,X4Xc.* ;.~.            ",
"              E.V 5 {.4X,X,X,X,X,X#X X X X-XS.# , , 6 O ,.&X X X X&Xc O 6 , , , , o $.4X X#X#X#X4XqX,X,X,X Xp l L.              ",
"                M.< W &X,X,X,X,X,X,X*X#X X4XS.# , , 6 O <.4X#X#X X&Xn @ , , 6 @ o $.4X X#X,X,X,XqXqXqX1X-X .* v.                ",
"                  6.. 8.&XoX,X,X,X,X,X,X X4XF., , , , # j m S  X#X-Xn O 6 @ O w a.4X*X*X,X,X,XqXqXqX1X4Xz.% *.E.                ",
"                  E.[ % B.&X,XqX,X,X,X,X X4XF.@ @ @ @ @ @ O 8  X#X-Xn @ # l r. X-X X,X,X,X,X,X,XqX,X%XK.& ( E.                  ",
"                    L.^ & N.&X,X3X,X,X,X,X,X Xg.S.S.g.G.n o w  X,X4X2.@ + a.9X X X,X,X,X,X,X,X,X,X-XL.& V L.                    ",
"                      L.C % z.&X,X1X,X,X,X,X,X4X4X4X4X9XS o w .X,X4Xf.@ @ r.4X.X,X,X,X,X,X,X,X,X&XK.& l K.                      ",
"                        L.^ % 8.-X4X3X,X,X,X,X,XoX.X.X4XS o w ,X,X4Xs.@ @ t.4X,X,X,X,X,X,X,X,X&X9.% V K.                        ",
"                          E.#.% E U.4X,X1X,X,X,X,X,X,X4XA o 8 oX,X4Xa.o o t.9X,X,X,X,X,X,X4X{.' $ ] L.                          ",
"                            ~.6.7 5 3.=X4X,X,X,X,X,X,X9X$.l S ,X,X4XF.l l F.9X,X,X,X,X4X=Xu.t < 4.E.                            ",
"                                M.^ = p h.=X&X#X,X,X,X,X9X9X9X,X,X,X,XqXqXqX,X,X#X&X=Xc.s = V M.~.                              ",
"                                  E.j.B = p 0.Q.4X-X&X#X,X,X1X,X,X3X,X,X#X&X-X4XXX9.f & N 6.E.                                  ",
"                                      E.j.C 1 5 L 7.M.Q.oX=X-X4X4X-X=XoXXXK.7.L 5 > V 6.L.                                      ",
"                                          E.M.*.V 7 > 5 y g K b b K K p 5 > 7 B &.n.E.                                          ",
"                                                E.H.k.*.] ^ V B B V U ] *.j.H.E.                                                ",
"                                                            ~.E.E.E.~.                                                          ",
"                                                                                                                                ",
"                                                                                                                                ",
"                                                                                                                                ",
"                                                                                                                                "
};
