/* XPM */
static char *bitcoin16[] = {
/* columns rows colors chars-per-pixel */
"16 16 249 2 ",
"   c #F0D689",
".  c #EECF72",
"X  c #FBDB7F",
"o  c #E0B93E",
"O  c #DEB537",
"+  c #FBDE8E",
"@  c #EDCB67",
"#  c #EDCE72",
"$  c #F1D480",
"%  c #F7D983",
"&  c #F1CF6D",
"*  c #EECF76",
"=  c #F5D57B",
"-  c #F4D67F",
";  c #FFF296",
":  c #FFFBE2",
">  c #E7C252",
",  c #E6C256",
"<  c #E1BC49",
"1  c #E0BD4F",
"2  c #EFCB64",
"3  c #EECA64",
"4  c #E8C24E",
"5  c #E8C14D",
"6  c #BD7300",
"7  c #E8C045",
"8  c #E7BF47",
"9  c #B25E00",
"0  c white",
"q  c #891400",
"w  c #EBC555",
"e  c #E8C14C",
"r  c black",
"t  c #FBEBBA",
"y  c #D49B00",
"u  c #F9D46E",
"i  c #E9C554",
"p  c #E2CA74",
"a  c #E7D793",
"s  c #F8D36A",
"d  c #C88200",
"f  c #F9E8B5",
"g  c #F2D681",
"h  c #F6D26A",
"j  c #EFCF6C",
"k  c #EED27D",
"l  c #EDD27C",
"z  c #F1D377",
"x  c #F7D77A",
"c  c #F1D278",
"v  c #F0D278",
"b  c #FFE48E",
"n  c #ECCF76",
"m  c #EEDA9B",
"M  c #EEDA9B",
"N  c #ECCF76",
"B  c #FFE9A4",
"V  c #EFD074",
"C  c #F4DA8E",
"Z  c #FFE8AA",
"A  c #F1DB98",
"S  c #EFECE8",
"D  c #E2C886",
"F  c #E8D8B1",
"G  c #E7D9B5",
"H  c #EDD488",
"J  c #F6DA8C",
"K  c #F2D88A",
"L  c white",
"P  c #EFD68C",
"I  c #F6FBFF",
"U  c None",
"Y  c #F4F6FC",
"T  c #F0D580",
"R  c white",
"E  c #EDCE71",
"W  c #F3F6FF",
"Q  c #FAF5E4",
"!  c #EDCF77",
"~  c #FFFFD2",
"^  c #EDD58B",
"/  c #F0EFF0",
"(  c #EFEEEE",
")  c #EDD58E",
"_  c #FFF091",
"`  c #F1CC5F",
"'  c #EEDDA5",
"]  c #EEDDA8",
"[  c #F0CB5E",
"{  c #EECC67",
"}  c #F3F6FF",
"|  c #EBC960",
" . c #EFCA5C",
".. c #EEDEAB",
"X. c #EECA60",
"o. c #F9CE56",
"O. c #EED896",
"+. c #EEEDEC",
"@. c #EFF1F9",
"#. c #EDD999",
"$. c #F7CE5A",
"%. c #ECCF77",
"&. c #F2F3F9",
"*. c #F3F6FF",
"=. c #ECCF79",
"-. c #F1D070",
";. c #F2F5FF",
":. c #F3F6FF",
">. c #F1D174",
",. c #E8C65E",
"<. c #F0CF6F",
"1. c #F1F0EF",
"2. c #E4D09B",
"3. c #DEC071",
"4. c #E3CD97",
"5. c #E1C889",
"6. c #F6FEFF",
"7. c #EECE6D",
"8. c #E8C55B",
"9. c #E1B93E",
"0. c #F0CF6D",
"q. c #ECD48B",
"w. c #EBD48C",
"e. c #EECD6E",
"r. c #E1BB42",
"t. c #E4BE48",
"y. c #FCD97A",
"u. c #EDCD6B",
"i. c #EDD482",
"p. c #EEDA9B",
"a. c #EDD999",
"s. c #EED78C",
"d. c #ECCC69",
"f. c #FBD670",
"g. c #E2BB41",
"h. c #ECCC6A",
"j. c #FF8B00",
"k. c #FF9A00",
"l. c #EAC965",
"z. c #F0E4BD",
"x. c #EFE5C7",
"c. c #EFE6C9",
"v. c #EFE1B5",
"b. c #F0E8CC",
"n. c #F4F7FF",
"m. c #F5FCFF",
"M. c #F7F3E7",
"N. c #D3A427",
"B. c #E1CD98",
"V. c #D8B14C",
"C. c #DAB85F",
"Z. c #F0F2FA",
"A. c #F8EDC6",
"S. c #EFE3BE",
"D. c #EEF1F9",
"F. c #E3D4AD",
"G. c #CF990C",
"H. c #E7E5E1",
"J. c #E9D9B5",
"K. c #D09A0E",
"L. c #E2D0A2",
"P. c #EFF1F6",
"I. c #F1E6C2",
"U. c #F3F2F1",
"Y. c #EDF1FD",
"T. c #E2D3AF",
"R. c #D09D15",
"E. c #E0DBD2",
"W. c #F6FCFF",
"Q. c #D5A424",
"!. c #DBBE74",
"~. c #EEF3FF",
"^. c #F2F2F3",
"/. c #F2F5FC",
"(. c #ECEBEA",
"). c #EAEDFA",
"_. c #E0D1AD",
"`. c #D19D13",
"'. c #DEDAD4",
"]. c #DBBB6A",
"[. c #D2A327",
"{. c #E2DCD0",
"}. c #E9EBF3",
"|. c #ECECEB",
" X c #F3F5FD",
".X c #EDDEB0",
"XX c #EDECEB",
"oX c #EAEEFB",
"OX c #DFD0AD",
"+X c #D19C11",
"@X c #D4AD48",
"#X c #D1A637",
"$X c #E2E1E2",
"%X c #E8EAF2",
"&X c #EDECEC",
"*X c #EDDFB4",
"=X c #F3F5FE",
"-X c #ECEBEB",
";X c #E9EDFA",
":X c #DFD1AD",
">X c #D29D13",
",X c #D9D1BD",
"<X c #E4DED1",
"1X c #D6A31F",
"2X c #D5AC3D",
"3X c #E8E8ED",
"4X c #ECECEE",
"5X c #EDDEAE",
"6X c #F3F4F8",
"7X c #ECF0FC",
"8X c #E1D2AE",
"9X c #D29E15",
"0X c #DCD7CE",
"qX c #F3FBFF",
"wX c #E9D6A6",
"eX c #CE9602",
"rX c #E6DCC2",
"tX c #F3F3F6",
"yX c #F1EBD9",
"uX c #EDF0FA",
"iX c #E2D4AF",
"pX c #D29E17",
"aX c #E2DED4",
"sX c #F2F5FF",
"dX c #E0BF6B",
"fX c #CF9A0E",
"gX c #E9E3D4",
"hX c #F1EBDA",
"jX c #ECD794",
"kX c #F4F5F9",
"lX c #E5D4AA",
"zX c #CF9702",
"xX c #E7DFCB",
"cX c #E3D2A6",
"vX c #CF9807",
"bX c #E1CA8F",
"nX c #F8F9FE",
"mX c #ECD796",
"MX c #EEDB9E",
"NX c #F4F6FA",
"BX c #F4F4F5",
"VX c #EFDDA2",
"CX c #F1E8CC",
"ZX c #F3F2ED",
"AX c #ECE2C6",
"SX c #EFE8D4",
"DX c #EEE4CA",
"FX c #F1E8CD",
"GX c black",
/* pixels */
"  . g X o h j k l z x O + c @ # ",
"$ v % b n m z.x.c.v.M N B & V * ",
"C = Z A b.n.S D F G m.c.H J - K ",
"; L P M.I U N.B.V.C.Z.Y A.T R : ",
"> E S.W D.F.G.H.J.K.L.P.Q I.! , ",
"~ ^ U./ Y.T.R.E.W.Q.!.~.( ^.) _ ",
"` ' /.(.)._.`.'.].[.{.}.|. X] [ ",
"{ .X} XXoXOX+X@X#X@X$X%X&X} *X| ",
" ...=X-X;X:X>X,X<X1X2X3X4X X5XX.",
"o.O.6X+.7X8X9X0XqXwXeXrX@.tX#.$.",
"< %.yX&.uXiXpXaXsXdXfXgX*.hX=.1 ",
"2 -.jXkX;.lXzXxXcXvXbX:.nXmX>.3 ",
",.4 <.MXNX1.2.3.4.5.6.BXVX7.5 8.",
"6 9.7 0.q.CXZXAXSXDXFXw.e.8 r.9 ",
"0 q t.w y.u.i.p.a.s.d.f.e g.r 0 ",
"t r y h.u i p j.k.a 4 s l.d 0 f "
};
